( Aspire__Puma )
( File created: Saturday December 04 2021 - 11:18 PM)
( for Mach2/3 from Vectric )
( Material Size)
( X= 200.000, Y= 250.000, Z= 5.000)
()
(Toolpaths used in this file:)
(Acabado 3D 1)
(Tools used in this file: )
(1 = Ball Nose {0.0625 inch})
N100G00G21G17G90G40G49G80
N110G71G91.1
N120T1M06
N130 (Ball Nose {0.0625 inch})
N140G00G43Z20.000H1
N150S12000M03
N160(Toolpath:- Acabado 3D 1)
N170()
N180G94
N190X0.000Y0.000F635.0
N200G00X100.000Y125.020Z5.000
N210G1Z-2.504F381.0
N220G1X99.980Y125.000Z-2.501F635.0
N230G1X100.000Y124.980Z-2.498
N240G1X100.020Y125.000Z-2.501
N250G1X100.000Y125.020Z-2.504
N260G1Y125.338Z-2.529
N270G1X99.864Y125.309Z-2.533
N280G1X99.744Y125.220Z-2.528
N290G1X99.675Y125.090Z-2.518
N300G1X99.665Y124.956Z-2.507
N310G1X99.714Y124.821Z-2.495
N320G1X99.821Y124.714Z-2.483
N330G1X99.956Y124.665Z-2.471
N340G1X100.099Y124.677Z-2.469
N350G1X100.239Y124.761Z-2.473
N360G1X100.323Y124.901Z-2.479
N370G1X100.335Y125.044Z-2.492
N380G1X100.286Y125.179Z-2.506
N390G1X100.179Y125.286Z-2.518
N400G1X100.044Y125.335Z-2.529
N410G1X100.000Y125.338Z-2.529
N420G1Y125.655Z-2.559
N430G1X99.825Y125.631Z-2.566
N440G1X99.652Y125.555Z-2.563
N450G1X99.503Y125.427Z-2.556
N460G1X99.400Y125.263Z-2.550
N470G1X99.351Y125.086Z-2.532
N480G1Y124.914Z-2.515
N490G1X99.400Y124.737Z-2.500
N500G1X99.503Y124.573Z-2.483
N510G1X99.652Y124.445Z-2.466
N520G1X99.825Y124.369Z-2.458
N530G1X100.000Y124.345Z-2.450
N540G1X100.192Y124.374Z-2.444
N550G1X100.381Y124.467Z-2.443
N560G1X100.533Y124.619Z-2.452
N570G1X100.626Y124.808Z-2.462
N580G1X100.655Y125.000Z-2.477
N590G1X100.631Y125.175Z-2.489
N600G1X100.555Y125.348Z-2.507
N610G1X100.427Y125.497Z-2.528
N620G1X100.263Y125.600Z-2.544
N630G1X100.086Y125.649Z-2.555
N640G1X100.000Y125.655Z-2.559
N650G1Y125.973Z-2.594
N660G1X99.741Y125.937Z-2.601
N670G1X99.610Y125.891Z-2.602
N680G1X99.483Y125.824Z-2.596
N690G1X99.366Y125.737Z-2.599
N700G1X99.263Y125.634Z-2.586
N710G1X99.176Y125.517Z-2.583
N720G1X99.109Y125.390Z-2.568
N730G1X99.063Y125.259Z-2.560
N740G1X99.027Y125.000Z-2.535
N750G1X99.063Y124.741Z-2.509
N760G1X99.109Y124.610Z-2.498
N770G1X99.176Y124.483Z-2.486
N780G1X99.263Y124.366Z-2.473
N790G1X99.366Y124.263Z-2.463
N800G1X99.483Y124.176Z-2.451
N810G1X99.610Y124.109Z-2.446
N820G1X99.872Y124.036Z-2.431
N830G1X100.141Y124.038Z-2.421
N840G1X100.286Y124.070Z-2.422
N850G1X100.429Y124.127Z-2.420
N860G1X100.565Y124.209Z-2.419
N870G1X100.688Y124.312Z-2.426
N880G1X100.791Y124.435Z-2.427
N890G1X100.873Y124.571Z-2.436
N900G1X100.930Y124.714Z-2.445
N910G1X100.962Y124.859Z-2.455
N920G1X100.964Y125.128Z-2.475
N930G1X100.937Y125.259Z-2.490
N940G1X100.891Y125.390Z-2.498
N950G1X100.824Y125.517Z-2.512
N960G1X100.737Y125.634Z-2.528
N970G1X100.634Y125.737Z-2.541
N980G1X100.517Y125.824Z-2.554
N990G1X100.390Y125.891Z-2.565
N1000G1X100.259Y125.937Z-2.581
N1010G1X100.000Y125.973Z-2.594
N1020G1Y126.290Z-2.626
N1030G1X99.830Y126.279Z-2.634
N1040G1X99.656Y126.243Z-2.637
N1050G1X99.482Y126.181Z-2.640
N1060G1X99.314Y126.093Z-2.635
N1070G1X99.159Y125.978Z-2.634
N1080G1X99.022Y125.841Z-2.619
N1090G1X98.907Y125.686Z-2.610
N1100G1X98.819Y125.518Z-2.595
N1110G1X98.757Y125.344Z-2.578
N1120G1X98.721Y125.170Z-2.563
N1130G1X98.710Y125.000Z-2.549
N1140G1X98.721Y124.830Z-2.534
N1150G1X98.757Y124.656Z-2.513
N1160G1X98.819Y124.482Z-2.494
N1170G1X98.907Y124.314Z-2.482
N1180G1X99.022Y124.159Z-2.464
N1190G1X99.159Y124.022Z-2.452
N1200G1X99.314Y123.907Z-2.438
N1210G1X99.482Y123.819Z-2.427
N1220G1X99.656Y123.757Z-2.418
N1230G1X99.830Y123.721Z-2.413
N1240G1X100.000Y123.710Z-2.405
N1250G1X100.187Y123.724Z-2.399
N1260G1X100.379Y123.767Z-2.396
N1270G1X100.569Y123.842Z-2.399
N1280G1X100.750Y123.950Z-2.400
N1290G1X100.912Y124.088Z-2.404
N1300G1X101.050Y124.250Z-2.406
N1310G1X101.158Y124.431Z-2.417
N1320G1X101.233Y124.621Z-2.426
N1330G1X101.276Y124.813Z-2.439
N1340G1X101.290Y125.000Z-2.454
N1350G1X101.279Y125.170Z-2.464
N1360G1X101.243Y125.344Z-2.479
N1370G1X101.181Y125.518Z-2.500
N1380G1X101.093Y125.686Z-2.518
N1390G1X100.978Y125.841Z-2.535
N1400G1X100.841Y125.978Z-2.554
N1410G1X100.686Y126.093Z-2.573
N1420G1X100.518Y126.181Z-2.593
N1430G1X100.344Y126.243Z-2.603
N1440G1X100.170Y126.279Z-2.615
N1450G1X100.000Y126.290Z-2.626
N1460G1Y126.607Z-2.665
N1470G1X99.789Y126.594Z-2.675
N1480G1X99.571Y126.549Z-2.680
N1490G1X99.355Y126.472Z-2.684
N1500G1X99.146Y126.362Z-2.679
N1510G1X98.952Y126.219Z-2.672
N1520G1X98.781Y126.048Z-2.654
N1530G1X98.638Y125.854Z-2.638
N1540G1X98.528Y125.645Z-2.619
N1550G1X98.451Y125.429Z-2.599
N1560G1X98.406Y125.211Z-2.577
N1570G1X98.393Y125.000Z-2.557
N1580G1X98.406Y124.789Z-2.537
N1590G1X98.451Y124.571Z-2.519
N1600G1X98.528Y124.355Z-2.498
N1610G1X98.638Y124.146Z-2.475
N1620G1X98.781Y123.952Z-2.456
N1630G1X98.952Y123.781Z-2.441
N1640G1X99.146Y123.638Z-2.427
N1650G1X99.355Y123.528Z-2.412
N1660G1X99.571Y123.451Z-2.403
N1670G1X99.789Y123.406Z-2.395
N1680G1X100.000Y123.393Z-2.388
N1690G1X100.233Y123.409Z-2.382
N1700G1X100.472Y123.463Z-2.379
N1710G1X100.709Y123.557Z-2.377
N1720G1X100.934Y123.692Z-2.379
N1730G1X101.137Y123.863Z-2.383
N1740G1X101.308Y124.066Z-2.389
N1750G1X101.443Y124.291Z-2.400
N1760G1X101.537Y124.528Z-2.411
N1770G1X101.591Y124.767Z-2.427
N1780G1X101.607Y125.000Z-2.444
N1790G1X101.594Y125.211Z-2.460
N1800G1X101.549Y125.429Z-2.476
N1810G1X101.472Y125.645Z-2.497
N1820G1X101.362Y125.854Z-2.521
N1830G1X101.219Y126.048Z-2.543
N1840G1X101.048Y126.219Z-2.568
N1850G1X100.854Y126.362Z-2.593
N1860G1X100.645Y126.472Z-2.615
N1870G1X100.429Y126.549Z-2.633
N1880G1X100.211Y126.594Z-2.651
N1890G1X100.000Y126.607Z-2.665
N1900G1Y126.925Z-2.716
N1910G1X99.747Y126.908Z-2.759
N1920G1X99.487Y126.855Z-2.753
N1930G1X99.227Y126.763Z-2.758
N1940G1X98.977Y126.631Z-2.751
N1950G1X98.745Y126.460Z-2.741
N1960G1X98.540Y126.255Z-2.700
N1970G1X98.369Y126.023Z-2.671
N1980G1X98.237Y125.773Z-2.650
N1990G1X98.145Y125.513Z-2.623
N2000G1X98.092Y125.253Z-2.595
N2010G1X98.075Y125.000Z-2.570
N2020G1X98.092Y124.747Z-2.543
N2030G1X98.145Y124.487Z-2.516
N2040G1X98.237Y124.227Z-2.493
N2050G1X98.369Y123.977Z-2.468
N2060G1X98.540Y123.745Z-2.448
N2070G1X98.745Y123.540Z-2.430
N2080G1X98.977Y123.369Z-2.414
N2090G1X99.227Y123.237Z-2.399
N2100G1X99.487Y123.145Z-2.386
N2110G1X99.747Y123.092Z-2.375
N2120G1X100.000Y123.075Z-2.369
N2130G1X100.279Y123.095Z-2.364
N2140G1X100.566Y123.160Z-2.360
N2150G1X100.849Y123.273Z-2.356
N2160G1X101.119Y123.433Z-2.359
N2170G1X101.361Y123.639Z-2.363
N2180G1X101.567Y123.881Z-2.371
N2190G1X101.727Y124.151Z-2.379
N2200G1X101.840Y124.434Z-2.395
N2210G1X101.905Y124.721Z-2.410
N2220G1X101.925Y125.000Z-2.431
N2230G1X101.908Y125.253Z-2.449
N2240G1X101.855Y125.513Z-2.472
N2250G1X101.763Y125.773Z-2.494
N2260G1X101.631Y126.023Z-2.524
N2270G1X101.460Y126.255Z-2.551
N2280G1X101.255Y126.460Z-2.582
N2290G1X101.023Y126.631Z-2.615
N2300G1X100.773Y126.763Z-2.640
N2310G1X100.513Y126.855Z-2.669
N2320G1X100.253Y126.908Z-2.696
N2330G1X100.000Y126.925Z-2.716
N2340G1Y127.243Z-2.827
N2350G1X99.705Y127.223Z-2.897
N2360G1X99.402Y127.161Z-2.903
N2370G1X99.100Y127.054Z-2.909
N2380G1X98.808Y126.899Z-2.899
N2390G1X98.538Y126.700Z-2.879
N2400G1X98.300Y126.462Z-2.776
N2410G1X98.101Y126.192Z-2.729
N2420G1X97.946Y125.900Z-2.674
N2430G1X97.839Y125.598Z-2.643
N2440G1X97.777Y125.295Z-2.613
N2450G1X97.757Y125.000Z-2.579
N2460G1X97.777Y124.705Z-2.548
N2470G1X97.839Y124.402Z-2.522
N2480G1X97.946Y124.100Z-2.492
N2490G1X98.101Y123.808Z-2.465
N2500G1X98.300Y123.538Z-2.441
N2510G1X98.538Y123.300Z-2.419
N2520G1X98.808Y123.101Z-2.400
N2530G1X99.100Y122.946Z-2.386
N2540G1X99.402Y122.839Z-2.373
N2550G1X99.705Y122.777Z-2.362
N2560G1X100.000Y122.757Z-2.355
N2570G1X100.325Y122.781Z-2.348
N2580G1X100.659Y122.856Z-2.341
N2590G1X100.990Y122.988Z-2.340
N2600G1X101.303Y123.175Z-2.341
N2610G1X101.586Y123.414Z-2.345
N2620G1X101.825Y123.697Z-2.352
N2630G1X102.012Y124.010Z-2.362
N2640G1X102.144Y124.341Z-2.379
N2650G1X102.219Y124.675Z-2.395
N2660G1X102.243Y125.000Z-2.420
N2670G1X102.223Y125.295Z-2.438
N2680G1X102.161Y125.598Z-2.463
N2690G1X102.054Y125.900Z-2.498
N2700G1X101.899Y126.192Z-2.527
N2710G1X101.700Y126.462Z-2.560
N2720G1X101.462Y126.700Z-2.597
N2730G1X101.192Y126.899Z-2.635
N2740G1X100.900Y127.054Z-2.671
N2750G1X100.598Y127.161Z-2.707
N2760G1X100.295Y127.223Z-2.769
N2770G1X100.000Y127.243Z-2.827
N2780G1Y127.560Z-3.029
N2790G1X99.832Y127.549Z-3.063
N2800G1X99.663Y127.538Z-3.123
N2810G1X99.490Y127.503Z-3.173
N2820G1X99.317Y127.467Z-3.159
N2830G1X99.145Y127.406Z-3.149
N2840G1X98.972Y127.345Z-3.169
N2850G1X98.806Y127.256Z-3.183
N2860G1X98.639Y127.168Z-3.153
N2870G1X98.485Y127.055Z-3.127
N2880G1X98.331Y126.941Z-3.063
N2890G1X98.195Y126.805Z-2.974
N2900G1X98.059Y126.669Z-2.918
N2910G1X97.832Y126.361Z-2.823
N2920G1X97.744Y126.194Z-2.755
N2930G1X97.655Y126.028Z-2.711
N2940G1X97.533Y125.683Z-2.665
N2950G1X97.462Y125.337Z-2.626
N2960G1X97.440Y125.000Z-2.590
N2970G1X97.462Y124.663Z-2.554
N2980G1X97.533Y124.317Z-2.523
N2990G1X97.655Y123.972Z-2.489
N3000G1X97.832Y123.639Z-2.462
N3010G1X98.059Y123.331Z-2.435
N3020G1X98.331Y123.059Z-2.410
N3030G1X98.639Y122.832Z-2.389
N3040G1X98.972Y122.655Z-2.374
N3050G1X99.317Y122.533Z-2.360
N3060G1X99.663Y122.462Z-2.349
N3070G1X100.000Y122.440Z-2.340
N3080G1X100.371Y122.467Z-2.333
N3090G1X100.752Y122.553Z-2.327
N3100G1X101.130Y122.703Z-2.324
N3110G1X101.488Y122.917Z-2.324
N3120G1X101.810Y123.190Z-2.327
N3130G1X102.083Y123.512Z-2.335
N3140G1X102.297Y123.870Z-2.347
N3150G1X102.447Y124.248Z-2.361
N3160G1X102.533Y124.629Z-2.383
N3170G1X102.560Y125.000Z-2.408
N3180G1X102.538Y125.337Z-2.430
N3190G1X102.467Y125.683Z-2.463
N3200G1X102.345Y126.028Z-2.491
N3210G1X102.168Y126.361Z-2.531
N3220G1X101.941Y126.669Z-2.570
N3230G1X101.669Y126.941Z-2.612
N3240G1X101.361Y127.168Z-2.658
N3250G1X101.028Y127.345Z-2.701
N3260G1X100.855Y127.406Z-2.735
N3270G1X100.683Y127.467Z-2.793
N3280G1X100.337Y127.538Z-2.890
N3290G1X100.000Y127.560Z-3.029
N3300G1Y127.878Z-3.308
N3310G1X99.622Y127.853Z-3.538
N3320G1X99.427Y127.813Z-3.671
N3330G1X99.233Y127.773Z-3.647
N3340G1X99.039Y127.704Z-3.622
N3350G1X98.845Y127.635Z-3.666
N3360G1X98.658Y127.536Z-3.693
N3370G1X98.470Y127.437Z-3.635
N3380G1X98.297Y127.310Z-3.546
N3390G1X98.124Y127.182Z-3.377
N3400G1X97.971Y127.029Z-3.243
N3410G1X97.818Y126.876Z-3.167
N3420G1X97.563Y126.530Z-2.934
N3430G1X97.464Y126.342Z-2.847
N3440G1X97.365Y126.155Z-2.796
N3450G1X97.227Y125.767Z-2.691
N3460G1X97.147Y125.378Z-2.645
N3470G1X97.122Y125.000Z-2.604
N3480G1X97.147Y124.622Z-2.568
N3490G1X97.227Y124.233Z-2.524
N3500G1X97.365Y123.845Z-2.493
N3510G1X97.563Y123.470Z-2.457
N3520G1X97.818Y123.124Z-2.428
N3530G1X98.124Y122.818Z-2.400
N3540G1X98.470Y122.563Z-2.381
N3550G1X98.845Y122.365Z-2.361
N3560G1X99.233Y122.227Z-2.349
N3570G1X99.622Y122.147Z-2.337
N3580G1X100.000Y122.122Z-2.327
N3590G1X100.417Y122.153Z-2.318
N3600G1X100.845Y122.250Z-2.313
N3610G1X101.270Y122.418Z-2.308
N3620G1X101.672Y122.658Z-2.308
N3630G1X102.035Y122.965Z-2.311
N3640G1X102.342Y123.328Z-2.319
N3650G1X102.582Y123.730Z-2.329
N3660G1X102.750Y124.155Z-2.349
N3670G1X102.847Y124.583Z-2.368
N3680G1X102.878Y125.000Z-2.395
N3690G1X102.853Y125.378Z-2.419
N3700G1X102.773Y125.767Z-2.452
N3710G1X102.635Y126.155Z-2.492
N3720G1X102.437Y126.530Z-2.532
N3730G1X102.182Y126.876Z-2.579
N3740G1X101.876Y127.182Z-2.627
N3750G1X101.530Y127.437Z-2.678
N3760G1X101.342Y127.536Z-2.709
N3770G1X101.155Y127.635Z-2.771
N3780G1X100.767Y127.773Z-2.902
N3790G1X100.573Y127.813Z-2.993
N3800G1X100.378Y127.853Z-3.107
N3810G1X100.189Y127.865Z-3.186
N3820G1X100.000Y127.878Z-3.308
N3830G1Y128.195Z-3.945
N3840G1X99.790Y128.181Z-5.000
N3850G1X99.580Y128.167
N3860G1X99.148Y128.079
N3870G1X98.717Y127.926
N3880G1X98.302Y127.706
N3890G1X97.917Y127.423
N3900G1X97.747Y127.253Z-3.801
N3910G1X97.577Y127.083Z-3.553
N3920G1X97.436Y126.891Z-3.292
N3930G1X97.294Y126.698Z-3.139
N3940G1X97.074Y126.283Z-2.904
N3950G1X96.997Y126.067Z-2.795
N3960G1X96.921Y125.852Z-2.728
N3970G1X96.833Y125.420Z-2.658
N3980G1X96.805Y125.000Z-2.614
N3990G1X96.833Y124.580Z-2.575
N4000G1X96.921Y124.148Z-2.536
N4010G1X97.074Y123.717Z-2.491
N4020G1X97.294Y123.302Z-2.452
N4030G1X97.577Y122.917Z-2.423
N4040G1X97.917Y122.577Z-2.392
N4050G1X98.302Y122.294Z-2.372
N4060G1X98.717Y122.074Z-2.353
N4070G1X99.148Y121.921Z-2.338
N4080G1X99.580Y121.833Z-2.326
N4090G1X100.000Y121.805Z-2.316
N4100G1X100.463Y121.839Z-2.307
N4110G1X100.939Y121.946Z-2.300
N4120G1X101.410Y122.133Z-2.295
N4130G1X101.857Y122.400Z-2.294
N4140G1X102.259Y122.741Z-2.296
N4150G1X102.600Y123.143Z-2.303
N4160G1X102.867Y123.590Z-2.315
N4170G1X103.054Y124.061Z-2.334
N4180G1X103.161Y124.537Z-2.357
N4190G1X103.195Y125.000Z-2.384
N4200G1X103.167Y125.420Z-2.414
N4210G1X103.079Y125.852Z-2.446
N4220G1X102.926Y126.283Z-2.489
N4230G1X102.706Y126.698Z-2.537
N4240G1X102.423Y127.083Z-2.589
N4250G1X102.083Y127.423Z-2.643
N4260G1X101.698Y127.706Z-2.716
N4270G1X101.283Y127.926Z-2.851
N4280G1X101.067Y128.003Z-2.954
N4290G1X100.852Y128.079Z-3.106
N4300G1X100.636Y128.123Z-3.224
N4310G1X100.420Y128.167Z-3.415
N4320G1X100.210Y128.181Z-3.641
N4330G1X100.000Y128.195Z-3.945
N4340G1Y128.512Z-5.000
N4350G1X99.538Y128.482
N4360G1X99.063Y128.385
N4370G1X98.590Y128.217
N4380G1X98.133Y127.975
N4390G1X97.710Y127.663
N4400G1X97.337Y127.290
N4410G1X97.181Y127.078Z-3.807
N4420G1X97.025Y126.867Z-3.516
N4430G1X96.904Y126.639Z-3.221
N4440G1X96.783Y126.410Z-3.030
N4450G1X96.699Y126.174Z-2.897
N4460G1X96.615Y125.937Z-2.820
N4470G1X96.566Y125.699Z-2.729
N4480G1X96.518Y125.462Z-2.677
N4490G1X96.487Y125.000Z-2.628
N4500G1X96.518Y124.538Z-2.583
N4510G1X96.615Y124.063Z-2.538
N4520G1X96.783Y123.590Z-2.493
N4530G1X97.025Y123.133Z-2.452
N4540G1X97.337Y122.710Z-2.419
N4550G1X97.710Y122.337Z-2.386
N4560G1X98.133Y122.025Z-2.363
N4570G1X98.590Y121.783Z-2.345
N4580G1X99.063Y121.615Z-2.330
N4590G1X99.538Y121.518Z-2.317
N4600G1X100.000Y121.487Z-2.306
N4610G1X100.509Y121.525Z-2.297
N4620G1X101.032Y121.643Z-2.289
N4630G1X101.550Y121.848Z-2.283
N4640G1X102.041Y122.141Z-2.281
N4650G1X102.484Y122.516Z-2.282
N4660G1X102.859Y122.959Z-2.288
N4670G1X103.152Y123.450Z-2.301
N4680G1X103.357Y123.968Z-2.317
N4690G1X103.475Y124.491Z-2.342
N4700G1X103.513Y125.000Z-2.372
N4710G1X103.482Y125.462Z-2.403
N4720G1X103.385Y125.937Z-2.443
N4730G1X103.217Y126.410Z-2.486
N4740G1X102.975Y126.867Z-2.540
N4750G1X102.663Y127.290Z-2.600
N4760G1X102.290Y127.663Z-2.660
N4770G1X101.867Y127.975Z-2.758
N4780G1X101.639Y128.096Z-2.847
N4790G1X101.410Y128.217Z-2.994
N4800G1X101.174Y128.301Z-3.142
N4810G1X100.937Y128.385Z-3.356
N4820G1X100.699Y128.434Z-3.673
N4830G1X100.462Y128.482Z-5.000
N4840G1X100.000Y128.512
N4850G1Y128.830
N4860G1X99.496Y128.797
N4870G1X98.979Y128.691
N4880G1X98.462Y128.508
N4890G1X97.964Y128.244
N4900G1X97.503Y127.904
N4910G1X97.096Y127.497
N4920G1X96.756Y127.036
N4930G1X96.668Y126.870Z-3.690
N4940G1X96.580Y126.704Z-3.429
N4950G1X96.492Y126.538Z-3.268
N4960G1X96.309Y126.021Z-2.881
N4970G1X96.256Y125.763Z-2.765
N4980G1X96.203Y125.504Z-2.702
N4990G1X96.170Y125.000Z-2.636
N5000G1X96.203Y124.496Z-2.591
N5010G1X96.309Y123.979Z-2.545
N5020G1X96.492Y123.462Z-2.502
N5030G1X96.756Y122.964Z-2.457
N5040G1X97.096Y122.503Z-2.417
N5050G1X97.503Y122.096Z-2.382
N5060G1X97.964Y121.756Z-2.356
N5070G1X98.462Y121.492Z-2.337
N5080G1X98.979Y121.309Z-2.322
N5090G1X99.496Y121.203Z-2.309
N5100G1X100.000Y121.170Z-2.298
N5110G1X100.555Y121.210Z-2.288
N5120G1X101.125Y121.339Z-2.279
N5130G1X101.690Y121.563Z-2.272
N5140G1X102.226Y121.883Z-2.268
N5150G1X102.708Y122.292Z-2.269
N5160G1X103.117Y122.774Z-2.274
N5170G1X103.437Y123.310Z-2.286
N5180G1X103.661Y123.875Z-2.305
N5190G1X103.790Y124.445Z-2.327
N5200G1X103.830Y125.000Z-2.361
N5210G1X103.797Y125.504Z-2.392
N5220G1X103.691Y126.021Z-2.432
N5230G1X103.508Y126.538Z-2.482
N5240G1X103.244Y127.036Z-2.542
N5250G1X102.904Y127.497Z-2.608
N5260G1X102.497Y127.904Z-2.677
N5270G1X102.343Y128.018Z-2.704
N5280G1X102.189Y128.131Z-2.753
N5290G1X102.036Y128.244Z-2.829
N5300G1X101.704Y128.420Z-3.026
N5310G1X101.538Y128.508Z-3.159
N5320G1X101.280Y128.599Z-3.426
N5330G1X101.021Y128.691Z-3.926
N5340G1X100.763Y128.744Z-5.000
N5350G1X100.504Y128.797
N5360G1X100.000Y128.830
N5370G1Y129.148
N5380G1X99.455Y129.111
N5390G1X98.894Y128.997
N5400G1X98.335Y128.798
N5410G1X97.795Y128.513
N5420G1X97.296Y128.145
N5430G1X96.855Y127.704
N5440G1X96.487Y127.205
N5450G1X96.297Y126.845
N5460G1X96.202Y126.665Z-3.622
N5470G1X96.135Y126.479Z-3.320
N5480G1X96.069Y126.292Z-3.129
N5490G1X96.003Y126.106Z-2.998
N5500G1X95.965Y125.919Z-2.897
N5510G1X95.889Y125.545Z-2.750
N5520G1X95.871Y125.273Z-2.677
N5530G1X95.853Y125.000Z-2.648
N5540G1X95.889Y124.455Z-2.600
N5550G1X96.003Y123.894Z-2.561
N5560G1X96.202Y123.335Z-2.508
N5570G1X96.487Y122.795Z-2.459
N5580G1X96.855Y122.296Z-2.417
N5590G1X97.296Y121.855Z-2.380
N5600G1X97.795Y121.487Z-2.351
N5610G1X98.335Y121.202Z-2.331
N5620G1X98.894Y121.003Z-2.315
N5630G1X99.455Y120.889Z-2.302
N5640G1X100.000Y120.853Z-2.292
N5650G1X100.601Y120.896Z-2.281
N5660G1X101.219Y121.036Z-2.271
N5670G1X101.830Y121.278Z-2.263
N5680G1X102.410Y121.625Z-2.257
N5690G1X102.933Y122.067Z-2.256
N5700G1X103.375Y122.590Z-2.261
N5710G1X103.722Y123.170Z-2.272
N5720G1X103.964Y123.781Z-2.289
N5730G1X104.104Y124.399Z-2.316
N5740G1X104.147Y125.000Z-2.348
N5750G1X104.111Y125.545Z-2.382
N5760G1X103.997Y126.106Z-2.427
N5770G1X103.798Y126.665Z-2.479
N5780G1X103.513Y127.205Z-2.541
N5790G1X103.145Y127.704Z-2.617
N5800G1X102.704Y128.145Z-2.694
N5810G1X102.537Y128.268Z-2.749
N5820G1X102.205Y128.513Z-2.923
N5830G1X102.025Y128.608Z-3.037
N5840G1X101.845Y128.703Z-3.203
N5850G1X101.665Y128.798Z-3.449
N5860G1X101.479Y128.865Z-3.742
N5870G1X101.292Y128.931Z-5.000
N5880G1X101.106Y128.997
N5890G1X100.545Y129.111
N5900G1X100.000Y129.148
N5910G1Y129.465
N5920G1X99.413Y129.426
N5930G1X98.809Y129.303
N5940G1X98.207Y129.089
N5950G1X97.627Y128.782
N5960G1X97.089Y128.386
N5970G1X96.614Y127.911
N5980G1X96.218Y127.373
N5990G1X95.911Y126.793
N6000G1X95.839Y126.592Z-3.693
N6010G1X95.768Y126.391Z-3.395
N6020G1X95.697Y126.191Z-3.199
N6030G1X95.656Y125.990Z-3.010
N6040G1X95.615Y125.788Z-2.877
N6050G1X95.574Y125.587Z-2.784
N6060G1X95.561Y125.391Z-2.721
N6070G1X95.535Y125.000Z-2.667
N6080G1X95.574Y124.413Z-2.616
N6090G1X95.697Y123.809Z-2.568
N6100G1X95.911Y123.207Z-2.518
N6110G1X96.218Y122.627Z-2.465
N6120G1X96.614Y122.089Z-2.417
N6130G1X97.089Y121.614Z-2.379
N6140G1X97.627Y121.218Z-2.348
N6150G1X98.207Y120.911Z-2.326
N6160G1X98.809Y120.697Z-2.310
N6170G1X99.413Y120.574Z-2.297
N6180G1X100.000Y120.535Z-2.286
N6190G1X100.647Y120.582Z-2.274
N6200G1X101.312Y120.732Z-2.264
N6210G1X101.970Y120.993Z-2.254
N6220G1X102.595Y121.366Z-2.247
N6230G1X103.157Y121.843Z-2.245
N6240G1X103.634Y122.405Z-2.248
N6250G1X104.007Y123.030Z-2.257
N6260G1X104.268Y123.688Z-2.277
N6270G1X104.418Y124.353Z-2.301
N6280G1X104.465Y125.000Z-2.336
N6290G1X104.426Y125.587Z-2.371
N6300G1X104.303Y126.191Z-2.421
N6310G1X104.089Y126.793Z-2.480
N6320G1X103.782Y127.373Z-2.543
N6330G1X103.386Y127.911Z-2.623
N6340G1X103.069Y128.227Z-2.682
N6350G1X102.911Y128.386Z-2.736
N6360G1X102.732Y128.518Z-2.795
N6370G1X102.553Y128.650Z-2.893
N6380G1X102.373Y128.782Z-3.038
N6390G1X102.180Y128.884Z-3.233
N6400G1X101.986Y128.987Z-3.480
N6410G1X101.793Y129.089Z-3.939
N6420G1X101.592Y129.161Z-5.000
N6430G1X101.191Y129.303
N6440G1X100.587Y129.426
N6450G1X100.000Y129.465
N6460G1Y129.783
N6470G1X99.790Y129.769
N6480G1X99.581Y129.755Z-4.093
N6490G1X99.371Y129.741Z-3.878
N6500G1X99.156Y129.697Z-3.983
N6510G1X98.940Y129.653Z-3.982
N6520G1X98.725Y129.609Z-3.784
N6530G1X98.510Y129.533Z-3.840
N6540G1X98.295Y129.456Z-5.000
N6550G1X98.080Y129.380
N6560G1X97.458Y129.051
N6570G1X96.882Y128.626
N6580G1X96.374Y128.118
N6590G1X95.949Y127.542
N6600G1X95.620Y126.920
N6610G1X95.544Y126.705
N6620G1X95.467Y126.490Z-3.780
N6630G1X95.391Y126.275Z-3.373
N6640G1X95.347Y126.060Z-3.137
N6650G1X95.303Y125.844Z-2.980
N6660G1X95.259Y125.629Z-2.875
N6670G1X95.231Y125.210Z-2.740
N6680G1X95.217Y125.000Z-2.697
N6690G1X95.259Y124.371Z-2.635
N6700G1X95.391Y123.725Z-2.582
N6710G1X95.620Y123.080Z-2.524
N6720G1X95.949Y122.458Z-2.470
N6730G1X96.374Y121.882Z-2.419
N6740G1X96.882Y121.374Z-2.379
N6750G1X97.458Y120.949Z-2.346
N6760G1X98.080Y120.620Z-2.322
N6770G1X98.725Y120.391Z-2.306
N6780G1X99.371Y120.259Z-2.293
N6790G1X100.000Y120.217Z-2.282
N6800G1X100.693Y120.268Z-2.270
N6810G1X101.405Y120.429Z-2.258
N6820G1X102.110Y120.708Z-2.247
N6830G1X102.779Y121.108Z-2.239
N6840G1X103.382Y121.618Z-2.234
N6850G1X103.892Y122.221Z-2.236
N6860G1X104.292Y122.890Z-2.246
N6870G1X104.571Y123.595Z-2.263
N6880G1X104.732Y124.307Z-2.290
N6890G1X104.783Y125.000Z-2.325
N6900G1X104.741Y125.629Z-2.365
N6910G1X104.609Y126.275Z-2.411
N6920G1X104.380Y126.920Z-2.471
N6930G1X104.051Y127.542Z-2.549
N6940G1X103.626Y128.118Z-2.630
N6950G1X103.287Y128.457Z-2.695
N6960G1X103.118Y128.626Z-2.758
N6970G1X102.926Y128.768Z-2.858
N6980G1X102.734Y128.909Z-3.011
N6990G1X102.542Y129.051Z-3.212
N7000G1X102.335Y129.161Z-3.463
N7010G1X102.128Y129.270Z-4.022
N7020G1X101.920Y129.380Z-5.000
N7030G1X101.275Y129.609
N7040G1X100.629Y129.741
N7050G1X100.000Y129.783
N7060G1Y130.100Z-3.503
N7070G1X99.776Y130.085Z-3.421
N7080G1X99.553Y130.070Z-3.300
N7090G1X99.329Y130.056Z-3.242
N7100G1X99.100Y130.009Z-3.274
N7110G1X98.870Y129.962Z-3.285
N7120G1X98.640Y129.915Z-3.211
N7130G1X98.411Y129.834Z-3.233
N7140G1X98.181Y129.752Z-3.317
N7150G1X97.952Y129.671Z-3.436
N7160G1X97.731Y129.554Z-3.673
N7170G1X97.510Y129.437Z-5.000
N7180G1X97.289Y129.320
N7190G1X96.675Y128.867
N7200G1X96.133Y128.325
N7210G1X95.680Y127.711
N7220G1X95.329Y127.048
N7230G1X95.166Y126.589
N7240G1X95.085Y126.360Z-3.770
N7250G1X95.038Y126.130Z-3.390
N7260G1X94.991Y125.900Z-3.183
N7270G1X94.944Y125.671Z-3.055
N7280G1X94.930Y125.447Z-2.929
N7290G1X94.900Y125.000Z-2.768
N7300G1X94.930Y124.553Z-2.677
N7310G1X94.944Y124.329Z-2.660
N7320G1X95.085Y123.640Z-2.606
N7330G1X95.329Y122.952Z-2.541
N7340G1X95.680Y122.289Z-2.479
N7350G1X96.133Y121.675Z-2.423
N7360G1X96.675Y121.133Z-2.381
N7370G1X97.289Y120.680Z-2.345
N7380G1X97.952Y120.329Z-2.319
N7390G1X98.640Y120.085Z-2.304
N7400G1X99.329Y119.944Z-2.291
N7410G1X100.000Y119.900Z-2.279
N7420G1X100.739Y119.954Z-2.266
N7430G1X101.498Y120.125Z-2.254
N7440G1X102.250Y120.423Z-2.241
N7450G1X102.964Y120.849Z-2.231
N7460G1X103.606Y121.394Z-2.225
N7470G1X104.151Y122.036Z-2.225
N7480G1X104.577Y122.750Z-2.233
N7490G1X104.875Y123.502Z-2.248
N7500G1X105.046Y124.261Z-2.277
N7510G1X105.100Y125.000Z-2.312
N7520G1X105.056Y125.671Z-2.353
N7530G1X104.915Y126.360Z-2.406
N7540G1X104.671Y127.048Z-2.471
N7550G1X104.320Y127.711Z-2.549
N7560G1X103.867Y128.325Z-2.636
N7570G1X103.686Y128.506Z-2.668
N7580G1X103.506Y128.686Z-2.720
N7590G1X103.325Y128.867Z-2.820
N7600G1X103.120Y129.018Z-2.952
N7610G1X102.916Y129.169Z-3.130
N7620G1X102.711Y129.320Z-3.416
N7630G1X102.490Y129.437Z-3.994
N7640G1X102.269Y129.554Z-5.000
N7650G1X102.048Y129.671
N7660G1X101.360Y129.915
N7670G1X100.671Y130.056
N7680G1X100.447Y130.070Z-3.982
N7690G1X100.224Y130.085Z-3.645
N7700G1X100.000Y130.100Z-3.503
N7710G1Y130.417Z-3.093
N7720G1X99.763Y130.402Z-3.086
N7730G1X99.525Y130.386Z-2.994
N7740G1X99.288Y130.370Z-2.949
N7750G1X98.799Y130.271Z-2.989
N7760G1X98.555Y130.221Z-2.931
N7770G1X98.312Y130.135Z-2.947
N7780G1X97.825Y129.962Z-3.071
N7790G1X97.473Y129.775Z-3.273
N7800G1X97.296Y129.682Z-3.410
N7810G1X97.120Y129.589Z-3.598
N7820G1X96.957Y129.469Z-5.000
N7830G1X96.468Y129.108
N7840G1X95.892Y128.532
N7850G1X95.411Y127.880
N7860G1X95.038Y127.175
N7870G1X94.779Y126.445
N7880G1X94.729Y126.201Z-4.055
N7890G1X94.679Y125.957Z-3.570
N7900G1X94.630Y125.712Z-3.321
N7910G1X94.614Y125.475Z-3.143
N7920G1X94.598Y125.237Z-2.990
N7930G1X94.582Y125.000Z-2.891
N7940G1X94.598Y124.763Z-2.792
N7950G1X94.630Y124.288Z-2.689
N7960G1X94.779Y123.555Z-2.622
N7970G1X95.038Y122.825Z-2.554
N7980G1X95.411Y122.120Z-2.486
N7990G1X95.892Y121.468Z-2.429
N8000G1X96.468Y120.892Z-2.384
N8010G1X97.120Y120.411Z-2.346
N8020G1X97.825Y120.038Z-2.320
N8030G1X98.555Y119.779Z-2.303
N8040G1X99.288Y119.630Z-2.290
N8050G1X100.000Y119.582Z-2.278
N8060G1X100.712Y119.630Z-2.266
N8070G1X101.445Y119.779Z-2.253
N8080G1X102.175Y120.038Z-2.240
N8090G1X102.880Y120.411Z-2.228
N8100G1X103.532Y120.892Z-2.219
N8110G1X104.108Y121.468Z-2.214
N8120G1X104.589Y122.120Z-2.215
N8130G1X104.962Y122.825Z-2.224
N8140G1X105.221Y123.555Z-2.242
N8150G1X105.370Y124.288Z-2.267
N8160G1X105.418Y125.000Z-2.301
N8170G1X105.370Y125.712Z-2.342
N8180G1X105.221Y126.445Z-2.396
N8190G1X104.962Y127.175Z-2.467
N8200G1X104.589Y127.880Z-2.546
N8210G1X104.108Y128.532Z-2.643
N8220G1X103.820Y128.820Z-2.700
N8230G1X103.676Y128.964Z-2.755
N8240G1X103.532Y129.108Z-2.843
N8250G1X103.369Y129.228Z-2.965
N8260G1X103.206Y129.348Z-3.136
N8270G1X103.043Y129.469Z-3.384
N8280G1X102.880Y129.589Z-3.828
N8290G1X102.704Y129.682Z-5.000
N8300G1X102.175Y129.962
N8310G1X101.445Y130.221
N8320G1X101.201Y130.271
N8330G1X100.957Y130.321Z-3.668
N8340G1X100.712Y130.370Z-3.435
N8350G1X100.475Y130.386Z-3.338
N8360G1X100.237Y130.402Z-3.181
N8370G1X100.000Y130.417Z-3.093
N8380G1Y130.735Z-2.865
N8390G1X99.749Y130.718Z-2.857
N8400G1X99.246Y130.685Z-2.778
N8410G1X98.664Y130.567Z-2.802
N8420G1X98.471Y130.527Z-2.768
N8430G1X98.277Y130.459Z-2.772
N8440G1X97.697Y130.252Z-2.859
N8450G1X97.324Y130.055Z-2.989
N8460G1X96.952Y129.858Z-3.193
N8470G1X96.779Y129.730Z-3.401
N8480G1X96.606Y129.603Z-3.769
N8490G1X96.434Y129.476Z-5.000
N8500G1X96.261Y129.349
N8510G1X95.651Y128.739
N8520G1X95.142Y128.048
N8530G1X94.748Y127.303
N8540G1X94.473Y126.529
N8550G1X94.354Y125.948
N8560G1X94.315Y125.754Z-3.917
N8570G1X94.298Y125.503Z-3.456
N8580G1X94.282Y125.251Z-3.224
N8590G1X94.265Y125.000Z-3.055
N8600G1X94.282Y124.749Z-2.916
N8610G1X94.298Y124.497Z-2.815
N8620G1X94.315Y124.246Z-2.763
N8630G1X94.394Y123.858Z-2.684
N8640G1X94.473Y123.471Z-2.646
N8650G1X94.748Y122.697Z-2.569
N8660G1X95.142Y121.952Z-2.498
N8670G1X95.651Y121.261Z-2.436
N8680G1X96.261Y120.651Z-2.389
N8690G1X96.952Y120.142Z-2.349
N8700G1X97.697Y119.748Z-2.321
N8710G1X98.471Y119.473Z-2.303
N8720G1X99.246Y119.315Z-2.291
N8730G1X100.000Y119.265Z-2.278
N8740G1X100.754Y119.315Z-2.265
N8750G1X101.529Y119.473Z-2.251
N8760G1X102.303Y119.748Z-2.237
N8770G1X103.048Y120.142Z-2.223
N8780G1X103.739Y120.651Z-2.212
N8790G1X104.349Y121.261Z-2.205
N8800G1X104.858Y121.952Z-2.204
N8810G1X105.252Y122.697Z-2.212
N8820G1X105.527Y123.471Z-2.227
N8830G1X105.685Y124.246Z-2.255
N8840G1X105.735Y125.000Z-2.288
N8850G1X105.685Y125.754Z-2.331
N8860G1X105.527Y126.529Z-2.389
N8870G1X105.252Y127.303Z-2.460
N8880G1X104.858Y128.048Z-2.547
N8890G1X104.349Y128.739Z-2.650
N8900G1X104.044Y129.044Z-2.736
N8910G1X103.891Y129.196Z-2.799
N8920G1X103.739Y129.349Z-2.897
N8930G1X103.566Y129.476Z-3.029
N8940G1X103.394Y129.603Z-3.221
N8950G1X103.221Y129.730Z-3.518
N8960G1X103.048Y129.858Z-5.000
N8970G1X102.303Y130.252
N8980G1X101.723Y130.459
N8990G1X101.529Y130.527Z-3.635
N9000G1X101.336Y130.567Z-3.470
N9010G1X101.142Y130.606Z-3.340
N9020G1X100.948Y130.646Z-3.179
N9030G1X100.754Y130.685Z-3.073
N9040G1X100.503Y130.702Z-3.021
N9050G1X100.000Y130.735Z-2.865
N9060G1Y131.053Z-2.736
N9070G1X99.403Y131.013Z-2.711
N9080G1X99.204Y131.000Z-2.687
N9090G1X98.590Y130.875Z-2.698
N9100G1X98.386Y130.833Z-2.684
N9110G1X97.774Y130.616Z-2.707
N9120G1X97.570Y130.543Z-2.726
N9130G1X97.176Y130.335Z-2.819
N9140G1X96.980Y130.231Z-2.883
N9150G1X96.783Y130.127Z-2.983
N9160G1X96.601Y129.992Z-3.157
N9170G1X96.419Y129.858Z-3.424
N9180G1X96.236Y129.724Z-3.996
N9190G1X96.054Y129.590Z-5.000
N9200G1X95.410Y128.946
N9210G1X94.873Y128.217
N9220G1X94.457Y127.430
N9230G1X94.167Y126.614
N9240G1X94.000Y125.796
N9250G1X93.987Y125.597
N9260G1X93.974Y125.398Z-3.845
N9270G1X93.961Y125.199Z-3.525
N9280G1X93.948Y125.000Z-3.302
N9290G1X93.961Y124.801Z-3.137
N9300G1X93.974Y124.602Z-3.026
N9310G1X94.000Y124.204Z-2.890
N9320G1X94.083Y123.795Z-2.738
N9330G1X94.125Y123.590Z-2.695
N9340G1X94.167Y123.386Z-2.674
N9350G1X94.457Y122.570Z-2.588
N9360G1X94.873Y121.783Z-2.512
N9370G1X95.410Y121.054Z-2.444
N9380G1X96.054Y120.410Z-2.394
N9390G1X96.783Y119.873Z-2.352
N9400G1X97.570Y119.457Z-2.323
N9410G1X98.386Y119.167Z-2.305
N9420G1X99.204Y119.000Z-2.292
N9430G1X100.000Y118.948Z-2.280
N9440G1X100.796Y119.000Z-2.266
N9450G1X101.614Y119.167Z-2.251
N9460G1X102.430Y119.457Z-2.234
N9470G1X103.217Y119.873Z-2.218
N9480G1X103.946Y120.410Z-2.205
N9490G1X104.590Y121.054Z-2.196
N9500G1X105.127Y121.783Z-2.194
N9510G1X105.543Y122.570Z-2.199
N9520G1X105.833Y123.386Z-2.216
N9530G1X106.000Y124.204Z-2.240
N9540G1X106.052Y125.000Z-2.277
N9550G1X106.000Y125.796Z-2.320
N9560G1X105.833Y126.614Z-2.382
N9570G1X105.543Y127.430Z-2.456
N9580G1X105.127Y128.217Z-2.550
N9590G1X104.590Y128.946Z-2.657
N9600G1X104.268Y129.268Z-2.747
N9610G1X104.107Y129.429Z-2.839
N9620G1X103.946Y129.590Z-2.977
N9630G1X103.764Y129.724Z-3.171
N9640G1X103.581Y129.858Z-3.428
N9650G1X103.399Y129.992Z-3.901
N9660G1X103.217Y130.127Z-5.000
N9670G1X102.430Y130.543
N9680G1X102.226Y130.616
N9690G1X102.022Y130.688Z-3.847
N9700G1X101.818Y130.761Z-3.438
N9710G1X101.614Y130.833Z-3.217
N9720G1X101.410Y130.875Z-3.102
N9730G1X101.000Y130.958Z-2.962
N9740G1X100.796Y131.000Z-2.870
N9750G1X100.597Y131.013Z-2.828
N9760G1X100.199Y131.039Z-2.783
N9770G1X100.000Y131.053Z-2.736
N9780G1Y131.370Z-2.677
N9790G1X99.233Y131.324Z-2.650
N9800G1X98.445Y131.177Z-2.645
N9810G1X97.655Y130.923Z-2.655
N9820G1X97.270Y130.740Z-2.677
N9830G1X96.885Y130.556Z-2.747
N9840G1X96.703Y130.437Z-2.829
N9850G1X96.521Y130.318Z-2.951
N9860G1X96.339Y130.199Z-3.127
N9870G1X96.157Y130.081Z-3.391
N9880G1X95.992Y129.936Z-3.933
N9890G1X95.827Y129.792Z-5.000
N9900G1X95.496Y129.504
N9910G1X94.920Y128.843
N9920G1X94.444Y128.115
N9930G1X94.077Y127.345
N9940G1X93.823Y126.555
N9950G1X93.676Y125.767
N9960G1X93.645Y125.256
N9970G1X93.630Y125.000Z-3.780
N9980G1X93.645Y124.744Z-3.443
N9990G1X93.676Y124.233Z-3.088
N10000G1X93.713Y124.036Z-2.955
N10010G1X93.749Y123.839Z-2.863
N10020G1X93.823Y123.445Z-2.764
N10030G1X93.886Y123.248Z-2.703
N10040G1X94.077Y122.655Z-2.628
N10050G1X94.444Y121.885Z-2.549
N10060G1X94.920Y121.157Z-2.482
N10070G1X95.496Y120.496Z-2.425
N10080G1X96.157Y119.920Z-2.380
N10090G1X96.885Y119.444Z-2.347
N10100G1X97.655Y119.077Z-2.321
N10110G1X98.445Y118.823Z-2.306
N10120G1X99.233Y118.676Z-2.294
N10130G1X100.000Y118.630Z-2.283
N10140G1X100.767Y118.676Z-2.270
N10150G1X101.555Y118.823Z-2.254
N10160G1X102.345Y119.077Z-2.238
N10170G1X103.115Y119.444Z-2.221
N10180G1X103.843Y119.920Z-2.206
N10190G1X104.504Y120.496Z-2.193
N10200G1X105.080Y121.157Z-2.185
N10210G1X105.556Y121.885Z-2.184
N10220G1X105.923Y122.655Z-2.192
N10230G1X106.177Y123.445Z-2.207
N10240G1X106.324Y124.233Z-2.232
N10250G1X106.370Y125.000Z-2.265
N10260G1X106.324Y125.767Z-2.308
N10270G1X106.177Y126.555Z-2.363
N10280G1X105.923Y127.345Z-2.428
N10290G1X105.556Y128.115Z-2.514
N10300G1X105.080Y128.843Z-2.616
N10310G1X104.792Y129.173Z-2.669
N10320G1X104.648Y129.339Z-2.713
N10330G1X104.504Y129.504Z-2.790
N10340G1X104.339Y129.648Z-2.906
N10350G1X104.173Y129.792Z-3.047
N10360G1X104.008Y129.936Z-3.243
N10370G1X103.843Y130.081Z-3.554
N10380G1X103.661Y130.199Z-5.000
N10390G1X103.115Y130.556
N10400G1X102.730Y130.740
N10410G1X102.537Y130.831Z-4.072
N10420G1X102.345Y130.923Z-3.618
N10430G1X102.147Y130.986Z-3.342
N10440G1X101.950Y131.050Z-3.172
N10450G1X101.555Y131.177Z-2.923
N10460G1X101.358Y131.214Z-2.855
N10470G1X100.964Y131.287Z-2.790
N10480G1X100.767Y131.324Z-2.740
N10490G1X100.511Y131.339Z-2.704
N10500G1X100.000Y131.370Z-2.677
N10510G1Y131.688Z-2.637
N10520G1X99.195Y131.639Z-2.620
N10530G1X98.368Y131.485Z-2.623
N10540G1X97.538Y131.218Z-2.634
N10550G1X96.932Y130.929Z-2.670
N10560G1X96.730Y130.833Z-2.714
N10570G1X96.539Y130.708Z-2.795
N10580G1X96.348Y130.583Z-2.919
N10590G1X96.157Y130.459Z-3.101
N10600G1X95.966Y130.334Z-3.376
N10610G1X95.792Y130.182Z-3.929
N10620G1X95.619Y130.031Z-5.000
N10630G1X95.271Y129.729
N10640G1X94.666Y129.034
N10650G1X94.167Y128.270
N10660G1X93.782Y127.462
N10670G1X93.515Y126.632
N10680G1X93.361Y125.805
N10690G1X93.313Y125.000
N10700G1X93.325Y124.799
N10710G1X93.337Y124.598Z-4.100
N10720G1X93.349Y124.396Z-3.560
N10730G1X93.361Y124.195Z-3.329
N10740G1X93.400Y123.988Z-3.155
N10750G1X93.476Y123.575Z-2.947
N10760G1X93.515Y123.368Z-2.849
N10770G1X93.582Y123.161Z-2.758
N10780G1X93.648Y122.953Z-2.703
N10790G1X93.782Y122.538Z-2.652
N10800G1X94.167Y121.730Z-2.564
N10810G1X94.666Y120.966Z-2.490
N10820G1X95.271Y120.271Z-2.431
N10830G1X95.966Y119.666Z-2.386
N10840G1X96.730Y119.167Z-2.352
N10850G1X97.538Y118.782Z-2.327
N10860G1X98.368Y118.515Z-2.310
N10870G1X99.195Y118.361Z-2.299
N10880G1X100.000Y118.313Z-2.287
N10890G1X100.805Y118.361Z-2.273
N10900G1X101.632Y118.515Z-2.257
N10910G1X102.462Y118.782Z-2.238
N10920G1X103.270Y119.167Z-2.220
N10930G1X104.034Y119.666Z-2.202
N10940G1X104.729Y120.271Z-2.187
N10950G1X105.334Y120.966Z-2.177
N10960G1X105.833Y121.730Z-2.174
N10970G1X106.218Y122.538Z-2.180
N10980G1X106.485Y123.368Z-2.196
N10990G1X106.639Y124.195Z-2.218
N11000G1X106.688Y125.000Z-2.253
N11010G1X106.639Y125.805Z-2.294
N11020G1X106.485Y126.632Z-2.352
N11030G1X106.218Y127.462Z-2.426
N11040G1X105.833Y128.270Z-2.514
N11050G1X105.334Y129.034Z-2.619
N11060G1X104.880Y129.555Z-2.719
N11070G1X104.729Y129.729Z-2.799
N11080G1X104.555Y129.880Z-2.922
N11090G1X104.381Y130.031Z-3.103
N11100G1X104.208Y130.182Z-3.377
N11110G1X104.034Y130.334Z-3.926
N11120G1X103.843Y130.459Z-5.000
N11130G1X103.270Y130.833
N11140G1X103.068Y130.929
N11150G1X102.866Y131.026Z-3.714
N11160G1X102.664Y131.122Z-3.384
N11170G1X102.462Y131.218Z-3.195
N11180G1X102.254Y131.285Z-3.105
N11190G1X102.047Y131.352Z-2.963
N11200G1X101.839Y131.418Z-2.866
N11210G1X101.632Y131.485Z-2.808
N11220G1X101.425Y131.524Z-2.747
N11230G1X101.012Y131.600Z-2.691
N11240G1X100.805Y131.639Z-2.675
N11250G1X100.000Y131.688Z-2.637
N11260G1Y132.005Z-2.605
N11270G1X99.157Y131.954Z-2.597
N11280G1X98.290Y131.793Z-2.604
N11290G1X97.421Y131.513Z-2.628
N11300G1X96.786Y131.211Z-2.680
N11310G1X96.574Y131.110Z-2.744
N11320G1X96.374Y130.979Z-2.831
N11330G1X96.174Y130.849Z-2.964
N11340G1X95.974Y130.718Z-3.165
N11350G1X95.774Y130.587Z-3.483
N11360G1X95.592Y130.429Z-5.000
N11370G1X95.047Y129.953
N11380G1X94.413Y129.226
N11390G1X94.151Y128.826
N11400G1X94.021Y128.626Z-3.849
N11410G1X93.890Y128.426Z-3.740
N11420G1X93.789Y128.214Z-3.585
N11430G1X93.688Y128.002Z-3.533
N11440G1X93.588Y127.790Z-3.546
N11450G1X93.487Y127.579Z-3.427
N11460G1X93.417Y127.361Z-3.433
N11470G1X93.207Y126.710Z-3.639
N11480G1X93.167Y126.493Z-3.838
N11490G1X93.126Y126.276Z-4.157
N11500G1X93.086Y126.060Z-5.000
N11510G1X93.046Y125.843
N11520G1X92.995Y125.000
N11530G1X93.033Y124.368
N11540G1X93.046Y124.157Z-3.868
N11550G1X93.086Y123.940Z-3.529
N11560G1X93.167Y123.507Z-3.091
N11570G1X93.207Y123.290Z-2.953
N11580G1X93.277Y123.073Z-2.849
N11590G1X93.417Y122.639Z-2.716
N11600G1X93.487Y122.421Z-2.673
N11610G1X93.890Y121.574Z-2.575
N11620G1X94.413Y120.774Z-2.498
N11630G1X95.047Y120.047Z-2.437
N11640G1X95.774Y119.413Z-2.391
N11650G1X96.574Y118.890Z-2.358
N11660G1X97.421Y118.487Z-2.334
N11670G1X98.290Y118.207Z-2.316
N11680G1X99.157Y118.046Z-2.305
N11690G1X100.000Y117.995Z-2.293
N11700G1X100.843Y118.046Z-2.278
N11710G1X101.710Y118.207Z-2.261
N11720G1X102.579Y118.487Z-2.240
N11730G1X103.426Y118.890Z-2.219
N11740G1X104.226Y119.413Z-2.199
N11750G1X104.953Y120.047Z-2.181
N11760G1X105.587Y120.774Z-2.169
N11770G1X106.110Y121.574Z-2.165
N11780G1X106.513Y122.421Z-2.169
N11790G1X106.793Y123.290Z-2.184
N11800G1X106.954Y124.157Z-2.208
N11810G1X107.005Y125.000Z-2.242
N11820G1X106.954Y125.843Z-2.287
N11830G1X106.793Y126.710Z-2.343
N11840G1X106.513Y127.579Z-2.419
N11850G1X106.110Y128.426Z-2.511
N11860G1X105.587Y129.226Z-2.623
N11870G1X105.270Y129.589Z-2.691
N11880G1X105.112Y129.771Z-2.755
N11890G1X104.953Y129.953Z-2.844
N11900G1X104.771Y130.112Z-2.975
N11910G1X104.589Y130.270Z-3.173
N11920G1X104.408Y130.429Z-3.490
N11930G1X104.226Y130.587Z-5.000
N11940G1X103.426Y131.110
N11950G1X103.214Y131.211Z-3.703
N11960G1X103.002Y131.312Z-3.363
N11970G1X102.790Y131.412Z-3.123
N11980G1X102.579Y131.513Z-2.968
N11990G1X102.361Y131.583Z-2.886
N12000G1X102.144Y131.653Z-2.836
N12010G1X101.927Y131.723Z-2.761
N12020G1X101.710Y131.793Z-2.706
N12030G1X100.843Y131.954Z-2.640
N12040G1X100.000Y132.005Z-2.605
N12050G1Y132.322Z-2.581
N12060G1X99.119Y132.269Z-2.574
N12070G1X98.213Y132.101Z-2.588
N12080G1X97.305Y131.808Z-2.628
N12090G1X96.862Y131.598Z-2.664
N12100G1X96.640Y131.492Z-2.712
N12110G1X96.419Y131.387Z-2.799
N12120G1X96.210Y131.250Z-2.917
N12130G1X96.001Y131.114Z-3.093
N12140G1X95.792Y130.977Z-3.337
N12150G1X95.583Y130.840Z-3.794
N12160G1X95.431Y130.708Z-5.000
N12170G1X94.822Y130.178
N12180G1X94.425Y129.721
N12190G1X94.292Y129.569Z-3.961
N12200G1X94.160Y129.417Z-3.748
N12210G1X94.023Y129.208Z-3.516
N12220G1X93.886Y128.999Z-3.332
N12230G1X93.750Y128.790Z-3.239
N12240G1X93.613Y128.581Z-3.212
N12250G1X93.508Y128.360Z-3.139
N12260G1X93.402Y128.138Z-3.105
N12270G1X93.297Y127.917Z-3.123
N12280G1X93.192Y127.695Z-3.054
N12290G1X93.118Y127.468Z-3.056
N12300G1X93.045Y127.241Z-3.106
N12310G1X92.972Y127.014Z-3.119
N12320G1X92.899Y126.787Z-3.169
N12330G1X92.857Y126.561Z-3.229
N12340G1X92.773Y126.108Z-3.416
N12350G1X92.731Y125.881Z-3.514
N12360G1X92.717Y125.661Z-3.769
N12370G1X92.704Y125.441Z-4.111
N12380G1X92.691Y125.220Z-5.000
N12390G1X92.677Y125.000
N12400G1X92.731Y124.119
N12410G1X92.773Y123.892
N12420G1X92.815Y123.666Z-3.619
N12430G1X92.857Y123.439Z-3.327
N12440G1X92.899Y123.213Z-3.156
N12450G1X93.045Y122.759Z-2.878
N12460G1X93.118Y122.532Z-2.769
N12470G1X93.192Y122.305Z-2.703
N12480G1X93.613Y121.419Z-2.590
N12490G1X94.160Y120.583Z-2.504
N12500G1X94.822Y119.822Z-2.442
N12510G1X95.583Y119.160Z-2.397
N12520G1X96.419Y118.613Z-2.365
N12530G1X97.305Y118.192Z-2.341
N12540G1X98.213Y117.899Z-2.324
N12550G1X99.119Y117.731Z-2.313
N12560G1X100.000Y117.677Z-2.300
N12570G1X100.881Y117.731Z-2.285
N12580G1X101.787Y117.899Z-2.266
N12590G1X102.695Y118.192Z-2.243
N12600G1X103.581Y118.613Z-2.220
N12610G1X104.417Y119.160Z-2.197
N12620G1X105.178Y119.822Z-2.176
N12630G1X105.840Y120.583Z-2.162
N12640G1X106.387Y121.419Z-2.155
N12650G1X106.808Y122.305Z-2.158
N12660G1X107.101Y123.213Z-2.171
N12670G1X107.269Y124.119Z-2.196
N12680G1X107.323Y125.000Z-2.229
N12690G1X107.269Y125.881Z-2.276
N12700G1X107.101Y126.787Z-2.336
N12710G1X106.808Y127.695Z-2.413
N12720G1X106.387Y128.581Z-2.508
N12730G1X105.840Y129.417Z-2.625
N12740G1X105.443Y129.874Z-2.719
N12750G1X105.310Y130.026Z-2.786
N12760G1X105.178Y130.178Z-2.887
N12770G1X105.026Y130.310Z-3.024
N12780G1X104.874Y130.443Z-3.217
N12790G1X104.721Y130.575Z-3.492
N12800G1X104.569Y130.708Z-4.010
N12810G1X104.417Y130.840Z-5.000
N12820G1X103.790Y131.250
N12830G1X103.581Y131.387Z-3.757
N12840G1X103.360Y131.492Z-3.341
N12850G1X103.138Y131.598Z-3.111
N12860G1X102.917Y131.703Z-2.966
N12870G1X102.695Y131.808Z-2.846
N12880G1X102.468Y131.882Z-2.765
N12890G1X101.787Y132.101Z-2.668
N12900G1X100.881Y132.269Z-2.608
N12910G1X100.000Y132.322Z-2.581
N12920G1Y132.640Z-2.560
N12930G1X99.152Y132.593Z-2.559
N12940G1X98.282Y132.444Z-2.576
N12950G1X97.405Y132.186Z-2.615
N12960G1X96.759Y131.907Z-2.678
N12970G1X96.544Y131.814Z-2.745
N12980G1X96.338Y131.692Z-2.834
N12990G1X96.131Y131.571Z-2.972
N13000G1X95.925Y131.449Z-3.157
N13010G1X95.719Y131.328Z-3.443
N13020G1X95.527Y131.180Z-3.980
N13030G1X95.336Y131.032Z-5.000
N13040G1X94.953Y130.735
N13050G1X94.437Y130.219
N13060G1X94.265Y130.047Z-3.556
N13070G1X94.117Y129.856Z-3.352
N13080G1X93.968Y129.664Z-3.242
N13090G1X93.820Y129.473Z-3.198
N13100G1X93.672Y129.281Z-3.066
N13110G1X93.551Y129.075Z-2.980
N13120G1X93.429Y128.869Z-2.942
N13130G1X93.308Y128.662Z-2.949
N13140G1X93.186Y128.456Z-2.879
N13150G1X93.093Y128.241Z-2.865
N13160G1X93.000Y128.025Z-2.890
N13170G1X92.907Y127.810Z-2.848
N13180G1X92.814Y127.595Z-2.834
N13190G1X92.749Y127.376Z-2.872
N13200G1X92.685Y127.157Z-2.874
N13210G1X92.556Y126.718Z-2.925
N13220G1X92.444Y126.065Z-3.072
N13230G1X92.407Y125.848Z-3.159
N13240G1X92.395Y125.636Z-3.234
N13250G1X92.384Y125.424Z-3.350
N13260G1X92.372Y125.212Z-3.545
N13270G1X92.360Y125.000Z-3.945
N13280G1X92.372Y124.788Z-5.000
N13290G1X92.407Y124.152
N13300G1X92.519Y123.499
N13310G1X92.556Y123.282Z-3.718
N13320G1X92.620Y123.063Z-3.357
N13330G1X92.685Y122.843Z-3.115
N13340G1X92.749Y122.624Z-2.956
N13350G1X92.814Y122.405Z-2.832
N13360G1X92.907Y122.190Z-2.741
N13370G1X93.093Y121.759Z-2.659
N13380G1X93.186Y121.544Z-2.634
N13390G1X93.672Y120.719Z-2.546
N13400G1X94.265Y119.953Z-2.474
N13410G1X94.953Y119.265Z-2.424
N13420G1X95.719Y118.672Z-2.389
N13430G1X96.544Y118.186Z-2.365
N13440G1X97.405Y117.814Z-2.346
N13450G1X98.282Y117.556Z-2.331
N13460G1X99.152Y117.407Z-2.321
N13470G1X100.000Y117.360Z-2.309
N13480G1X100.848Y117.407Z-2.294
N13490G1X101.718Y117.556Z-2.275
N13500G1X102.595Y117.814Z-2.253
N13510G1X103.456Y118.186Z-2.229
N13520G1X104.281Y118.672Z-2.205
N13530G1X105.047Y119.265Z-2.182
N13540G1X105.735Y119.953Z-2.163
N13550G1X106.328Y120.719Z-2.151
N13560G1X106.814Y121.544Z-2.146
N13570G1X107.186Y122.405Z-2.150
N13580G1X107.444Y123.282Z-2.163
N13590G1X107.593Y124.152Z-2.185
N13600G1X107.640Y125.000Z-2.218
N13610G1X107.593Y125.848Z-2.261
N13620G1X107.444Y126.718Z-2.316
N13630G1X107.186Y127.595Z-2.386
N13640G1X106.814Y128.456Z-2.470
N13650G1X106.328Y129.281Z-2.579
N13660G1X105.883Y129.856Z-2.667
N13670G1X105.735Y130.047Z-2.721
N13680G1X105.563Y130.219Z-2.818
N13690G1X105.391Y130.391Z-2.968
N13700G1X105.219Y130.563Z-3.156
N13710G1X105.047Y130.735Z-3.455
N13720G1X104.856Y130.883Z-5.000
N13730G1X104.281Y131.328
N13740G1X104.075Y131.449
N13750G1X103.869Y131.571Z-3.620
N13760G1X103.662Y131.692Z-3.278
N13770G1X103.456Y131.814Z-3.075
N13780G1X103.025Y132.000Z-2.825
N13790G1X102.810Y132.093Z-2.755
N13800G1X102.595Y132.186Z-2.715
N13810G1X102.376Y132.250Z-2.678
N13820G1X101.718Y132.444Z-2.624
N13830G1X100.848Y132.593Z-2.584
N13840G1X100.000Y132.640Z-2.560
N13850G1Y132.958Z-2.538
N13860G1X99.117Y132.908Z-2.544
N13870G1X98.210Y132.754Z-2.568
N13880G1X97.298Y132.485Z-2.622
N13890G1X96.625Y132.194Z-2.696
N13900G1X96.400Y132.097Z-2.764
N13910G1X96.185Y131.970Z-2.880
N13920G1X95.971Y131.844Z-3.059
N13930G1X95.756Y131.717Z-3.335
N13940G1X95.541Y131.591Z-3.883
N13950G1X95.381Y131.467Z-5.000
N13960G1X94.743Y130.974
N13970G1X94.600Y130.830
N13980G1X94.456Y130.687Z-3.750
N13990G1X94.313Y130.544Z-3.585
N14000G1X94.026Y130.257Z-3.195
N14010G1X93.903Y130.098Z-3.073
N14020G1X93.779Y129.938Z-2.988
N14030G1X93.656Y129.778Z-2.940
N14040G1X93.533Y129.619Z-2.923
N14050G1X93.409Y129.459Z-2.869
N14060G1X93.283Y129.244Z-2.811
N14070G1X93.156Y129.029Z-2.776
N14080G1X93.030Y128.815Z-2.782
N14090G1X92.903Y128.600Z-2.746
N14100G1X92.806Y128.375Z-2.730
N14110G1X92.709Y128.151Z-2.747
N14120G1X92.515Y127.702Z-2.715
N14130G1X92.448Y127.474Z-2.740
N14140G1X92.381Y127.246Z-2.734
N14150G1X92.314Y127.018Z-2.766
N14160G1X92.246Y126.790Z-2.762
N14170G1X92.130Y126.110Z-2.862
N14180G1X92.092Y125.883Z-2.909
N14190G1X92.079Y125.662Z-2.959
N14200G1X92.067Y125.441Z-3.052
N14210G1X92.042Y125.000Z-3.331
N14220G1X92.055Y124.779Z-3.496
N14230G1X92.067Y124.559Z-3.809
N14240G1X92.079Y124.338Z-5.000
N14250G1X92.092Y124.117
N14260G1X92.246Y123.210
N14270G1X92.314Y122.982Z-3.673
N14280G1X92.381Y122.754Z-3.293
N14290G1X92.448Y122.526Z-3.073
N14300G1X92.515Y122.298Z-2.914
N14310G1X92.612Y122.073Z-2.793
N14320G1X92.709Y121.849Z-2.720
N14330G1X92.903Y121.400Z-2.651
N14340G1X93.409Y120.541Z-2.552
N14350G1X94.026Y119.743Z-2.481
N14360G1X94.743Y119.026Z-2.429
N14370G1X95.541Y118.409Z-2.396
N14380G1X96.400Y117.903Z-2.373
N14390G1X97.298Y117.515Z-2.356
N14400G1X98.210Y117.246Z-2.342
N14410G1X99.117Y117.092Z-2.331
N14420G1X100.000Y117.042Z-2.320
N14430G1X100.883Y117.092Z-2.302
N14440G1X101.790Y117.246Z-2.283
N14450G1X102.702Y117.515Z-2.259
N14460G1X103.600Y117.903Z-2.233
N14470G1X104.459Y118.409Z-2.206
N14480G1X105.257Y119.026Z-2.180
N14490G1X105.974Y119.743Z-2.158
N14500G1X106.591Y120.541Z-2.143
N14510G1X107.097Y121.400Z-2.137
N14520G1X107.485Y122.298Z-2.139
N14530G1X107.754Y123.210Z-2.151
N14540G1X107.908Y124.117Z-2.174
N14550G1X107.958Y125.000Z-2.205
N14560G1X107.908Y125.883Z-2.249
N14570G1X107.754Y126.790Z-2.305
N14580G1X107.485Y127.702Z-2.378
N14590G1X107.097Y128.600Z-2.470
N14600G1X106.591Y129.459Z-2.576
N14610G1X106.097Y130.098Z-2.679
N14620G1X105.974Y130.257Z-2.724
N14630G1X105.830Y130.400Z-2.798
N14640G1X105.687Y130.544Z-2.907
N14650G1X105.544Y130.687Z-3.059
N14660G1X105.400Y130.830Z-3.276
N14670G1X105.257Y130.974Z-3.619
N14680G1X105.098Y131.097Z-5.000
N14690G1X104.459Y131.591
N14700G1X104.244Y131.717Z-4.023
N14710G1X104.029Y131.844Z-3.388
N14720G1X103.815Y131.970Z-3.104
N14730G1X103.600Y132.097Z-2.923
N14740G1X103.375Y132.194Z-2.818
N14750G1X102.927Y132.388Z-2.699
N14760G1X102.702Y132.485Z-2.670
N14770G1X101.790Y132.754Z-2.598
N14780G1X100.883Y132.908Z-2.555
N14790G1X100.000Y132.958Z-2.538
N14800G1Y133.275Z-2.523
N14810G1X99.082Y133.224Z-2.530
N14820G1X98.139Y133.063Z-2.562
N14830G1X97.190Y132.783Z-2.623
N14840G1X96.630Y132.541Z-2.686
N14850G1X96.443Y132.461Z-2.727
N14860G1X96.257Y132.380Z-2.789
N14870G1X96.078Y132.275Z-2.881
N14880G1X95.899Y132.169Z-3.014
N14890G1X95.721Y132.064Z-3.203
N14900G1X95.542Y131.959Z-3.489
N14910G1X95.363Y131.854Z-5.000
N14920G1X94.699Y131.340
N14930G1X94.533Y131.212Z-3.652
N14940G1X94.384Y131.063Z-3.394
N14950G1X94.235Y130.914Z-3.239
N14960G1X94.086Y130.765Z-3.145
N14970G1X93.937Y130.616Z-3.092
N14980G1X93.788Y130.467Z-2.972
N14990G1X93.531Y130.135Z-2.823
N15000G1X93.403Y129.969Z-2.778
N15010G1X93.146Y129.637Z-2.741
N15020G1X92.831Y129.101Z-2.686
N15030G1X92.620Y128.743Z-2.670
N15040G1X92.217Y127.810Z-2.662
N15050G1X91.937Y126.861Z-2.678
N15060G1X91.857Y126.390Z-2.709
N15070G1X91.816Y126.154Z-2.745
N15080G1X91.776Y125.918Z-2.757
N15090G1X91.763Y125.689Z-2.802
N15100G1X91.738Y125.230Z-2.968
N15110G1X91.725Y125.000Z-3.019
N15120G1X91.738Y124.770Z-3.140
N15130G1X91.751Y124.541Z-3.330
N15140G1X91.763Y124.311Z-3.655
N15150G1X91.776Y124.082Z-5.000
N15160G1X91.937Y123.139
N15170G1X92.007Y122.902
N15180G1X92.077Y122.664Z-3.542
N15190G1X92.147Y122.427Z-3.221
N15200G1X92.217Y122.190Z-3.027
N15210G1X92.297Y122.003Z-2.911
N15220G1X92.539Y121.443Z-2.700
N15230G1X92.620Y121.257Z-2.669
N15240G1X93.146Y120.363Z-2.560
N15250G1X93.788Y119.533Z-2.487
N15260G1X94.533Y118.788Z-2.434
N15270G1X95.363Y118.146Z-2.403
N15280G1X96.257Y117.620Z-2.382
N15290G1X97.190Y117.217Z-2.367
N15300G1X98.139Y116.937Z-2.354
N15310G1X99.082Y116.776Z-2.344
N15320G1X100.000Y116.725Z-2.331
N15330G1X100.918Y116.776Z-2.314
N15340G1X101.861Y116.937Z-2.292
N15350G1X102.810Y117.217Z-2.266
N15360G1X103.743Y117.620Z-2.237
N15370G1X104.637Y118.146Z-2.207
N15380G1X105.467Y118.788Z-2.178
N15390G1X106.212Y119.533Z-2.154
N15400G1X106.854Y120.363Z-2.137
N15410G1X107.380Y121.257Z-2.128
N15420G1X107.783Y122.190Z-2.129
N15430G1X108.063Y123.139Z-2.140
N15440G1X108.224Y124.082Z-2.162
N15450G1X108.275Y125.000Z-2.194
N15460G1X108.224Y125.918Z-2.236
N15470G1X108.063Y126.861Z-2.295
N15480G1X107.783Y127.810Z-2.368
N15490G1X107.380Y128.743Z-2.464
N15500G1X106.854Y129.637Z-2.575
N15510G1X106.340Y130.301Z-2.697
N15520G1X106.212Y130.467Z-2.758
N15530G1X106.063Y130.616Z-2.835
N15540G1X105.914Y130.765Z-2.950
N15550G1X105.765Y130.914Z-3.115
N15560G1X105.616Y131.063Z-3.357
N15570G1X105.467Y131.212Z-3.784
N15580G1X105.301Y131.340Z-5.000
N15590G1X104.637Y131.854
N15600G1X104.458Y131.959Z-3.641
N15610G1X104.279Y132.064Z-3.332
N15620G1X103.922Y132.275Z-2.977
N15630G1X103.743Y132.380Z-2.855
N15640G1X103.557Y132.461Z-2.768
N15650G1X103.370Y132.541Z-2.710
N15660G1X102.810Y132.783Z-2.643
N15670G1X101.861Y133.063Z-2.572
N15680G1X100.918Y133.224Z-2.534
N15690G1X100.000Y133.275Z-2.523
N15700G1Y133.592Z-2.506
N15710G1X99.047Y133.539Z-2.520
N15720G1X98.067Y133.372Z-2.560
N15730G1X97.082Y133.082Z-2.632
N15740G1X96.501Y132.831Z-2.707
N15750G1X96.307Y132.747Z-2.769
N15760G1X96.113Y132.663Z-2.859
N15770G1X95.927Y132.554Z-2.976
N15780G1X95.742Y132.445Z-3.137
N15790G1X95.556Y132.335Z-3.361
N15800G1X95.371Y132.226Z-3.749
N15810G1X95.185Y132.117Z-5.000
N15820G1X94.668Y131.717
N15830G1X94.496Y131.584Z-3.570
N15840G1X94.323Y131.450Z-3.284
N15850G1X94.169Y131.296Z-3.114
N15860G1X94.014Y131.141Z-2.987
N15870G1X93.859Y130.986Z-2.908
N15880G1X93.550Y130.677Z-2.821
N15890G1X93.283Y130.332Z-2.721
N15900G1X92.883Y129.815Z-2.669
N15910G1X92.337Y128.887Z-2.632
N15920G1X91.918Y127.918Z-2.622
N15930G1X91.628Y126.933Z-2.637
N15940G1X91.461Y125.953Z-2.682
N15950G1X91.408Y125.000Z-2.842
N15960G1X91.421Y124.762Z-2.947
N15970G1X91.434Y124.523Z-3.086
N15980G1X91.447Y124.285Z-3.281
N15990G1X91.461Y124.047Z-3.503
N16000G1X91.502Y123.802Z-3.873
N16010G1X91.544Y123.557Z-5.000
N16020G1X91.628Y123.067
N16030G1X91.744Y122.673
N16040G1X91.802Y122.476Z-3.768
N16050G1X91.860Y122.279Z-3.437
N16060G1X91.918Y122.082Z-3.246
N16070G1X92.086Y121.694Z-2.932
N16080G1X92.169Y121.501Z-2.814
N16090G1X92.253Y121.307Z-2.735
N16100G1X92.337Y121.113Z-2.687
N16110G1X92.883Y120.185Z-2.569
N16120G1X93.550Y119.323Z-2.492
N16130G1X94.323Y118.550Z-2.440
N16140G1X95.185Y117.883Z-2.410
N16150G1X96.113Y117.337Z-2.392
N16160G1X97.082Y116.918Z-2.378
N16170G1X98.067Y116.628Z-2.368
N16180G1X99.047Y116.461Z-2.356
N16190G1X100.000Y116.408Z-2.343
N16200G1X100.953Y116.461Z-2.326
N16210G1X101.933Y116.628Z-2.302
N16220G1X102.918Y116.918Z-2.273
N16230G1X103.887Y117.337Z-2.242
N16240G1X104.815Y117.883Z-2.209
N16250G1X105.677Y118.550Z-2.177
N16260G1X106.450Y119.323Z-2.150
N16270G1X107.117Y120.185Z-2.130
N16280G1X107.663Y121.113Z-2.119
N16290G1X108.082Y122.082Z-2.118
N16300G1X108.372Y123.067Z-2.129
N16310G1X108.539Y124.047Z-2.150
N16320G1X108.592Y125.000Z-2.182
N16330G1X108.539Y125.953Z-2.227
N16340G1X108.372Y126.933Z-2.284
N16350G1X108.082Y127.918Z-2.365
N16360G1X107.663Y128.887Z-2.458
N16370G1X107.117Y129.815Z-2.576
N16380G1X106.584Y130.504Z-2.698
N16390G1X106.450Y130.677Z-2.766
N16400G1X106.296Y130.831Z-2.869
N16410G1X106.141Y130.986Z-3.018
N16420G1X105.986Y131.141Z-3.235
N16430G1X105.831Y131.296Z-3.583
N16440G1X105.677Y131.450Z-5.000
N16450G1X104.987Y131.984
N16460G1X104.815Y132.117Z-3.702
N16470G1X104.629Y132.226Z-3.374
N16480G1X104.444Y132.335Z-3.135
N16490G1X104.258Y132.445Z-2.968
N16500G1X104.073Y132.554Z-2.854
N16510G1X103.887Y132.663Z-2.780
N16520G1X103.499Y132.831Z-2.675
N16530G1X102.918Y133.082Z-2.616
N16540G1X101.933Y133.372Z-2.551
N16550G1X100.953Y133.539Z-2.517
N16560G1X100.000Y133.592Z-2.506
N16570G1Y133.910Z-2.491
N16580G1X99.083Y133.863Z-2.507
N16590G1X98.142Y133.714Z-2.546
N16600G1X97.192Y133.456Z-2.615
N16610G1X96.629Y133.233Z-2.679
N16620G1X96.253Y133.084Z-2.787
N16630G1X96.071Y132.986Z-2.879
N16640G1X95.890Y132.889Z-3.003
N16650G1X95.708Y132.792Z-3.169
N16660G1X95.526Y132.694Z-3.411
N16670G1X95.344Y132.597Z-3.809
N16680G1X95.173Y132.477Z-5.000
N16690G1X94.658Y132.119
N16700G1X94.487Y131.999Z-3.540
N16710G1X94.329Y131.860Z-3.286
N16720G1X94.172Y131.720Z-3.109
N16730G1X93.857Y131.440Z-2.876
N16740G1X93.700Y131.300Z-2.800
N16750G1X93.560Y131.143Z-2.751
N16760G1X93.001Y130.513Z-2.662
N16770G1X92.403Y129.656Z-2.613
N16780G1X91.916Y128.747Z-2.587
N16790G1X91.544Y127.808Z-2.588
N16800G1X91.286Y126.858Z-2.607
N16810G1X91.137Y125.917Z-2.653
N16820G1X91.102Y125.229Z-2.702
N16830G1X91.090Y125.000Z-2.749
N16840G1X91.102Y124.771Z-2.806
N16850G1X91.125Y124.312Z-3.017
N16860G1X91.137Y124.083Z-3.098
N16870G1X91.174Y123.848Z-3.261
N16880G1X91.212Y123.613Z-3.531
N16890G1X91.249Y123.377Z-5.000
N16900G1X91.286Y123.142
N16910G1X91.544Y122.192
N16920G1X91.618Y122.005Z-3.564
N16930G1X91.693Y121.817Z-3.266
N16940G1X91.767Y121.629Z-3.073
N16950G1X91.842Y121.441Z-2.928
N16960G1X91.916Y121.253Z-2.819
N16970G1X92.014Y121.071Z-2.739
N16980G1X92.208Y120.708Z-2.662
N16990G1X92.403Y120.344Z-2.619
N17000G1X93.001Y119.487Z-2.525
N17010G1X93.700Y118.700Z-2.468
N17020G1X94.487Y118.001Z-2.432
N17030G1X95.344Y117.403Z-2.411
N17040G1X96.253Y116.916Z-2.400
N17050G1X97.192Y116.544Z-2.391
N17060G1X98.142Y116.286Z-2.382
N17070G1X99.083Y116.137Z-2.371
N17080G1X100.000Y116.090Z-2.360
N17090G1X100.917Y116.137Z-2.342
N17100G1X101.858Y116.286Z-2.318
N17110G1X102.808Y116.544Z-2.290
N17120G1X103.747Y116.916Z-2.258
N17130G1X104.656Y117.403Z-2.225
N17140G1X105.513Y118.001Z-2.191
N17150G1X106.300Y118.700Z-2.161
N17160G1X106.999Y119.487Z-2.136
N17170G1X107.597Y120.344Z-2.118
N17180G1X108.084Y121.253Z-2.109
N17190G1X108.456Y122.192Z-2.110
N17200G1X108.714Y123.142Z-2.120
N17210G1X108.863Y124.083Z-2.140
N17220G1X108.910Y125.000Z-2.169
N17230G1X108.863Y125.917Z-2.209
N17240G1X108.714Y126.858Z-2.264
N17250G1X108.456Y127.808Z-2.333
N17260G1X108.084Y128.747Z-2.424
N17270G1X107.597Y129.656Z-2.530
N17280G1X106.999Y130.513Z-2.655
N17290G1X106.720Y130.828Z-2.742
N17300G1X106.580Y130.986Z-2.827
N17310G1X106.440Y131.143Z-2.950
N17320G1X106.300Y131.300Z-3.122
N17330G1X106.143Y131.440Z-3.378
N17340G1X105.986Y131.580Z-3.848
N17350G1X105.828Y131.720Z-5.000
N17360G1X105.513Y131.999
N17370G1X105.342Y132.119
N17380G1X105.170Y132.238Z-3.937
N17390G1X104.999Y132.358Z-3.433
N17400G1X104.827Y132.477Z-3.175
N17410G1X104.656Y132.597Z-3.003
N17420G1X104.474Y132.694Z-2.895
N17430G1X104.110Y132.889Z-2.734
N17440G1X103.929Y132.986Z-2.687
N17450G1X103.747Y133.084Z-2.662
N17460G1X102.808Y133.456Z-2.578
N17470G1X101.858Y133.714Z-2.524
N17480G1X100.917Y133.863Z-2.495
N17490G1X100.000Y133.910Z-2.491
N17500G1Y134.228Z-2.479
N17510G1X99.050Y134.179Z-2.499
N17520G1X98.076Y134.025Z-2.545
N17530G1X97.092Y133.757Z-2.622
N17540G1X96.509Y133.526Z-2.700
N17550G1X96.314Y133.449Z-2.759
N17560G1X96.120Y133.372Z-2.851
N17570G1X95.931Y133.271Z-2.966
N17580G1X95.743Y133.170Z-3.132
N17590G1X95.555Y133.069Z-3.358
N17600G1X95.367Y132.968Z-3.741
N17610G1X95.178Y132.868Z-5.000
N17620G1X94.823Y132.620
N17630G1X94.646Y132.496Z-4.135
N17640G1X94.468Y132.373Z-3.496
N17650G1X94.290Y132.249Z-3.236
N17660G1X94.127Y132.104Z-3.063
N17670G1X93.964Y131.959Z-2.935
N17680G1X93.638Y131.670Z-2.767
N17690G1X93.475Y131.525Z-2.718
N17700G1X92.751Y130.710Z-2.628
N17710G1X92.132Y129.822Z-2.579
N17720G1X91.628Y128.880Z-2.557
N17730G1X91.243Y127.908Z-2.552
N17740G1X90.975Y126.924Z-2.570
N17750G1X90.821Y125.950Z-2.615
N17760G1X90.772Y125.000Z-2.681
N17770G1X90.809Y124.288Z-2.831
N17780G1X90.821Y124.050Z-2.903
N17790G1X90.860Y123.807Z-3.042
N17800G1X90.898Y123.563Z-3.250
N17810G1X90.937Y123.319Z-3.549
N17820G1X90.975Y123.076Z-5.000
N17830G1X91.243Y122.092
N17840G1X91.320Y121.898Z-4.019
N17850G1X91.397Y121.703Z-3.460
N17860G1X91.474Y121.509Z-3.198
N17870G1X91.551Y121.314Z-3.018
N17880G1X91.628Y121.120Z-2.881
N17890G1X91.729Y120.931Z-2.780
N17900G1X91.830Y120.743Z-2.715
N17910G1X92.132Y120.178Z-2.629
N17920G1X92.751Y119.290Z-2.531
N17930G1X93.475Y118.475Z-2.473
N17940G1X94.290Y117.751Z-2.439
N17950G1X95.178Y117.132Z-2.421
N17960G1X96.120Y116.628Z-2.412
N17970G1X97.092Y116.243Z-2.405
N17980G1X98.076Y115.975Z-2.400
N17990G1X99.050Y115.821Z-2.389
N18000G1X100.000Y115.772Z-2.375
N18010G1X100.950Y115.821Z-2.357
N18020G1X101.924Y115.975Z-2.331
N18030G1X102.908Y116.243Z-2.300
N18040G1X103.880Y116.628Z-2.267
N18050G1X104.822Y117.132Z-2.230
N18060G1X105.710Y117.751Z-2.193
N18070G1X106.525Y118.475Z-2.160
N18080G1X107.249Y119.290Z-2.132
N18090G1X107.868Y120.178Z-2.112
N18100G1X108.372Y121.120Z-2.101
N18110G1X108.757Y122.092Z-2.099
N18120G1X109.025Y123.076Z-2.108
N18130G1X109.179Y124.050Z-2.128
N18140G1X109.228Y125.000Z-2.158
N18150G1X109.179Y125.950Z-2.198
N18160G1X109.025Y126.924Z-2.255
N18170G1X108.757Y127.908Z-2.329
N18180G1X108.372Y128.880Z-2.415
N18190G1X107.868Y129.822Z-2.526
N18200G1X107.249Y130.710Z-2.658
N18210G1X106.959Y131.036Z-2.742
N18220G1X106.814Y131.199Z-2.828
N18230G1X106.670Y131.362Z-2.955
N18240G1X106.525Y131.525Z-3.137
N18250G1X106.362Y131.670Z-3.404
N18260G1X106.199Y131.814Z-3.936
N18270G1X106.036Y131.959Z-5.000
N18280G1X105.710Y132.249
N18290G1X105.532Y132.373Z-4.173
N18300G1X105.354Y132.496Z-3.484
N18310G1X105.177Y132.620Z-3.213
N18320G1X104.999Y132.744Z-3.038
N18330G1X104.822Y132.868Z-2.906
N18340G1X104.633Y132.968Z-2.799
N18350G1X104.445Y133.069Z-2.730
N18360G1X103.880Y133.372Z-2.638
N18370G1X102.908Y133.757Z-2.554
N18380G1X101.924Y134.025Z-2.505
N18390G1X100.950Y134.179Z-2.480
N18400G1X100.000Y134.228Z-2.479
N18410G1Y134.545Z-2.465
N18420G1X99.018Y134.494Z-2.490
N18430G1X98.010Y134.335Z-2.542
N18440G1X96.992Y134.059Z-2.628
N18450G1X96.590Y133.899Z-2.676
N18460G1X96.389Y133.820Z-2.730
N18470G1X96.187Y133.740Z-2.808
N18480G1X95.986Y133.660Z-2.924
N18490G1X95.791Y133.556Z-3.081
N18500G1X95.597Y133.451Z-3.296
N18510G1X95.402Y133.347Z-3.643
N18520G1X95.207Y133.243Z-5.000
N18530G1X95.013Y133.138
N18540G1X94.829Y133.010
N18550G1X94.645Y132.882Z-4.094
N18560G1X94.461Y132.754Z-3.484
N18570G1X94.278Y132.626Z-3.213
N18580G1X94.094Y132.498Z-3.033
N18590G1X93.925Y132.348Z-2.905
N18600G1X93.757Y132.199Z-2.813
N18610G1X93.419Y131.899Z-2.696
N18620G1X93.251Y131.749Z-2.671
N18630G1X92.502Y130.906Z-2.597
N18640G1X91.862Y129.987Z-2.550
N18650G1X91.340Y129.014Z-2.524
N18660G1X90.941Y128.008Z-2.520
N18670G1X90.665Y126.990Z-2.541
N18680G1X90.506Y125.982Z-2.581
N18690G1X90.455Y125.000Z-2.651
N18700G1X90.493Y124.263Z-2.730
N18710G1X90.506Y124.018Z-2.801
N18720G1X90.538Y123.816Z-2.876
N18730G1X90.569Y123.615Z-2.984
N18740G1X90.601Y123.413Z-3.133
N18750G1X90.633Y123.211Z-3.318
N18760G1X90.665Y123.010Z-3.612
N18770G1X90.720Y122.806Z-5.000
N18780G1X90.941Y121.992
N18790G1X91.021Y121.791
N18800G1X91.101Y121.590Z-3.752
N18810G1X91.180Y121.389Z-3.356
N18820G1X91.260Y121.187Z-3.126
N18830G1X91.340Y120.986Z-2.954
N18840G1X91.444Y120.791Z-2.828
N18850G1X91.549Y120.597Z-2.744
N18860G1X91.757Y120.207Z-2.662
N18870G1X91.862Y120.013Z-2.638
N18880G1X92.502Y119.094Z-2.539
N18890G1X93.251Y118.251Z-2.478
N18900G1X94.094Y117.502Z-2.446
N18910G1X95.013Y116.862Z-2.432
N18920G1X95.986Y116.340Z-2.427
N18930G1X96.992Y115.941Z-2.423
N18940G1X98.010Y115.665Z-2.418
N18950G1X99.018Y115.506Z-2.407
N18960G1X100.000Y115.455Z-2.393
N18970G1X100.982Y115.506Z-2.374
N18980G1X101.990Y115.665Z-2.346
N18990G1X103.008Y115.941Z-2.313
N19000G1X104.014Y116.340Z-2.276
N19010G1X104.987Y116.862Z-2.235
N19020G1X105.906Y117.502Z-2.195
N19030G1X106.749Y118.251Z-2.159
N19040G1X107.498Y119.094Z-2.128
N19050G1X108.138Y120.013Z-2.106
N19060G1X108.660Y120.986Z-2.092
N19070G1X109.059Y121.992Z-2.089
N19080G1X109.335Y123.010Z-2.096
N19090G1X109.494Y124.018Z-2.116
N19100G1X109.545Y125.000Z-2.145
N19110G1X109.494Y125.982Z-2.187
N19120G1X109.335Y126.990Z-2.245
N19130G1X109.059Y128.008Z-2.315
N19140G1X108.660Y129.014Z-2.410
N19150G1X108.138Y129.987Z-2.522
N19160G1X107.498Y130.906Z-2.660
N19170G1X107.348Y131.075Z-2.697
N19180G1X107.199Y131.243Z-2.768
N19190G1X107.049Y131.412Z-2.880
N19200G1X106.899Y131.581Z-3.040
N19210G1X106.749Y131.749Z-3.248
N19220G1X106.581Y131.899Z-3.565
N19230G1X106.412Y132.049Z-5.000
N19240G1X105.906Y132.498
N19250G1X105.722Y132.626Z-3.730
N19260G1X105.539Y132.754Z-3.315
N19270G1X105.355Y132.882Z-3.075
N19280G1X105.171Y133.010Z-2.914
N19290G1X104.987Y133.138Z-2.804
N19300G1X104.598Y133.347Z-2.698
N19310G1X104.014Y133.660Z-2.621
N19320G1X103.008Y134.059Z-2.532
N19330G1X101.990Y134.335Z-2.485
N19340G1X100.982Y134.494Z-2.464
N19350G1X100.000Y134.545Z-2.465
N19360G1Y134.863Z-2.453
N19370G1X98.985Y134.810Z-2.482
N19380G1X97.943Y134.646Z-2.538
N19390G1X96.892Y134.360Z-2.630
N19400G1X96.476Y134.195Z-2.696
N19410G1X96.268Y134.113Z-2.765
N19420G1X96.061Y134.030Z-2.874
N19430G1X95.853Y133.948Z-3.018
N19440G1X95.651Y133.840Z-3.224
N19450G1X95.450Y133.732Z-3.528
N19460G1X95.249Y133.625Z-5.000
N19470G1X94.847Y133.409
N19480G1X94.657Y133.277
N19490G1X94.467Y133.144Z-3.497
N19500G1X94.277Y133.012Z-3.211
N19510G1X94.087Y132.880Z-3.023
N19520G1X93.897Y132.748Z-2.886
N19530G1X93.723Y132.593Z-2.792
N19540G1X93.549Y132.438Z-2.728
N19550G1X93.200Y132.129Z-2.660
N19560G1X93.026Y131.974Z-2.638
N19570G1X92.252Y131.103Z-2.567
N19580G1X91.591Y130.153Z-2.518
N19590G1X91.052Y129.147Z-2.497
N19600G1X90.640Y128.108Z-2.493
N19610G1X90.354Y127.057Z-2.514
N19620G1X90.190Y126.015Z-2.554
N19630G1X90.137Y125.000Z-2.619
N19640G1X90.179Y124.188Z-2.689
N19650G1X90.190Y123.985Z-2.722
N19660G1X90.256Y123.568Z-2.859
N19670G1X90.289Y123.360Z-2.973
N19680G1X90.321Y123.152Z-3.112
N19690G1X90.354Y122.943Z-3.307
N19700G1X90.411Y122.733Z-3.660
N19710G1X90.469Y122.523Z-5.000
N19720G1X90.640Y121.892
N19730G1X90.805Y121.476
N19740G1X90.887Y121.268Z-3.568
N19750G1X90.970Y121.061Z-3.256
N19760G1X91.052Y120.853Z-3.061
N19770G1X91.160Y120.651Z-2.918
N19780G1X91.375Y120.249Z-2.737
N19790G1X91.483Y120.048Z-2.678
N19800G1X91.591Y119.847Z-2.649
N19810G1X92.252Y118.897Z-2.546
N19820G1X93.026Y118.026Z-2.484
N19830G1X93.897Y117.252Z-2.454
N19840G1X94.847Y116.591Z-2.444
N19850G1X95.853Y116.052Z-2.443
N19860G1X96.892Y115.640Z-2.443
N19870G1X97.943Y115.354Z-2.437
N19880G1X98.985Y115.190Z-2.430
N19890G1X100.000Y115.137Z-2.414
N19900G1X101.015Y115.190Z-2.393
N19910G1X102.057Y115.354Z-2.363
N19920G1X103.108Y115.640Z-2.327
N19930G1X104.147Y116.052Z-2.287
N19940G1X105.153Y116.591Z-2.242
N19950G1X106.103Y117.252Z-2.198
N19960G1X106.974Y118.026Z-2.159
N19970G1X107.748Y118.897Z-2.125
N19980G1X108.409Y119.847Z-2.100
N19990G1X108.948Y120.853Z-2.084
N20000G1X109.360Y121.892Z-2.079
N20010G1X109.646Y122.943Z-2.086
N20020G1X109.810Y123.985Z-2.104
N20030G1X109.863Y125.000Z-2.134
N20040G1X109.810Y126.015Z-2.175
N20050G1X109.646Y127.057Z-2.234
N20060G1X109.360Y128.108Z-2.309
N20070G1X108.948Y129.147Z-2.403
N20080G1X108.409Y130.153Z-2.520
N20090G1X107.748Y131.103Z-2.663
N20100G1X107.593Y131.277Z-2.696
N20110G1X107.438Y131.451Z-2.765
N20120G1X107.283Y131.625Z-2.878
N20130G1X107.129Y131.800Z-3.044
N20140G1X106.974Y131.974Z-3.293
N20150G1X106.800Y132.129Z-3.729
N20160G1X106.625Y132.283Z-5.000
N20170G1X106.103Y132.748
N20180G1X105.913Y132.880Z-3.497
N20190G1X105.723Y133.012Z-3.220
N20200G1X105.533Y133.144Z-3.014
N20210G1X105.343Y133.277Z-2.864
N20220G1X105.153Y133.409Z-2.764
N20230G1X104.952Y133.517Z-2.698
N20240G1X104.147Y133.948Z-2.596
N20250G1X103.108Y134.360Z-2.517
N20260G1X102.057Y134.646Z-2.469
N20270G1X101.015Y134.810Z-2.449
N20280G1X100.000Y134.863Z-2.453
N20290G1Y135.180Z-2.441
N20300G1X99.023Y135.133Z-2.471
N20310G1X98.021Y134.986Z-2.526
N20320G1X97.009Y134.731Z-2.613
N20330G1X96.405Y134.510Z-2.687
N20340G1X96.204Y134.436Z-2.738
N20350G1X96.003Y134.362Z-2.823
N20360G1X95.807Y134.266Z-2.950
N20370G1X95.610Y134.169Z-3.134
N20380G1X95.414Y134.073Z-3.409
N20390G1X95.218Y133.976Z-3.976
N20400G1X95.022Y133.880Z-5.000
N20410G1X94.834Y133.761
N20420G1X94.647Y133.642Z-4.127
N20430G1X94.459Y133.523Z-3.476
N20440G1X94.272Y133.404Z-3.208
N20450G1X94.084Y133.285Z-3.018
N20460G1X93.909Y133.145Z-2.895
N20470G1X93.735Y133.005Z-2.797
N20480G1X93.560Y132.865Z-2.728
N20490G1X93.210Y132.585Z-2.656
N20500G1X92.415Y131.790Z-2.575
N20510G1X91.715Y130.916Z-2.519
N20520G1X91.120Y129.978Z-2.484
N20530G1X90.638Y128.997Z-2.466
N20540G1X90.269Y127.991Z-2.467
N20550G1X90.014Y126.979Z-2.487
N20560G1X89.867Y125.977Z-2.527
N20570G1X89.820Y125.000Z-2.590
N20580G1X89.867Y124.023Z-2.671
N20590G1X89.926Y123.623Z-2.744
N20600G1X89.955Y123.422Z-2.802
N20610G1X90.014Y123.021Z-3.001
N20620G1X90.065Y122.819Z-3.164
N20630G1X90.116Y122.616Z-3.406
N20640G1X90.167Y122.414Z-3.794
N20650G1X90.218Y122.211Z-5.000
N20660G1X90.269Y122.009
N20670G1X90.564Y121.204
N20680G1X90.638Y121.003Z-3.688
N20690G1X90.734Y120.807Z-3.359
N20700G1X90.927Y120.414Z-2.979
N20710G1X91.024Y120.218Z-2.840
N20720G1X91.120Y120.022Z-2.745
N20730G1X91.239Y119.834Z-2.684
N20740G1X91.715Y119.084Z-2.587
N20750G1X92.415Y118.210Z-2.513
N20760G1X93.210Y117.415Z-2.473
N20770G1X94.084Y116.715Z-2.458
N20780G1X95.022Y116.120Z-2.457
N20790G1X96.003Y115.638Z-2.461
N20800G1X97.009Y115.269Z-2.461
N20810G1X98.021Y115.014Z-2.459
N20820G1X99.023Y114.867Z-2.449
N20830G1X100.000Y114.820Z-2.434
N20840G1X100.977Y114.867Z-2.416
N20850G1X101.979Y115.014Z-2.383
N20860G1X102.991Y115.269Z-2.350
N20870G1X103.997Y115.638Z-2.310
N20880G1X104.978Y116.120Z-2.266
N20890G1X105.916Y116.715Z-2.221
N20900G1X106.790Y117.415Z-2.178
N20910G1X107.585Y118.210Z-2.141
N20920G1X108.285Y119.084Z-2.110
N20930G1X108.880Y120.022Z-2.087
N20940G1X109.362Y121.003Z-2.073
N20950G1X109.731Y122.009Z-2.070
N20960G1X109.986Y123.021Z-2.076
N20970G1X110.133Y124.023Z-2.095
N20980G1X110.180Y125.000Z-2.122
N20990G1X110.133Y125.977Z-2.161
N21000G1X109.986Y126.979Z-2.214
N21010G1X109.731Y127.991Z-2.279
N21020G1X109.362Y128.997Z-2.368
N21030G1X108.880Y129.978Z-2.473
N21040G1X108.285Y130.916Z-2.602
N21050G1X107.865Y131.440Z-2.687
N21060G1X107.725Y131.615Z-2.741
N21070G1X107.585Y131.790Z-2.832
N21080G1X107.426Y131.949Z-2.968
N21090G1X107.267Y132.108Z-3.165
N21100G1X107.108Y132.267Z-3.470
N21110G1X106.949Y132.426Z-5.000
N21120G1X106.790Y132.585
N21130G1X106.440Y132.865
N21140G1X106.265Y133.005Z-3.646
N21150G1X106.091Y133.145Z-3.273
N21160G1X105.916Y133.285Z-3.048
N21170G1X105.728Y133.404Z-2.904
N21180G1X105.541Y133.523Z-2.808
N21190G1X105.166Y133.761Z-2.684
N21200G1X104.978Y133.880Z-2.656
N21210G1X103.997Y134.362Z-2.556
N21220G1X102.991Y134.731Z-2.483
N21230G1X101.979Y134.986Z-2.446
N21240G1X100.977Y135.133Z-2.434
N21250G1X100.000Y135.180Z-2.441
N21260G1Y135.497Z-2.429
N21270G1X98.993Y135.449Z-2.461
N21280G1X97.960Y135.297Z-2.521
N21290G1X96.916Y135.034Z-2.612
N21300G1X96.293Y134.806Z-2.699
N21310G1X96.086Y134.730Z-2.764
N21320G1X95.878Y134.654Z-2.863
N21330G1X95.676Y134.555Z-2.996
N21340G1X95.473Y134.455Z-3.193
N21350G1X95.271Y134.356Z-3.500
N21360G1X95.069Y134.256Z-5.000
N21370G1X94.866Y134.157
N21380G1X94.673Y134.034
N21390G1X94.480Y133.911Z-3.518
N21400G1X94.286Y133.788Z-3.224
N21410G1X94.093Y133.666Z-3.027
N21420G1X93.900Y133.543Z-2.885
N21430G1X93.719Y133.399Z-2.792
N21440G1X93.539Y133.254Z-2.720
N21450G1X93.359Y133.110Z-2.677
N21460G1X92.998Y132.821Z-2.628
N21470G1X92.179Y132.002Z-2.548
N21480G1X91.457Y131.100Z-2.492
N21490G1X90.843Y130.134Z-2.459
N21500G1X90.346Y129.122Z-2.444
N21510G1X89.966Y128.084Z-2.442
N21520G1X89.703Y127.040Z-2.466
N21530G1X89.551Y126.007Z-2.501
N21540G1X89.503Y125.000Z-2.567
N21550G1X89.551Y123.993Z-2.645
N21560G1X89.642Y123.373Z-2.731
N21570G1X89.672Y123.166Z-2.793
N21580G1X89.703Y122.960Z-2.884
N21590G1X89.755Y122.751Z-3.005
N21600G1X89.808Y122.542Z-3.182
N21610G1X89.861Y122.333Z-3.435
N21620G1X89.913Y122.125Z-3.881
N21630G1X89.966Y121.916Z-5.000
N21640G1X90.346Y120.878
N21650G1X90.445Y120.676Z-3.669
N21660G1X90.545Y120.473Z-3.286
N21670G1X90.644Y120.271Z-3.061
N21680G1X90.744Y120.069Z-2.896
N21690G1X90.843Y119.866Z-2.781
N21700G1X90.966Y119.673Z-2.704
N21710G1X91.334Y119.093Z-2.612
N21720G1X91.457Y118.900Z-2.593
N21730G1X92.179Y117.998Z-2.518
N21740G1X92.998Y117.179Z-2.480
N21750G1X93.900Y116.457Z-2.468
N21760G1X94.866Y115.843Z-2.473
N21770G1X95.878Y115.346Z-2.480
N21780G1X96.916Y114.966Z-2.487
N21790G1X97.960Y114.703Z-2.485
N21800G1X98.993Y114.551Z-2.475
N21810G1X100.000Y114.503Z-2.460
N21820G1X101.007Y114.551Z-2.436
N21830G1X102.040Y114.703Z-2.406
N21840G1X103.084Y114.966Z-2.367
N21850G1X104.122Y115.346Z-2.324
N21860G1X105.134Y115.843Z-2.275
N21870G1X106.100Y116.457Z-2.227
N21880G1X107.002Y117.179Z-2.181
N21890G1X107.821Y117.998Z-2.140
N21900G1X108.543Y118.900Z-2.106
N21910G1X109.157Y119.866Z-2.081
N21920G1X109.654Y120.878Z-2.065
N21930G1X110.034Y121.916Z-2.059
N21940G1X110.297Y122.960Z-2.066
N21950G1X110.449Y123.993Z-2.083
N21960G1X110.497Y125.000Z-2.109
N21970G1X110.449Y126.007Z-2.147
N21980G1X110.297Y127.040Z-2.202
N21990G1X110.034Y128.084Z-2.272
N22000G1X109.654Y129.122Z-2.360
N22010G1X109.157Y130.134Z-2.470
N22020G1X108.543Y131.100Z-2.600
N22030G1X108.110Y131.641Z-2.703
N22040G1X107.966Y131.822Z-2.771
N22050G1X107.821Y132.002Z-2.869
N22060G1X107.657Y132.166Z-3.010
N22070G1X107.493Y132.330Z-3.221
N22080G1X107.330Y132.493Z-3.562
N22090G1X107.166Y132.657Z-5.000
N22100G1X107.002Y132.821
N22110G1X106.641Y133.110
N22120G1X106.461Y133.254Z-3.546
N22130G1X106.281Y133.399Z-3.201
N22140G1X106.100Y133.543Z-2.986
N22150G1X105.907Y133.666Z-2.842
N22160G1X105.714Y133.788Z-2.746
N22170G1X105.520Y133.911Z-2.689
N22180G1X105.134Y134.157Z-2.638
N22190G1X104.122Y134.654Z-2.532
N22200G1X103.084Y135.034Z-2.469
N22210G1X102.040Y135.297Z-2.431
N22220G1X101.007Y135.449Z-2.419
N22230G1X100.000Y135.497Z-2.429
N22240G1Y135.815Z-2.418
N22250G1X98.962Y135.765Z-2.455
N22260G1X97.898Y135.609Z-2.517
N22270G1X96.822Y135.338Z-2.620
N22280G1X96.395Y135.181Z-2.669
N22290G1X96.181Y135.103Z-2.722
N22300G1X95.967Y135.025Z-2.805
N22310G1X95.754Y134.946Z-2.929
N22320G1X95.545Y134.844Z-3.101
N22330G1X95.337Y134.741Z-3.352
N22340G1X95.128Y134.639Z-3.783
N22350G1X94.920Y134.536Z-5.000
N22360G1X94.711Y134.434
N22370G1X94.512Y134.307Z-3.591
N22380G1X94.313Y134.181Z-3.256
N22390G1X94.114Y134.054Z-3.050
N22400G1X93.914Y133.928Z-2.896
N22410G1X93.715Y133.802Z-2.790
N22420G1X93.530Y133.653Z-2.719
N22430G1X93.344Y133.504Z-2.672
N22440G1X92.786Y133.058Z-2.602
N22450G1X91.942Y132.214Z-2.523
N22460G1X91.198Y131.285Z-2.467
N22470G1X90.567Y130.289Z-2.436
N22480G1X90.054Y129.246Z-2.417
N22490G1X89.662Y128.178Z-2.421
N22500G1X89.391Y127.102Z-2.439
N22510G1X89.235Y126.038Z-2.479
N22520G1X89.185Y125.000Z-2.538
N22530G1X89.235Y123.962Z-2.617
N22540G1X89.360Y123.111Z-2.725
N22550G1X89.391Y122.898Z-2.793
N22560G1X89.445Y122.683Z-2.887
N22570G1X89.500Y122.468Z-3.021
N22580G1X89.554Y122.253Z-3.218
N22590G1X89.608Y122.038Z-3.482
N22600G1X89.662Y121.822Z-4.126
N22610G1X89.741Y121.609Z-5.000
N22620G1X90.054Y120.754
N22630G1X90.156Y120.545
N22640G1X90.259Y120.337Z-3.446
N22650G1X90.361Y120.128Z-3.157
N22660G1X90.464Y119.920Z-2.960
N22670G1X90.567Y119.711Z-2.822
N22680G1X90.693Y119.512Z-2.727
N22690G1X90.819Y119.313Z-2.674
N22700G1X91.198Y118.715Z-2.600
N22710G1X91.942Y117.786Z-2.522
N22720G1X92.786Y116.942Z-2.487
N22730G1X93.715Y116.198Z-2.481
N22740G1X94.711Y115.567Z-2.491
N22750G1X95.754Y115.054Z-2.500
N22760G1X96.822Y114.662Z-2.509
N22770G1X97.898Y114.391Z-2.509
N22780G1X98.962Y114.235Z-2.506
N22790G1X100.000Y114.185Z-2.484
N22800G1X101.038Y114.235Z-2.460
N22810G1X102.102Y114.391Z-2.426
N22820G1X103.178Y114.662Z-2.384
N22830G1X104.246Y115.054Z-2.335
N22840G1X105.289Y115.567Z-2.284
N22850G1X106.285Y116.198Z-2.232
N22860G1X107.214Y116.942Z-2.184
N22870G1X108.058Y117.786Z-2.140
N22880G1X108.802Y118.715Z-2.103
N22890G1X109.433Y119.711Z-2.075
N22900G1X109.946Y120.754Z-2.057
N22910G1X110.338Y121.822Z-2.050
N22920G1X110.609Y122.898Z-2.055
N22930G1X110.765Y123.962Z-2.071
N22940G1X110.815Y125.000Z-2.098
N22950G1X110.765Y126.038Z-2.137
N22960G1X110.609Y127.102Z-2.189
N22970G1X110.338Y128.178Z-2.262
N22980G1X109.946Y129.246Z-2.352
N22990G1X109.433Y130.289Z-2.461
N23000G1X108.802Y131.285Z-2.597
N23010G1X108.355Y131.842Z-2.699
N23020G1X108.206Y132.028Z-2.777
N23030G1X108.058Y132.214Z-2.895
N23040G1X107.889Y132.382Z-3.075
N23050G1X107.720Y132.551Z-3.350
N23060G1X107.551Y132.720Z-3.880
N23070G1X107.382Y132.889Z-5.000
N23080G1X107.214Y133.058
N23090G1X107.028Y133.206
N23100G1X106.842Y133.355Z-3.710
N23110G1X106.656Y133.504Z-3.297
N23120G1X106.470Y133.653Z-3.061
N23130G1X106.285Y133.802Z-2.907
N23140G1X105.886Y134.054Z-2.716
N23150G1X105.687Y134.181Z-2.669
N23160G1X105.289Y134.434Z-2.615
N23170G1X104.246Y134.946Z-2.515
N23180G1X103.178Y135.338Z-2.450
N23190G1X102.102Y135.609Z-2.416
N23200G1X101.038Y135.765Z-2.406
N23210G1X100.000Y135.815Z-2.418
N23220G1Y136.133Z-2.406
N23230G1X98.932Y136.081Z-2.446
N23240G1X97.836Y135.920Z-2.511
N23250G1X96.729Y135.641Z-2.615
N23260G1X96.069Y135.400Z-2.711
N23270G1X95.849Y135.319Z-2.786
N23280G1X95.629Y135.238Z-2.906
N23290G1X95.414Y135.133Z-3.086
N23300G1X95.200Y135.027Z-3.362
N23310G1X94.985Y134.922Z-3.918
N23320G1X94.770Y134.816Z-5.000
N23330G1X94.556Y134.710Z-3.704
N23340G1X94.351Y134.580Z-3.311
N23350G1X94.146Y134.450Z-3.078
N23360G1X93.941Y134.320Z-2.917
N23370G1X93.736Y134.190Z-2.799
N23380G1X93.531Y134.060Z-2.724
N23390G1X93.340Y133.907Z-2.674
N23400G1X92.575Y133.294Z-2.578
N23410G1X91.706Y132.425Z-2.500
N23420G1X90.940Y131.469Z-2.444
N23430G1X90.290Y130.444Z-2.416
N23440G1X89.762Y129.371Z-2.398
N23450G1X89.359Y128.271Z-2.396
N23460G1X89.080Y127.164Z-2.416
N23470G1X88.919Y126.068Z-2.454
N23480G1X88.868Y125.000Z-2.516
N23490G1X88.919Y123.932Z-2.592
N23500G1X89.048Y123.055Z-2.682
N23510G1X89.080Y122.836Z-2.725
N23520G1X89.136Y122.615Z-2.802
N23530G1X89.191Y122.393Z-2.901
N23540G1X89.247Y122.172Z-3.052
N23550G1X89.303Y121.951Z-3.255
N23560G1X89.359Y121.729Z-3.563
N23570G1X89.439Y121.509Z-5.000
N23580G1X89.762Y120.629
N23590G1X89.867Y120.414
N23600G1X89.973Y120.200Z-3.665
N23610G1X90.078Y119.985Z-3.272
N23620G1X90.184Y119.770Z-3.034
N23630G1X90.290Y119.556Z-2.868
N23640G1X90.420Y119.351Z-2.755
N23650G1X90.550Y119.146Z-2.687
N23660G1X90.940Y118.531Z-2.604
N23670G1X91.706Y117.575Z-2.527
N23680G1X92.575Y116.706Z-2.495
N23690G1X93.531Y115.940Z-2.495
N23700G1X94.556Y115.290Z-2.507
N23710G1X95.629Y114.762Z-2.527
N23720G1X96.729Y114.359Z-2.538
N23730G1X97.836Y114.080Z-2.541
N23740G1X98.932Y113.919Z-2.531
N23750G1X100.000Y113.868Z-2.511
N23760G1X101.068Y113.919Z-2.482
N23770G1X102.164Y114.080Z-2.447
N23780G1X103.271Y114.359Z-2.401
N23790G1X104.371Y114.762Z-2.353
N23800G1X105.444Y115.290Z-2.297
N23810G1X106.469Y115.940Z-2.239
N23820G1X107.425Y116.706Z-2.188
N23830G1X108.294Y117.575Z-2.140
N23840G1X109.060Y118.531Z-2.100
N23850G1X109.710Y119.556Z-2.069
N23860G1X110.238Y120.629Z-2.049
N23870G1X110.641Y121.729Z-2.041
N23880G1X110.920Y122.836Z-2.044
N23890G1X111.081Y123.932Z-2.058
N23900G1X111.132Y125.000Z-2.085
N23910G1X111.081Y126.068Z-2.125
N23920G1X110.920Y127.164Z-2.179
N23930G1X110.641Y128.271Z-2.249
N23940G1X110.238Y129.371Z-2.340
N23950G1X109.710Y130.444Z-2.454
N23960G1X109.060Y131.469Z-2.593
N23970G1X108.601Y132.043Z-2.697
N23980G1X108.447Y132.234Z-2.772
N23990G1X108.294Y132.425Z-2.889
N24000G1X108.121Y132.599Z-3.070
N24010G1X107.947Y132.773Z-3.349
N24020G1X107.773Y132.947Z-3.919
N24030G1X107.599Y133.121Z-5.000
N24040G1X107.425Y133.294
N24050G1X107.234Y133.447
N24060G1X107.043Y133.601Z-3.552
N24070G1X106.852Y133.754Z-3.190
N24080G1X106.660Y133.907Z-2.970
N24090G1X106.469Y134.060Z-2.824
N24100G1X106.264Y134.190Z-2.735
N24110G1X105.854Y134.450Z-2.653
N24120G1X105.444Y134.710Z-2.597
N24130G1X104.371Y135.238Z-2.499
N24140G1X103.271Y135.641Z-2.435
N24150G1X102.164Y135.920Z-2.400
N24160G1X101.068Y136.081Z-2.391
N24170G1X100.000Y136.133Z-2.406
N24180G1Y136.450Z-2.396
N24190G1X98.902Y136.397Z-2.438
N24200G1X97.775Y136.232Z-2.510
N24210G1X96.636Y135.945Z-2.617
N24220G1X96.183Y135.779Z-2.678
N24230G1X95.957Y135.696Z-2.729
N24240G1X95.731Y135.613Z-2.822
N24250G1X95.504Y135.530Z-2.959
N24260G1X95.283Y135.422Z-3.150
N24270G1X95.063Y135.313Z-3.456
N24280G1X94.842Y135.205Z-5.000
N24290G1X94.621Y135.096Z-3.935
N24300G1X94.400Y134.987Z-3.391
N24310G1X94.225Y134.876Z-3.161
N24320G1X94.049Y134.764Z-3.001
N24330G1X93.873Y134.653Z-2.876
N24340G1X93.522Y134.430Z-2.719
N24350G1X93.346Y134.318Z-2.678
N24360G1X92.363Y133.531Z-2.557
N24370G1X91.469Y132.637Z-2.479
N24380G1X90.682Y131.654Z-2.426
N24390G1X90.013Y130.600Z-2.394
N24400G1X89.470Y129.496Z-2.380
N24410G1X89.055Y128.364Z-2.379
N24420G1X88.768Y127.225Z-2.399
N24430G1X88.603Y126.098Z-2.436
N24440G1X88.550Y125.000Z-2.494
N24450G1X88.603Y123.902Z-2.574
N24460G1X88.768Y122.775Z-2.682
N24470G1X88.883Y122.319Z-2.812
N24480G1X88.941Y122.091Z-2.927
N24490G1X88.998Y121.864Z-3.092
N24500G1X89.055Y121.636Z-3.314
N24510G1X89.138Y121.410Z-3.745
N24520G1X89.221Y121.183Z-5.000
N24530G1X89.470Y120.504
N24540G1X89.578Y120.283
N24550G1X89.687Y120.063Z-4.151
N24560G1X89.795Y119.842Z-3.414
N24570G1X89.904Y119.621Z-3.121
N24580G1X90.013Y119.400Z-2.923
N24590G1X90.124Y119.225Z-2.807
N24600G1X90.236Y119.049Z-2.727
N24610G1X90.459Y118.698Z-2.650
N24620G1X90.682Y118.346Z-2.608
N24630G1X91.469Y117.363Z-2.532
N24640G1X92.363Y116.469Z-2.504
N24650G1X93.346Y115.682Z-2.511
N24660G1X94.400Y115.013Z-2.528
N24670G1X95.504Y114.470Z-2.553
N24680G1X96.636Y114.055Z-2.566
N24690G1X97.775Y113.768Z-2.573
N24700G1X98.902Y113.603Z-2.562
N24710G1X100.000Y113.550Z-2.545
N24720G1X101.098Y113.603Z-2.512
N24730G1X102.225Y113.768Z-2.472
N24740G1X103.364Y114.055Z-2.424
N24750G1X104.496Y114.470Z-2.370
N24760G1X105.600Y115.013Z-2.307
N24770G1X106.654Y115.682Z-2.248
N24780G1X107.637Y116.469Z-2.192
N24790G1X108.531Y117.363Z-2.141
N24800G1X109.318Y118.346Z-2.098
N24810G1X109.987Y119.400Z-2.064
N24820G1X110.530Y120.504Z-2.041
N24830G1X110.945Y121.636Z-2.031
N24840G1X111.232Y122.775Z-2.033
N24850G1X111.397Y123.902Z-2.047
N24860G1X111.450Y125.000Z-2.074
N24870G1X111.397Y126.098Z-2.113
N24880G1X111.232Y127.225Z-2.169
N24890G1X110.945Y128.364Z-2.241
N24900G1X110.530Y129.496Z-2.337
N24910G1X109.987Y130.600Z-2.451
N24920G1X109.318Y131.654Z-2.590
N24930G1X108.793Y132.309Z-2.715
N24940G1X108.662Y132.473Z-2.783
N24950G1X108.531Y132.637Z-2.882
N24960G1X108.382Y132.786Z-3.028
N24970G1X108.233Y132.935Z-3.237
N24980G1X108.084Y133.084Z-3.564
N24990G1X107.935Y133.233Z-5.000
N25000G1X107.637Y133.531
N25010G1X107.473Y133.662
N25020G1X107.309Y133.793Z-3.508
N25030G1X107.145Y133.925Z-3.232
N25040G1X106.982Y134.056Z-3.053
N25050G1X106.818Y134.187Z-2.903
N25060G1X106.654Y134.318Z-2.792
N25070G1X106.478Y134.430Z-2.721
N25080G1X105.951Y134.764Z-2.628
N25090G1X105.600Y134.987Z-2.585
N25100G1X104.496Y135.530Z-2.483
N25110G1X103.364Y135.945Z-2.419
N25120G1X102.225Y136.232Z-2.385
N25130G1X101.098Y136.397Z-2.378
N25140G1X100.000Y136.450Z-2.396
N25150G1Y136.768Z-2.384
N25160G1X98.943Y136.720Z-2.426
N25170G1X97.859Y136.571Z-2.489
N25180G1X96.762Y136.313Z-2.591
N25190G1X96.106Y136.090Z-2.677
N25200G1X95.668Y135.941Z-2.826
N25210G1X95.454Y135.844Z-2.963
N25220G1X95.239Y135.746Z-3.168
N25230G1X95.025Y135.648Z-3.491
N25240G1X94.810Y135.551Z-5.000
N25250G1X94.595Y135.453Z-3.835
N25260G1X94.388Y135.332Z-3.374
N25270G1X94.181Y135.211Z-3.123
N25280G1X93.975Y135.091Z-2.945
N25290G1X93.768Y134.970Z-2.825
N25300G1X93.561Y134.849Z-2.736
N25310G1X93.365Y134.707Z-2.685
N25320G1X92.583Y134.136Z-2.582
N25330G1X91.679Y133.321Z-2.495
N25340G1X90.864Y132.417Z-2.436
N25350G1X90.151Y131.439Z-2.397
N25360G1X89.547Y130.405Z-2.372
N25370G1X89.059Y129.332Z-2.360
N25380G1X88.687Y128.238Z-2.363
N25390G1X88.429Y127.141Z-2.381
N25400G1X88.280Y126.057Z-2.417
N25410G1X88.232Y125.000Z-2.471
N25420G1X88.280Y123.943Z-2.542
N25430G1X88.429Y122.859Z-2.643
N25440G1X88.532Y122.420Z-2.705
N25450G1X88.584Y122.201Z-2.760
N25460G1X88.635Y121.981Z-2.844
N25470G1X88.687Y121.762Z-2.974
N25480G1X88.761Y121.543Z-3.146
N25490G1X88.836Y121.325Z-3.413
N25500G1X88.910Y121.106Z-3.978
N25510G1X88.984Y120.887Z-5.000
N25520G1X89.059Y120.668
N25530G1X89.352Y120.025
N25540G1X89.449Y119.810Z-4.040
N25550G1X89.547Y119.595Z-3.421
N25560G1X89.668Y119.388Z-3.121
N25570G1X89.789Y119.181Z-2.925
N25580G1X89.909Y118.975Z-2.794
N25590G1X90.030Y118.768Z-2.711
N25600G1X90.151Y118.561Z-2.669
N25610G1X90.722Y117.779Z-2.577
N25620G1X90.864Y117.583Z-2.563
N25630G1X91.679Y116.679Z-2.520
N25640G1X92.583Y115.864Z-2.517
N25650G1X93.561Y115.151Z-2.537
N25660G1X94.595Y114.547Z-2.560
N25670G1X95.668Y114.059Z-2.586
N25680G1X96.762Y113.687Z-2.602
N25690G1X97.859Y113.429Z-2.606
N25700G1X98.943Y113.280Z-2.599
N25710G1X100.000Y113.232Z-2.574
N25720G1X101.057Y113.280Z-2.544
N25730G1X102.141Y113.429Z-2.503
N25740G1X103.238Y113.687Z-2.456
N25750G1X104.332Y114.059Z-2.404
N25760G1X105.405Y114.547Z-2.342
N25770G1X106.439Y115.151Z-2.280
N25780G1X107.417Y115.864Z-2.223
N25790G1X108.321Y116.679Z-2.168
N25800G1X109.136Y117.583Z-2.119
N25810G1X109.849Y118.561Z-2.080
N25820G1X110.453Y119.595Z-2.049
N25830G1X110.941Y120.668Z-2.030
N25840G1X111.313Y121.762Z-2.021
N25850G1X111.571Y122.859Z-2.023
N25860G1X111.720Y123.943Z-2.037
N25870G1X111.768Y125.000Z-2.060
N25880G1X111.720Y126.057Z-2.098
N25890G1X111.571Y127.141Z-2.147
N25900G1X111.313Y128.238Z-2.212
N25910G1X110.941Y129.332Z-2.298
N25920G1X110.453Y130.405Z-2.403
N25930G1X109.849Y131.439Z-2.531
N25940G1X109.136Y132.417Z-2.687
N25950G1X108.973Y132.598Z-2.741
N25960G1X108.810Y132.779Z-2.838
N25970G1X108.647Y132.959Z-2.988
N25980G1X108.484Y133.140Z-3.215
N25990G1X108.321Y133.321Z-3.591
N26000G1X108.140Y133.484Z-5.000
N26010G1X107.779Y133.810
N26020G1X107.598Y133.973Z-3.511
N26030G1X107.417Y134.136Z-3.172
N26040G1X107.221Y134.278Z-2.968
N26050G1X107.026Y134.421Z-2.833
N26060G1X106.830Y134.564Z-2.748
N26070G1X106.439Y134.849Z-2.653
N26080G1X105.405Y135.453Z-2.531
N26090G1X104.332Y135.941Z-2.448
N26100G1X103.238Y136.313Z-2.394
N26110G1X102.141Y136.571Z-2.369
N26120G1X101.057Y136.720Z-2.366
N26130G1X100.000Y136.768Z-2.384
N26140G1Y137.085Z-2.373
N26150G1X98.914Y137.036Z-2.417
N26160G1X97.801Y136.883Z-2.487
N26170G1X96.675Y136.619Z-2.589
N26180G1X96.001Y136.389Z-2.674
N26190G1X95.776Y136.313Z-2.721
N26200G1X95.552Y136.236Z-2.809
N26210G1X95.331Y136.136Z-2.946
N26220G1X95.111Y136.036Z-3.152
N26230G1X94.890Y135.936Z-3.479
N26240G1X94.670Y135.835Z-5.000
N26250G1X94.449Y135.735Z-3.510
N26260G1X94.237Y135.611Z-3.188
N26270G1X94.024Y135.487Z-2.989
N26280G1X93.812Y135.363Z-2.851
N26290G1X93.599Y135.239Z-2.755
N26300G1X93.387Y135.115Z-2.692
N26310G1X92.383Y134.382Z-2.563
N26320G1X91.455Y133.545Z-2.477
N26330G1X90.618Y132.617Z-2.420
N26340G1X89.885Y131.613Z-2.381
N26350G1X89.265Y130.551Z-2.357
N26360G1X88.764Y129.448Z-2.344
N26370G1X88.381Y128.325Z-2.346
N26380G1X88.117Y127.199Z-2.366
N26390G1X87.964Y126.086Z-2.399
N26400G1X87.915Y125.000Z-2.454
N26410G1X87.964Y123.914Z-2.524
N26420G1X88.117Y122.801Z-2.622
N26430G1X88.223Y122.350Z-2.672
N26440G1X88.329Y121.900Z-2.772
N26450G1X88.381Y121.675Z-2.872
N26460G1X88.458Y121.450Z-3.016
N26470G1X88.534Y121.225Z-3.219
N26480G1X88.611Y121.001Z-3.551
N26490G1X88.687Y120.776Z-5.000
N26500G1X88.764Y120.552
N26510G1X89.165Y119.670
N26520G1X89.265Y119.449Z-3.603
N26530G1X89.389Y119.237Z-3.222
N26540G1X89.513Y119.024Z-2.988
N26550G1X89.637Y118.812Z-2.833
N26560G1X89.761Y118.599Z-2.734
N26570G1X89.885Y118.387Z-2.679
N26580G1X90.251Y117.885Z-2.608
N26590G1X90.618Y117.383Z-2.567
N26600G1X91.455Y116.455Z-2.527
N26610G1X92.383Y115.618Z-2.531
N26620G1X93.387Y114.885Z-2.559
N26630G1X94.449Y114.265Z-2.592
N26640G1X95.552Y113.764Z-2.622
N26650G1X96.675Y113.381Z-2.638
N26660G1X97.801Y113.117Z-2.644
N26670G1X98.914Y112.964Z-2.632
N26680G1X100.000Y112.915Z-2.610
N26690G1X101.086Y112.964Z-2.574
N26700G1X102.199Y113.117Z-2.533
N26710G1X103.325Y113.381Z-2.480
N26720G1X104.448Y113.764Z-2.420
N26730G1X105.551Y114.265Z-2.357
N26740G1X106.613Y114.885Z-2.291
N26750G1X107.617Y115.618Z-2.230
N26760G1X108.545Y116.455Z-2.172
N26770G1X109.382Y117.383Z-2.120
N26780G1X110.115Y118.387Z-2.077
N26790G1X110.735Y119.449Z-2.044
N26800G1X111.236Y120.552Z-2.022
N26810G1X111.619Y121.675Z-2.011
N26820G1X111.883Y122.801Z-2.012
N26830G1X112.036Y123.914Z-2.024
N26840G1X112.085Y125.000Z-2.049
N26850G1X112.036Y126.086Z-2.086
N26860G1X111.883Y127.199Z-2.137
N26870G1X111.619Y128.325Z-2.205
N26880G1X111.236Y129.448Z-2.291
N26890G1X110.735Y130.551Z-2.397
N26900G1X110.115Y131.613Z-2.524
N26910G1X109.382Y132.617Z-2.684
N26920G1X109.243Y132.772Z-2.745
N26930G1X109.103Y132.927Z-2.838
N26940G1X108.964Y133.081Z-2.972
N26950G1X108.824Y133.236Z-3.142
N26960G1X108.685Y133.391Z-3.382
N26970G1X108.545Y133.545Z-3.810
N26980G1X108.391Y133.685Z-5.000
N26990G1X108.081Y133.964
N27000G1X107.927Y134.103Z-3.873
N27010G1X107.772Y134.243Z-3.389
N27020G1X107.617Y134.382Z-3.131
N27030G1X107.450Y134.504Z-2.961
N27040G1X107.282Y134.627Z-2.835
N27050G1X107.115Y134.749Z-2.748
N27060G1X106.948Y134.871Z-2.693
N27070G1X106.613Y135.115Z-2.637
N27080G1X105.551Y135.735Z-2.520
N27090G1X104.448Y136.236Z-2.433
N27100G1X103.325Y136.619Z-2.380
N27110G1X102.199Y136.883Z-2.354
N27120G1X101.086Y137.036Z-2.352
N27130G1X100.000Y137.085Z-2.373
N27140G1Y137.402Z-2.362
N27150G1X98.886Y137.352Z-2.408
N27160G1X97.743Y137.195Z-2.480
N27170G1X96.587Y136.924Z-2.591
N27180G1X95.896Y136.689Z-2.679
N27190G1X95.665Y136.610Z-2.744
N27200G1X95.435Y136.532Z-2.850
N27210G1X95.246Y136.446Z-2.979
N27220G1X95.058Y136.360Z-3.144
N27230G1X94.869Y136.274Z-3.389
N27240G1X94.681Y136.189Z-3.831
N27250G1X94.492Y136.103Z-3.891
N27260G1X94.304Y136.017Z-3.400
N27270G1X94.122Y135.911Z-3.139
N27280G1X93.940Y135.805Z-2.962
N27290G1X93.758Y135.699Z-2.838
N27300G1X93.577Y135.593Z-2.753
N27310G1X93.395Y135.487Z-2.701
N27320G1X93.213Y135.381Z-2.671
N27330G1X92.183Y134.629Z-2.547
N27340G1X91.230Y133.770Z-2.461
N27350G1X90.371Y132.817Z-2.405
N27360G1X89.619Y131.787Z-2.367
N27370G1X88.983Y130.696Z-2.344
N27380G1X88.468Y129.565Z-2.330
N27390G1X88.076Y128.413Z-2.332
N27400G1X87.805Y127.257Z-2.350
N27410G1X87.648Y126.114Z-2.385
N27420G1X87.597Y125.000Z-2.433
N27430G1X87.648Y123.886Z-2.507
N27440G1X87.805Y122.743Z-2.603
N27450G1X88.022Y121.819Z-2.722
N27460G1X88.076Y121.587Z-2.795
N27470G1X88.155Y121.357Z-2.913
N27480G1X88.233Y121.126Z-3.073
N27490G1X88.311Y120.896Z-3.320
N27500G1X88.390Y120.665Z-3.748
N27510G1X88.468Y120.435Z-5.000
N27520G1X88.897Y119.492
N27530G1X88.983Y119.304Z-3.896
N27540G1X89.089Y119.122Z-3.402
N27550G1X89.195Y118.940Z-3.135
N27560G1X89.301Y118.758Z-2.955
N27570G1X89.407Y118.577Z-2.828
N27580G1X89.513Y118.395Z-2.741
N27590G1X89.619Y118.213Z-2.688
N27600G1X90.121Y117.526Z-2.596
N27610G1X90.371Y117.183Z-2.570
N27620G1X91.230Y116.230Z-2.536
N27630G1X92.183Y115.371Z-2.547
N27640G1X93.213Y114.619Z-2.579
N27650G1X94.304Y113.983Z-2.625
N27660G1X95.435Y113.468Z-2.658
N27670G1X96.587Y113.076Z-2.680
N27680G1X97.050Y112.968Z-2.693
N27690G1X97.512Y112.859Z-2.684
N27700G1X97.743Y112.805Z-2.689
N27710G1X98.886Y112.648Z-2.674
N27720G1X100.000Y112.597Z-2.650
N27730G1X101.114Y112.648Z-2.612
N27740G1X102.257Y112.805Z-2.563
N27750G1X103.413Y113.076Z-2.509
N27760G1X104.565Y113.468Z-2.442
N27770G1X105.696Y113.983Z-2.373
N27780G1X106.787Y114.619Z-2.305
N27790G1X107.817Y115.371Z-2.237
N27800G1X108.770Y116.230Z-2.175
N27810G1X109.629Y117.183Z-2.120
N27820G1X110.381Y118.213Z-2.074
N27830G1X111.017Y119.304Z-2.039
N27840G1X111.532Y120.435Z-2.014
N27850G1X111.924Y121.587Z-2.002
N27860G1X112.195Y122.743Z-2.001
N27870G1X112.352Y123.886Z-2.013
N27880G1X112.403Y125.000Z-2.037
N27890G1X112.352Y126.114Z-2.073
N27900G1X112.195Y127.257Z-2.122
N27910G1X111.924Y128.413Z-2.191
N27920G1X111.532Y129.565Z-2.276
N27930G1X111.017Y130.696Z-2.386
N27940G1X110.381Y131.787Z-2.519
N27950G1X109.629Y132.817Z-2.681
N27960G1X109.486Y132.976Z-2.738
N27970G1X109.342Y133.135Z-2.830
N27980G1X109.199Y133.294Z-2.963
N27990G1X109.056Y133.452Z-3.153
N28000G1X108.913Y133.611Z-3.440
N28010G1X108.770Y133.770Z-4.163
N28020G1X108.611Y133.913Z-5.000
N28030G1X108.294Y134.199
N28040G1X108.135Y134.342Z-3.697
N28050G1X107.976Y134.486Z-3.341
N28060G1X107.817Y134.629Z-3.094
N28070G1X107.646Y134.754Z-2.928
N28080G1X107.474Y134.879Z-2.807
N28090G1X107.302Y135.005Z-2.725
N28100G1X107.130Y135.130Z-2.676
N28110G1X106.787Y135.381Z-2.623
N28120G1X105.696Y136.017Z-2.500
N28130G1X104.565Y136.532Z-2.415
N28140G1X103.413Y136.924Z-2.365
N28150G1X102.257Y137.195Z-2.339
N28160G1X101.114Y137.352Z-2.340
N28170G1X100.000Y137.402Z-2.362
N28180G1Y137.720Z-2.350
N28190G1X98.857Y137.669Z-2.397
N28200G1X97.685Y137.508Z-2.471
N28210G1X96.500Y137.229Z-2.582
N28220G1X95.712Y136.961Z-2.685
N28230G1X95.515Y136.894Z-2.738
N28240G1X95.318Y136.827Z-2.822
N28250G1X95.124Y136.739Z-2.948
N28260G1X94.931Y136.651Z-3.127
N28270G1X94.738Y136.563Z-3.391
N28280G1X94.544Y136.475Z-3.902
N28290G1X94.351Y136.387Z-3.751
N28300G1X94.158Y136.299Z-3.357
N28310G1X93.971Y136.190Z-3.121
N28320G1X93.785Y136.082Z-2.959
N28330G1X93.599Y135.973Z-2.832
N28340G1X93.412Y135.864Z-2.746
N28350G1X93.226Y135.755Z-2.687
N28360G1X93.039Y135.647Z-2.655
N28370G1X91.983Y134.875Z-2.531
N28380G1X91.006Y133.994Z-2.447
N28390G1X90.125Y133.017Z-2.391
N28400G1X89.353Y131.961Z-2.354
N28410G1X88.701Y130.842Z-2.331
N28420G1X88.173Y129.682Z-2.316
N28430G1X87.771Y128.500Z-2.318
N28440G1X87.492Y127.315Z-2.335
N28450G1X87.331Y126.143Z-2.367
N28460G1X87.280Y125.000Z-2.417
N28470G1X87.331Y123.857Z-2.485
N28480G1X87.492Y122.685Z-2.584
N28490G1X87.715Y121.737Z-2.689
N28500G1X87.771Y121.500Z-2.737
N28510G1X87.905Y121.106Z-2.913
N28520G1X87.972Y120.909Z-3.048
N28530G1X88.039Y120.712Z-3.243
N28540G1X88.106Y120.515Z-3.543
N28550G1X88.173Y120.318Z-5.000
N28560G1X88.701Y119.158
N28570G1X88.810Y118.971Z-3.551
N28580G1X88.918Y118.785Z-3.229
N28590G1X89.027Y118.599Z-3.016
N28600G1X89.136Y118.412Z-2.868
N28610G1X89.245Y118.226Z-2.766
N28620G1X89.353Y118.039Z-2.701
N28630G1X89.611Y117.687Z-2.634
N28640G1X90.125Y116.983Z-2.572
N28650G1X91.006Y116.006Z-2.544
N28660G1X91.983Y115.125Z-2.564
N28670G1X93.039Y114.353Z-2.606
N28680G1X94.158Y113.701Z-2.657
N28690G1X95.318Y113.173Z-2.713
N28700G1X95.712Y113.039Z-2.746
N28710G1X96.106Y112.905Z-2.736
N28720G1X96.500Y112.771Z-2.776
N28730G1X96.737Y112.715Z-2.793
N28740G1X97.211Y112.604Z-2.763
N28750G1X97.685Y112.492Z-2.795
N28760G1X97.920Y112.460Z-2.804
N28770G1X98.154Y112.428Z-2.768
N28780G1X98.623Y112.364Z-2.758
N28790G1X98.857Y112.331Z-2.765
N28800G1X99.314Y112.311Z-2.715
N28810G1X100.000Y112.280Z-2.703
N28820G1X101.143Y112.331Z-2.649
N28830G1X102.315Y112.492Z-2.597
N28840G1X103.500Y112.771Z-2.532
N28850G1X104.682Y113.173Z-2.463
N28860G1X105.842Y113.701Z-2.388
N28870G1X106.961Y114.353Z-2.315
N28880G1X108.017Y115.125Z-2.244
N28890G1X108.994Y116.006Z-2.180
N28900G1X109.875Y116.983Z-2.121
N28910G1X110.647Y118.039Z-2.071
N28920G1X111.299Y119.158Z-2.033
N28930G1X111.827Y120.318Z-2.006
N28940G1X112.229Y121.500Z-1.992
N28950G1X112.508Y122.685Z-1.990
N28960G1X112.669Y123.857Z-2.001
N28970G1X112.720Y125.000Z-2.023
N28980G1X112.669Y126.143Z-2.058
N28990G1X112.508Y127.315Z-2.110
N29000G1X112.229Y128.500Z-2.179
N29010G1X111.827Y129.682Z-2.271
N29020G1X111.299Y130.842Z-2.379
N29030G1X110.647Y131.961Z-2.516
N29040G1X109.875Y133.017Z-2.676
N29050G1X109.728Y133.180Z-2.731
N29060G1X109.582Y133.343Z-2.820
N29070G1X109.435Y133.506Z-2.953
N29080G1X109.288Y133.669Z-3.144
N29090G1X109.141Y133.832Z-3.433
N29100G1X108.994Y133.994Z-4.167
N29110G1X108.832Y134.141Z-5.000
N29120G1X108.669Y134.288
N29130G1X108.506Y134.435Z-4.094
N29140G1X108.343Y134.582Z-3.444
N29150G1X108.180Y134.728Z-3.164
N29160G1X108.017Y134.875Z-2.980
N29170G1X107.841Y135.004Z-2.860
N29180G1X107.489Y135.261Z-2.706
N29190G1X107.137Y135.518Z-2.638
N29200G1X106.961Y135.647Z-2.613
N29210G1X105.842Y136.299Z-2.486
N29220G1X104.682Y136.827Z-2.404
N29230G1X103.500Y137.229Z-2.351
N29240G1X102.315Y137.508Z-2.326
N29250G1X101.143Y137.669Z-2.326
N29260G1X100.000Y137.720Z-2.350
N29270G1Y138.038Z-2.339
N29280G1X98.829Y137.985Z-2.388
N29290G1X97.628Y137.820Z-2.466
N29300G1X96.413Y137.534Z-2.581
N29310G1X95.605Y137.259Z-2.692
N29320G1X95.403Y137.191Z-2.739
N29330G1X95.201Y137.122Z-2.817
N29340G1X95.003Y137.032Z-2.940
N29350G1X94.805Y136.942Z-3.116
N29360G1X94.606Y136.852Z-3.378
N29370G1X94.408Y136.761Z-3.875
N29380G1X94.210Y136.671Z-3.443
N29390G1X94.012Y136.581Z-3.175
N29400G1X93.821Y136.470Z-2.994
N29410G1X93.630Y136.358Z-2.864
N29420G1X93.439Y136.247Z-2.767
N29430G1X93.248Y136.135Z-2.702
N29440G1X92.866Y135.912Z-2.636
N29450G1X91.782Y135.122Z-2.514
N29460G1X90.781Y134.219Z-2.434
N29470G1X89.878Y133.218Z-2.379
N29480G1X89.088Y132.134Z-2.343
N29490G1X88.419Y130.988Z-2.321
N29500G1X87.878Y129.799Z-2.306
N29510G1X87.466Y128.587Z-2.306
N29520G1X87.180Y127.372Z-2.322
N29530G1X87.015Y126.171Z-2.353
N29540G1X86.963Y125.000Z-2.402
N29550G1X87.015Y123.829Z-2.471
N29560G1X87.180Y122.628Z-2.563
N29570G1X87.466Y121.413Z-2.699
N29580G1X87.534Y121.211Z-2.754
N29590G1X87.603Y121.009Z-2.844
N29600G1X87.672Y120.807Z-2.974
N29610G1X87.741Y120.605Z-3.161
N29620G1X87.809Y120.403Z-3.441
N29630G1X87.878Y120.201Z-4.063
N29640G1X87.968Y120.003Z-5.000
N29650G1X88.419Y119.012
N29660G1X88.530Y118.821Z-3.514
N29670G1X88.642Y118.630Z-3.195
N29680G1X88.753Y118.439Z-2.990
N29690G1X88.865Y118.248Z-2.849
N29700G1X88.976Y118.057Z-2.753
N29710G1X89.088Y117.866Z-2.693
N29720G1X89.483Y117.324Z-2.621
N29730G1X89.878Y116.782Z-2.576
N29740G1X90.781Y115.781Z-2.554
N29750G1X91.782Y114.878Z-2.585
N29760G1X92.866Y114.088Z-2.636
N29770G1X94.012Y113.419Z-2.710
N29780G1X94.408Y113.239Z-2.757
N29790G1X94.805Y113.058Z-2.761
N29800G1X95.201Y112.878Z-2.831
N29810G1X95.605Y112.741Z-2.902
N29820G1X96.009Y112.603Z-2.874
N29830G1X96.413Y112.466Z-2.941
N29840G1X96.615Y112.418Z-2.970
N29850G1X96.818Y112.371Z-2.959
N29860G1X97.020Y112.323Z-2.927
N29870G1X97.223Y112.275Z-2.928
N29880G1X97.628Y112.180Z-2.988
N29890G1X97.868Y112.147Z-2.987
N29900G1X98.108Y112.114Z-2.924
N29910G1X98.348Y112.081Z-2.907
N29920G1X98.588Y112.048Z-2.921
N29930G1X98.829Y112.015Z-2.912
N29940G1X99.063Y112.005Z-2.852
N29950G1X99.531Y111.984Z-2.832
N29960G1X100.000Y111.963Z-2.816
N29970G1X100.234Y111.973Z-2.760
N29980G1X100.937Y112.005Z-2.721
N29990G1X101.171Y112.015Z-2.692
N30000G1X102.372Y112.180Z-2.633
N30010G1X103.587Y112.466Z-2.564
N30020G1X104.799Y112.878Z-2.490
N30030G1X105.988Y113.419Z-2.406
N30040G1X107.134Y114.088Z-2.328
N30050G1X108.218Y114.878Z-2.252
N30060G1X109.219Y115.781Z-2.184
N30070G1X110.122Y116.782Z-2.122
N30080G1X110.912Y117.866Z-2.069
N30090G1X111.581Y119.012Z-2.028
N30100G1X112.122Y120.201Z-1.999
N30110G1X112.534Y121.413Z-1.983
N30120G1X112.820Y122.628Z-1.980
N30130G1X112.985Y123.829Z-1.990
N30140G1X113.037Y125.000Z-2.012
N30150G1X112.985Y126.171Z-2.047
N30160G1X112.820Y127.372Z-2.100
N30170G1X112.534Y128.587Z-2.170
N30180G1X112.122Y129.799Z-2.258
N30190G1X111.581Y130.988Z-2.370
N30200G1X110.912Y132.134Z-2.509
N30210G1X110.122Y133.218Z-2.673
N30220G1X109.971Y133.384Z-2.724
N30230G1X109.821Y133.551Z-2.811
N30240G1X109.670Y133.718Z-2.943
N30250G1X109.520Y133.885Z-3.134
N30260G1X109.369Y134.052Z-3.426
N30270G1X109.219Y134.219Z-4.172
N30280G1X109.052Y134.369Z-5.000
N30290G1X108.885Y134.520
N30300G1X108.718Y134.670Z-3.859
N30310G1X108.551Y134.821Z-3.359
N30320G1X108.384Y134.971Z-3.096
N30330G1X108.218Y135.122Z-2.919
N30340G1X108.037Y135.253Z-2.800
N30350G1X107.856Y135.385Z-2.722
N30360G1X107.315Y135.781Z-2.623
N30370G1X107.134Y135.912Z-2.602
N30380G1X105.988Y136.581Z-2.476
N30390G1X104.799Y137.122Z-2.389
N30400G1X103.587Y137.534Z-2.337
N30410G1X102.372Y137.820Z-2.313
N30420G1X101.171Y137.985Z-2.314
N30430G1X100.000Y138.038Z-2.339
N30440G1Y138.355Z-2.327
N30450G1X98.872Y138.307Z-2.375
N30460G1X97.716Y138.158Z-2.446
N30470G1X96.545Y137.900Z-2.550
N30480G1X95.609Y137.603Z-2.665
N30490G1X95.375Y137.529Z-2.709
N30500G1X95.182Y137.447Z-2.771
N30510G1X94.990Y137.366Z-2.867
N30520G1X94.798Y137.284Z-3.004
N30530G1X94.605Y137.203Z-3.199
N30540G1X94.413Y137.121Z-3.495
N30550G1X94.221Y137.040Z-3.489
N30560G1X94.034Y136.939Z-3.208
N30570G1X93.847Y136.838Z-3.023
N30580G1X93.660Y136.737Z-2.891
N30590G1X93.474Y136.636Z-2.790
N30600G1X93.100Y136.434Z-2.675
N30610G1X92.030Y135.716Z-2.543
N30620G1X91.028Y134.892Z-2.455
N30630G1X90.108Y133.972Z-2.394
N30640G1X89.284Y132.970Z-2.353
N30650G1X88.566Y131.900Z-2.326
N30660G1X87.960Y130.779Z-2.306
N30670G1X87.471Y129.625Z-2.295
N30680G1X87.100Y128.455Z-2.297
N30690G1X86.842Y127.284Z-2.312
N30700G1X86.693Y126.128Z-2.341
N30710G1X86.645Y125.000Z-2.386
N30720G1X86.693Y123.872Z-2.449
N30730G1X86.842Y122.716Z-2.534
N30740G1X87.100Y121.545Z-2.651
N30750G1X87.174Y121.311Z-2.689
N30760G1X87.248Y121.077Z-2.752
N30770G1X87.323Y120.843Z-2.852
N30780G1X87.397Y120.609Z-3.009
N30790G1X87.471Y120.375Z-3.216
N30800G1X87.553Y120.182Z-3.505
N30810G1X87.634Y119.990Z-5.000
N30820G1X87.960Y119.221
N30830G1X88.162Y118.847
N30840G1X88.263Y118.660Z-3.588
N30850G1X88.364Y118.474Z-3.259
N30860G1X88.465Y118.287Z-3.052
N30870G1X88.566Y118.100Z-2.906
N30880G1X88.685Y117.922Z-2.793
N30890G1X88.805Y117.743Z-2.717
N30900G1X88.925Y117.565Z-2.674
N30910G1X89.284Y117.030Z-2.614
N30920G1X89.971Y116.195Z-2.567
N30930G1X90.108Y116.028Z-2.564
N30940G1X91.028Y115.108Z-2.579
N30950G1X92.030Y114.284Z-2.634
N30960G1X92.922Y113.685Z-2.695
N30970G1X93.100Y113.566Z-2.723
N30980G1X93.287Y113.465Z-2.752
N30990G1X93.660Y113.263Z-2.765
N31000G1X94.221Y112.960Z-2.905
N31010G1X94.605Y112.797Z-2.904
N31020G1X94.798Y112.716Z-2.934
N31030G1X95.375Y112.471Z-3.125
N31040G1X95.609Y112.397Z-3.144
N31050G1X95.843Y112.323Z-3.113
N31060G1X96.077Y112.248Z-3.135
N31070G1X96.545Y112.100Z-3.294
N31080G1X97.013Y111.996Z-3.201
N31090G1X97.247Y111.945Z-3.217
N31100G1X97.716Y111.842Z-3.338
N31110G1X97.947Y111.812Z-3.228
N31120G1X98.178Y111.782Z-3.178
N31130G1X98.409Y111.752Z-3.180
N31140G1X98.640Y111.723Z-3.206
N31150G1X98.872Y111.693Z-3.116
N31160G1X99.097Y111.683Z-3.058
N31170G1X99.549Y111.664Z-3.046
N31180G1X99.774Y111.655Z-3.047
N31190G1X100.000Y111.645Z-2.974
N31200G1X100.226Y111.655Z-2.910
N31210G1X100.677Y111.674Z-2.874
N31220G1X101.128Y111.693Z-2.782
N31230G1X102.284Y111.842Z-2.677
N31240G1X103.455Y112.100Z-2.608
N31250G1X104.625Y112.471Z-2.531
N31260G1X105.779Y112.960Z-2.450
N31270G1X106.900Y113.566Z-2.372
N31280G1X107.970Y114.284Z-2.297
N31290G1X108.972Y115.108Z-2.222
N31300G1X109.892Y116.028Z-2.157
N31310G1X110.716Y117.030Z-2.099
N31320G1X111.434Y118.100Z-2.050
N31330G1X112.040Y119.221Z-2.012
N31340G1X112.529Y120.375Z-1.986
N31350G1X112.900Y121.545Z-1.972
N31360G1X113.158Y122.716Z-1.969
N31370G1X113.307Y123.872Z-1.979
N31380G1X113.355Y125.000Z-1.998
N31390G1X113.307Y126.128Z-2.032
N31400G1X113.158Y127.284Z-2.078
N31410G1X112.900Y128.455Z-2.140
N31420G1X112.529Y129.625Z-2.225
N31430G1X112.040Y130.779Z-2.326
N31440G1X111.434Y131.900Z-2.450
N31450G1X110.716Y132.970Z-2.600
N31460G1X110.304Y133.471Z-2.683
N31470G1X110.167Y133.638Z-2.739
N31480G1X110.029Y133.805Z-2.829
N31490G1X109.892Y133.972Z-2.962
N31500G1X109.739Y134.126Z-3.152
N31510G1X109.586Y134.279Z-3.440
N31520G1X109.432Y134.432Z-4.163
N31530G1X109.279Y134.586Z-5.000
N31540G1X109.126Y134.739
N31550G1X108.972Y134.892Z-3.961
N31560G1X108.805Y135.029Z-3.404
N31570G1X108.638Y135.167Z-3.131
N31580G1X108.471Y135.304Z-2.949
N31590G1X108.304Y135.442Z-2.821
N31600G1X108.137Y135.579Z-2.735
N31610G1X107.970Y135.716Z-2.683
N31620G1X106.900Y136.434Z-2.539
N31630G1X105.779Y137.040Z-2.436
N31640G1X104.625Y137.529Z-2.361
N31650G1X103.455Y137.900Z-2.317
N31660G1X102.284Y138.158Z-2.297
N31670G1X101.128Y138.307Z-2.302
N31680G1X100.000Y138.355Z-2.327
N31690G1Y138.673Z-2.316
N31700G1X98.845Y138.624Z-2.363
N31710G1X97.661Y138.471Z-2.440
N31720G1X96.463Y138.207Z-2.546
N31730G1X95.465Y137.890Z-2.669
N31740G1X95.265Y137.826Z-2.720
N31750G1X95.068Y137.743Z-2.791
N31760G1X94.871Y137.660Z-2.899
N31770G1X94.674Y137.576Z-3.053
N31780G1X94.477Y137.493Z-3.278
N31790G1X94.280Y137.409Z-3.647
N31800G1X94.083Y137.326Z-3.384
N31810G1X93.892Y137.223Z-3.121
N31820G1X93.701Y137.119Z-2.944
N31830G1X93.510Y137.016Z-2.821
N31840G1X93.318Y136.913Z-2.739
N31850G1X93.127Y136.810Z-2.690
N31860G1X92.936Y136.706Z-2.663
N31870G1X91.841Y135.971Z-2.527
N31880G1X90.814Y135.127Z-2.443
N31890G1X89.873Y134.186Z-2.384
N31900G1X89.029Y133.159Z-2.344
N31910G1X88.294Y132.064Z-2.318
N31920G1X87.674Y130.917Z-2.299
N31930G1X87.174Y129.735Z-2.286
N31940G1X86.793Y128.537Z-2.287
N31950G1X86.529Y127.339Z-2.300
N31960G1X86.376Y126.155Z-2.328
N31970G1X86.327Y125.000Z-2.374
N31980G1X86.376Y123.845Z-2.433
N31990G1X86.529Y122.661Z-2.517
N32000G1X86.793Y121.463Z-2.633
N32010G1X86.920Y121.064Z-2.693
N32020G1X86.983Y120.864Z-2.739
N32030G1X87.047Y120.664Z-2.818
N32040G1X87.110Y120.465Z-2.934
N32050G1X87.174Y120.265Z-3.080
N32060G1X87.257Y120.068Z-3.301
N32070G1X87.340Y119.871Z-3.667
N32080G1X87.424Y119.674Z-5.000
N32090G1X87.674Y119.083
N32100G1X87.881Y118.701
N32110G1X87.984Y118.510Z-3.835
N32120G1X88.087Y118.318Z-3.373
N32130G1X88.190Y118.127Z-3.123
N32140G1X88.294Y117.936Z-2.955
N32150G1X88.416Y117.753Z-2.823
N32160G1X88.539Y117.571Z-2.734
N32170G1X88.661Y117.388Z-2.681
N32180G1X89.029Y116.841Z-2.616
N32190G1X89.732Y115.985Z-2.573
N32200G1X89.873Y115.814Z-2.573
N32210G1X90.814Y114.873Z-2.598
N32220G1X91.841Y114.029Z-2.664
N32230G1X92.388Y113.661Z-2.709
N32240G1X92.753Y113.416Z-2.784
N32250G1X92.936Y113.294Z-2.843
N32260G1X93.127Y113.190Z-2.899
N32270G1X93.510Y112.984Z-2.919
N32280G1X93.701Y112.881Z-2.970
N32290G1X94.083Y112.674Z-3.145
N32300G1X94.280Y112.591Z-3.167
N32310G1X94.477Y112.507Z-3.162
N32320G1X94.674Y112.424Z-3.198
N32330G1X94.871Y112.340Z-3.282
N32340G1X95.068Y112.257Z-3.395
N32350G1X95.265Y112.174Z-3.538
N32360G1X95.465Y112.110Z-3.624
N32370G1X95.664Y112.047Z-3.557
N32380G1X95.864Y111.983Z-3.557
N32390G1X96.064Y111.920Z-3.623
N32400G1X96.263Y111.856Z-3.783
N32410G1X96.463Y111.793Z-5.000
N32420G1X96.703Y111.740Z-3.849
N32430G1X96.942Y111.687Z-3.754
N32440G1X97.182Y111.635Z-3.792
N32450G1X97.422Y111.582Z-5.000
N32460G1X97.661Y111.529
N32470G1X97.898Y111.498Z-3.804
N32480G1X98.135Y111.468Z-3.695
N32490G1X98.608Y111.407Z-3.683
N32500G1X98.845Y111.376Z-3.525
N32510G1X99.076Y111.367Z-3.432
N32520G1X99.307Y111.357Z-3.410
N32530G1X99.538Y111.347Z-3.419
N32540G1X99.769Y111.337Z-3.378
N32550G1X100.000Y111.327Z-3.251
N32560G1X100.231Y111.337Z-3.167
N32570G1X100.693Y111.357Z-3.114
N32580G1X100.924Y111.367Z-3.004
N32590G1X101.155Y111.376Z-2.942
N32600G1X101.629Y111.437Z-2.885
N32610G1X102.102Y111.498Z-2.763
N32620G1X102.339Y111.529Z-2.744
N32630G1X103.297Y111.740Z-2.657
N32640G1X103.537Y111.793Z-2.641
N32650G1X104.735Y112.174Z-2.562
N32660G1X105.917Y112.674Z-2.477
N32670G1X107.064Y113.294Z-2.388
N32680G1X108.159Y114.029Z-2.309
N32690G1X109.186Y114.873Z-2.229
N32700G1X110.127Y115.814Z-2.161
N32710G1X110.971Y116.841Z-2.099
N32720G1X111.706Y117.936Z-2.047
N32730G1X112.326Y119.083Z-2.006
