N0 %
N10 O0000
N20 (PROGRAM NAME - TORNOPEON)
N30 (DATE=DD-MM-YY - 16-11-21 TIME=HH:MM - 00:31)
N40 (MCX FILE - D:\DOCUMENTOS\MASTERCAM\TORNOPEON.MCX-5)
N50 (NC FILE - C:\USERS\USUARIO\DESKTOP\TORNOPEON.NC)
N60 (MATERIAL - ALUMINUM MM - 2024)
N70 G21
N80 (TOOL - 1 OFFSET - 1)
N90 (OD ROUGH RIGHT - 80 DEG.  INSERT - CNMG 12 04 08)
N100 G0 T0101
N110 G18
N120 G97 S535 M03
N130 G0 G54 X163.618 Z4.5
N140 G50 S3600
N150 G96 S275
N160 G99 G1 Z2.5 F.25
N170 Z-247.422
N180 G18 G2 X164.456 Z-247.684 I56.891 K90.622
N190 G3 X165.161 Z-248.06 I-.528 K-.85
N200 X167.551 Z-252.8 I-8.805 K-4.74
N210 G1 Z-321.8
N220 X170.38 Z-320.386
N230 G0 Z4.5
N240 X159.684
N250 G1 Z2.5
N260 Z-246.157
N270 G2 X163.452 Z-247.37 I58.858 K89.357
N280 X164.018 Z-247.548 I56.974 K90.57
N290 G1 X166.846 Z-246.133
N300 G0 Z4.5
N310 X155.75
N320 G1 Z2.5
N330 Z-244.83
N340 G2 X160.084 Z-246.289 I60.825 K88.03
N350 G1 X162.912 Z-244.875
N360 G0 Z4.5
N370 X151.816
N380 G1 Z2.5
N390 Z-243.438
N400 G2 X156.15 Z-244.968 I62.792 K86.638
N410 G1 X158.978 Z-243.554
N420 G0 Z4.5
N430 X147.883
N440 G1 Z2.5
N450 Z-241.978
N460 G2 X150.754 Z-243.051 I64.758 K85.178
N470 X152.216 Z-243.583 I63.323 K86.25
N480 G1 X155.045 Z-242.169
N490 G0 Z4.5
N500 X143.949
N510 G1 Z2.5
N520 Z-240.446
N530 G2 X148.283 Z-242.13 I66.725 K83.646
N540 G1 X151.111 Z-240.716
N550 G0 Z4.5
N560 X140.015
N570 G1 Z2.5
N580 Z-238.839
N590 G2 X144.349 Z-240.606 I68.692 K82.038
N600 G1 X147.177 Z-239.191
N610 G0 Z4.5
N620 X136.081
N630 G1 Z2.5
N640 Z-237.151
N650 G2 X140.415 Z-239.006 I70.659 K80.351
N660 G1 X143.243 Z-237.592
N670 G0 Z4.5
N680 X132.148
N690 G1 Z2.5
N700 Z-235.378
N710 G2 X136.481 Z-237.327 I72.626 K78.577
N720 G1 X139.31 Z-235.912
N730 G0 Z4.5
N740 X128.214
N750 G1 Z2.5
N760 Z-233.513
N770 G2 X132.548 Z-235.562 I74.593 K76.713
N780 G1 X135.376 Z-234.148
N790 G0 Z4.5
N800 X124.28
N810 G1 Z2.5
N820 Z-231.55
N830 G2 X128.614 Z-233.707 I76.56 K74.75
N840 G1 X131.442 Z-232.293
N850 G0 Z4.5
N860 X120.346
N870 G1 Z2.5
N880 Z-229.481
N890 G2 X123.421 Z-231.107 I78.527 K72.681
N900 X124.68 Z-231.755 I76.989 K74.307
N910 G1 X127.508 Z-230.34
N920 G0 Z4.5
N930 X116.413
N940 G1 Z2.5
N950 Z-227.297
N960 G2 X120.746 Z-229.696 I80.493 K70.496
N970 G1 X123.575 Z-228.282
N980 G0 Z4.5
N990 X112.479
N1000 G1 Z2.5
N1010 Z-224.985
N1020 G2 X116.813 Z-227.524 I82.46 K68.185
N1030 G1 X119.641 Z-226.11
N1040 G0 Z4.5
N1050 X108.545
N1060 G1 Z2.5
N1070 Z-222.534
N1080 G2 X112.879 Z-225.226 I84.427 K65.734
N1090 G1 X115.707 Z-223.812
N1100 G0 Z4.5
N1110 X104.611
N1120 G1 Z2.5
N1130 Z-219.927
N1140 G2 X108.945 Z-222.791 I86.394 K63.127
N1150 G1 X111.773 Z-221.376
N1160 G0 Z4.5
N1170 X100.678
N1180 G1 Z2.5
N1190 Z-217.143
N1200 G2 X105.011 Z-220.2 I88.361 K60.343
N1210 G1 X107.84 Z-218.786
N1220 G0 Z4.5
N1230 X96.744
N1240 G1 Z2.5
N1250 Z-93.182
N1260 G3 X99.436 Z-96.176 I-2.654 K-2.993
N1270 G1 Z-216.224
N1280 G2 X101.078 Z-217.435 I88.982 K59.424
N1290 G1 X103.906 Z-216.021
N1300 G0 Z4.5
N1310 X92.81
N1320 G1 Z2.5
N1330 Z-92.235
N1340 G3 X97.144 Z-93.373 I-.687 K-3.941
N1350 G1 X99.972 Z-91.958
N1360 G0 Z4.5
N1370 X88.876
N1380 G1 Z2.5
N1390 Z-92.048
N1400 X92.133 Z-92.19
N1410 G3 X93.21 Z-92.275 I-.348 K-3.985
N1420 G1 X96.038 Z-90.861
N1430 G0 Z4.5
N1440 X84.943
N1450 G1 Z2.5
N1460 Z-91.876
N1470 X89.276 Z-92.065
N1480 X92.105 Z-90.651
N1490 G0 Z4.5
N1500 X81.009
N1510 G1 Z2.5
N1520 Z-30.844
N1530 G3 X84.4 Z-42.8 I-41.304 K-11.956
N1540 G1 Z-91.852
N1550 X85.343 Z-91.893
N1560 X88.171 Z-90.479
N1570 G0 Z4.5
N1580 X77.075
N1590 G1 Z2.5
N1600 Z-25.435
N1610 G3 X81.409 Z-31.558 I-39.337 K-17.365
N1620 G1 X84.237 Z-30.144
N1630 G0 Z4.5
N1640 X73.141
N1650 G1 Z2.5
N1660 Z-21.529
N1670 G3 X77.475 Z-25.895 I-37.371 K-21.27
N1680 G1 X80.303 Z-24.481
N1690 G0 Z4.5
N1700 X69.208
N1710 G1 Z2.5
N1720 Z-18.396
N1730 G3 X73.541 Z-21.885 I-35.404 K-24.404
N1740 G1 X76.37 Z-20.471
N1750 G0 Z4.5
N1760 X65.274
N1770 G1 Z2.5
N1780 Z-15.763
N1790 G3 X69.608 Z-18.689 I-33.437 K-27.036
N1800 G1 X72.436 Z-17.274
N1810 G0 Z4.5
N1820 X61.34
N1830 G1 Z2.5
N1840 Z-13.497
N1850 G3 X65.674 Z-16.012 I-31.47 K-29.302
N1860 G1 X68.502 Z-14.598
N1870 G0 Z4.5
N1880 X57.406
N1890 G1 Z2.5
N1900 Z-11.518
N1910 G3 X61.74 Z-13.714 I-29.503 K-31.282
N1920 G1 X64.568 Z-12.3
N1930 G0 Z4.5
N1940 X53.473
N1950 G1 Z2.5
N1960 Z-9.773
N1970 G3 X57.806 Z-11.708 I-27.537 K-33.026
N1980 G1 X60.635 Z-10.294
N1990 G0 Z4.5
N2000 X49.539
N2010 G1 Z2.5
N2020 Z-8.228
N2030 G3 X53.873 Z-9.941 I-25.57 K-34.572
N2040 G1 X56.701 Z-8.527
N2050 G0 Z4.5
N2060 X45.605
N2070 G1 Z2.5
N2080 Z-6.857
N2090 G3 X49.939 Z-8.377 I-23.602 K-35.944
N2100 G1 X52.767 Z-6.963
N2110 G0 Z4.5
N2120 X41.671
N2130 G1 Z2.5
N2140 Z-5.64
N2150 G3 X46.005 Z-6.989 I-21.636 K-37.16
N2160 G1 X48.833 Z-5.575
N2170 G0 Z4.5
N2180 X37.738
N2190 G1 Z2.5
N2200 Z-4.562
N2210 G3 X42.071 Z-5.757 I-19.669 K-38.238
N2220 G1 X44.9 Z-4.343
N2230 G0 Z4.5
N2240 X33.804
N2250 G1 Z2.5
N2260 Z-3.613
N2270 G3 X38.138 Z-4.666 I-17.702 K-39.188
N2280 G1 X40.966 Z-3.251
N2290 G0 Z4.5
N2300 X29.87
N2310 G1 Z2.5
N2320 Z-2.782
N2330 G3 X34.204 Z-3.703 I-15.735 K-40.017
N2340 G1 X37.032 Z-2.289
N2350 G0 Z4.5
N2360 X25.936
N2370 G1 Z2.5
N2380 Z-2.064
N2390 G3 X30.27 Z-2.861 I-13.768 K-40.736
N2400 G1 X33.098 Z-1.447
N2410 G0 Z4.5
N2420 X22.003
N2430 G1 Z2.5
N2440 Z-1.451
N2450 G3 X26.336 Z-2.132 I-11.802 K-41.349
N2460 G1 X29.165 Z-.718
N2470 G0 Z4.5
N2480 X18.069
N2490 G1 Z2.5
N2500 Z-.94
N2510 G3 X22.403 Z-1.508 I-9.835 K-41.86
N2520 G1 X25.231 Z-.095
N2530 G0 Z4.5
N2540 X14.135
N2550 G1 Z2.5
N2560 Z-.526
N2570 G3 X18.469 Z-.987 I-7.867 K-42.274
N2580 G1 X21.297 Z.427
N2590 G0 Z4.5
N2600 X10.201
N2610 G1 Z2.5
N2620 Z-.207
N2630 G3 X14.535 Z-.563 I-5.901 K-42.593
N2640 G1 X17.363 Z.851
N2650 G28 U0. V0. W0. M05
N2660 T0100
N2670 M01
N2680 (TOOL - 21 OFFSET - 21)
N2690 (OD FINISH RIGHT - 35 DEG.  INSERT - VNMG 16 04 08)
N2700 G0 T2121
N2710 G18
N2720 G97 S1070 M03
N2730 G0 G54 X163.619 Z-245.187
N2740 G50 S3600
N2750 G96 S550
N2760 G1 Z-247.187 F.5
N2770 Z-247.423
N2780 G18 G2 X164.456 Z-247.684 I56.89 K90.623
N2790 G3 X165.161 Z-248.06 I-.528 K-.85
N2800 X167.551 Z-252.8 I-8.805 K-4.74
N2810 G1 X171.551
N2820 G0 Z-243.919
N2830 X159.687
N2840 G1 Z-245.919
N2850 Z-246.158
N2860 G2 X163.452 Z-247.37 I58.856 K89.358
N2870 X164.019 Z-247.548 I56.974 K90.57
N2880 G1 X168.019
N2890 G0 Z-242.589
N2900 X155.755
N2910 G1 Z-244.589
N2920 Z-244.832
N2930 G2 X160.087 Z-246.29 I60.822 K88.032
N2940 G1 X164.087
N2950 G0 Z-241.194
N2960 X151.823
N2970 G1 Z-243.194
N2980 Z-243.441
N2990 G2 X156.155 Z-244.97 I62.788 K86.64
N3000 G1 X160.155
N3010 G0 Z-239.73
N3020 X147.891
N3030 G1 Z-241.73
N3040 Z-241.981
N3050 G2 X150.754 Z-243.051 I64.754 K85.182
N3060 X152.223 Z-243.586 I63.323 K86.25
N3070 G1 X156.223 Z-243.585
N3080 G0 Z-238.194
N3090 X143.959
N3100 G1 Z-240.194
N3110 Z-240.45
N3120 G2 X148.291 Z-242.133 I66.72 K83.65
N3130 G1 X152.291
N3140 G0 Z-236.583
N3150 X140.027
N3160 G1 Z-238.583
N3170 Z-238.844
N3180 G2 X144.359 Z-240.61 I68.686 K82.043
N3190 G1 X148.359 Z-240.609
N3200 G0 Z-234.89
N3210 X136.095
N3220 G1 Z-236.89
N3230 Z-237.157
N3240 G2 X140.427 Z-239.011 I70.652 K80.356
N3250 G1 X144.427
N3260 G0 Z-233.112
N3270 X132.163
N3280 G1 Z-235.112
N3290 Z-235.384
N3300 G2 X136.495 Z-237.332 I72.618 K78.584
N3310 G1 X140.495
N3320 G0 Z-231.242
N3330 X128.23
N3340 G1 Z-233.242
N3350 Z-233.521
N3360 G2 X132.563 Z-235.569 I74.585 K76.721
N3370 G1 X136.563
N3380 G0 Z-229.273
N3390 X124.298
N3400 G1 Z-231.273
N3410 Z-231.559
N3420 G2 X128.63 Z-233.715 I76.551 K74.76
N3430 G1 X132.63
N3440 G0 Z-227.197
N3450 X120.366
N3460 G1 Z-229.197
N3470 Z-229.492
N3480 G2 X123.421 Z-231.107 I78.517 K72.692
N3490 X124.698 Z-231.763 I76.989 K74.307
N3500 G1 X128.698 Z-231.764
N3510 G0 Z-225.005
N3520 X116.434
N3530 G1 Z-227.005
N3540 Z-227.309
N3550 G2 X120.766 Z-229.708 I80.483 K70.509
N3560 G1 X124.766 Z-229.707
N3570 G0 Z-222.685
N3580 X112.502
N3590 G1 Z-224.685
N3600 Z-225.
N3610 G2 X116.834 Z-227.536 I82.449 K68.2
N3620 G1 X120.834 Z-227.537
N3630 G0 Z-220.224
N3640 X108.57
N3650 G1 Z-222.224
N3660 Z-222.55
N3670 G2 X112.902 Z-225.241 I84.415 K65.75
N3680 G1 X116.902
N3690 G0 Z-217.606
N3700 X104.638
N3710 G1 Z-219.606
N3720 Z-219.945
N3730 G2 X108.97 Z-222.807 I86.381 K63.145
N3740 G1 X112.97 Z-222.806
N3750 G0 Z-214.809
N3760 X100.706
N3770 G1 Z-216.809
N3780 Z-217.164
N3790 G2 X105.038 Z-220.218 I88.347 K60.364
N3800 G1 X109.038
N3810 G0 Z-90.932
N3820 X96.774
N3830 G1 Z-92.932
N3840 Z-93.196
N3850 G3 X99.436 Z-96.176 I-2.669 K-2.98
N3860 G1 Z-216.224
N3870 G2 X101.106 Z-217.456 I88.982 K59.424
N3880 G1 X105.106
N3890 G0 Z-90.034
N3900 X92.842
N3910 G1 Z-92.034
N3920 Z-92.237
N3930 G3 X97.174 Z-93.388 I-.703 K-3.938
N3940 G1 X101.174
N3950 G0 Z-89.849
N3960 X88.91
N3970 G1 Z-91.849
N3980 Z-92.049
N3990 X92.133 Z-92.19
N4000 G3 X93.242 Z-92.278 I-.348 K-3.985
N4010 G1 X97.242
N4020 G0 Z-89.677
N4030 X84.977
N4040 G1 Z-91.677
N4050 Z-91.877
N4060 X89.31 Z-92.067
N4070 X93.31
N4080 G0 Z-28.203
N4090 X81.045
N4100 G1 Z-30.203
N4110 Z-30.907
N4120 G3 X84.4 Z-42.8 I-41.322 K-11.892
N4130 G1 Z-91.852
N4140 X85.377 Z-91.895
N4150 X89.377
N4160 G0 Z-22.987
N4170 X77.113
N4180 G1 Z-24.987
N4190 Z-25.478
N4200 G3 X81.445 Z-31.625 I-39.356 K-17.322
N4210 G1 X85.445 Z-31.626
N4220 G0 Z-19.162
N4230 X73.181
N4240 G1 Z-21.162
N4250 Z-21.565
N4260 G3 X77.513 Z-25.939 I-37.39 K-21.235
N4270 G1 X81.513 Z-25.94
N4280 G0 Z-16.075
N4290 X69.249
N4300 G1 Z-18.075
N4310 Z-18.426
N4320 G3 X73.581 Z-21.921 I-35.424 K-24.374
N4330 G1 X77.581
N4340 G0 Z-13.473
N4350 X65.317
N4360 G1 Z-15.473
N4370 Z-15.79
N4380 G3 X69.649 Z-18.719 I-33.458 K-27.009
N4390 G1 X73.649
N4400 G0 Z-11.229
N4410 X61.385
N4420 G1 Z-13.229
N4430 Z-13.522
N4440 G3 X65.717 Z-16.04 I-31.493 K-29.278
N4450 G1 X69.717
N4460 G0 Z-9.265
N4470 X57.453
N4480 G1 Z-11.265
N4490 Z-11.54
N4500 G3 X61.785 Z-13.738 I-29.527 K-31.26
N4510 G1 X65.785
N4520 G0 Z-7.533
N4530 X53.521
N4540 G1 Z-9.533
N4550 Z-9.794
N4560 G3 X57.853 Z-11.73 I-27.561 K-33.006
N4570 G1 X61.853
N4580 G0 Z-5.998
N4590 X49.589
N4600 G1 Z-7.998
N4610 Z-8.247
N4620 G3 X53.921 Z-9.962 I-25.595 K-34.554
N4630 G1 X57.921
N4640 G0 Z-4.635
N4650 X45.657
N4660 G1 Z-6.635
N4670 Z-6.874
N4680 G3 X49.989 Z-8.396 I-23.628 K-35.926
N4690 G1 X53.989
N4700 G0 Z-3.424
N4710 X41.725
N4720 G1 Z-5.424
N4730 Z-5.655
N4740 G3 X46.057 Z-7.006 I-21.663 K-37.145
N4750 G1 X50.057
N4760 G0 Z-2.351
N4770 X37.792
N4780 G1 Z-4.351
N4790 Z-4.576
N4800 G3 X42.125 Z-5.773 I-19.696 K-38.224
N4810 G1 X46.125 Z-5.772
N4820 G0 Z-1.406
N4830 X33.86
N4840 G1 Z-3.406
N4850 Z-3.626
N4860 G3 X38.192 Z-4.68 I-17.73 K-39.174
N4870 G1 X42.192
N4880 G0 Z-.579
N4890 X29.928
N4900 G1 Z-2.579
N4910 Z-2.794
N4920 G3 X34.26 Z-3.716 I-15.764 K-40.006
N4930 G1 X38.26 Z-3.717
N4940 G0 Z.137
N4950 X25.996
N4960 G1 Z-1.863
N4970 Z-2.074
N4980 G3 X30.328 Z-2.873 I-13.798 K-40.726
N4990 G1 X34.328
N5000 G0 Z.748
N5010 X22.064
N5020 G1 Z-1.252
N5030 Z-1.46
N5040 G3 X26.396 Z-2.142 I-11.832 K-41.34
N5050 G1 X30.396
N5060 G0 Z1.258
N5070 X18.132
N5080 G1 Z-.742
N5090 Z-.947
N5100 G3 X22.464 Z-1.517 I-9.866 K-41.853
N5110 G1 X26.464 Z-1.518
N5120 G0 Z1.672
N5130 X14.2
N5140 G1 Z-.328
N5150 Z-.532
N5160 G3 X18.532 Z-.995 I-7.9 K-42.268
N5170 G1 X22.532
N5180 G0 Z2.022
N5190 X10.268
N5200 G1 Z.022
N5210 Z-.211
N5220 G3 X14.6 Z-.57 I-5.934 K-42.588
N5230 G1 X18.6
N5240 G0 X85.4
N5250 X87.228
N5260 Z-41.386
N5270 G1 X84.4 Z-42.8
N5280 G3 X80.627 Z-55.397 I-43. F.25
N5290 G1 Z-91.687 F.5
N5300 X84.8 Z-91.87
N5310 X88.8
N5320 G0 Z-53.758
N5330 X84.529
N5340 G1 X81.027 Z-54.725
N5350 G3 X76.854 Z-60.414 I-41.313 K11.925 F.25
N5360 G1 Z-91.522 F.5
N5370 X81.027 Z-91.705
N5380 X85.027
N5390 G0 Z-59.229
N5400 X80.976
N5410 G1 X77.254 Z-59.962
N5420 G3 X73.081 Z-64.124 I-39.427 K17.162 F.25
N5430 G1 Z-91.357 F.5
N5440 X77.254 Z-91.54
N5450 X81.254
N5460 G0 Z-63.225
N5470 X77.329
N5480 G1 X73.481 Z-63.77
N5490 G3 X69.308 Z-67.132 I-37.54 K20.97 F.25
N5500 G1 Z-91.192 F.5
N5510 X73.481 Z-91.375
N5520 X77.481
N5530 G0 Z-66.456
N5540 X73.634
N5550 G1 X69.708 Z-66.838
N5560 G3 X65.535 Z-69.674 I-35.654 K24.038 F.25
N5570 G1 Z-91.027 F.5
N5580 X69.708 Z-91.209
N5590 X73.708
N5600 G0 Z-69.188
N5610 X69.907
N5620 G1 X65.935 Z-69.423
N5630 G3 X61.762 Z-71.874 I-33.767 K26.623 F.25
N5640 G1 Z-90.862 F.5
N5650 X65.935 Z-91.044
N5660 X69.935
N5670 G0 Z-71.556
N5680 X66.157
N5690 G1 X62.162 Z-71.655
N5700 G3 X57.988 Z-73.805 I-31.881 K28.855 F.25
N5710 G1 Z-90.697 F.5
N5720 X62.162 Z-90.879
N5730 X66.162
N5740 G0 Z-73.638
N5750 X62.388
N5760 G1 X58.388 Z-73.611
N5770 G3 X57.052 Z-74.248 I-29.994 K30.812 F.25
N5780 G1 X54.215 Z-75.571
N5790 Z-90.532 F.5
N5800 X58.388 Z-90.714
N5810 X62.388
N5820 G0 Z-75.454
N5830 X58.613
N5840 G1 X54.615 Z-75.384
N5850 X50.442 Z-77.33 F.25
N5860 Z-90.367 F.5
N5870 X54.615 Z-90.549
N5880 X58.615
N5890 G0 Z-77.213
N5900 X54.84
N5910 G1 X50.842 Z-77.143
N5920 X46.669 Z-79.089 F.25
N5930 Z-90.202 F.5
N5940 X50.842 Z-90.384
N5950 X54.842
N5960 G0 Z-78.973
N5970 X51.067
N5980 G1 X47.069 Z-78.903
N5990 X42.896 Z-80.848 F.25
N6000 Z-90.037 F.5
N6010 X47.069 Z-90.219
N6020 X51.069
N6030 G0 Z-80.732
N6040 X47.294
N6050 G1 X43.296 Z-80.662
N6060 X39.123 Z-82.608 F.25
N6070 Z-89.872 F.5
N6080 X43.296 Z-90.054
N6090 X47.296
N6100 G0 Z-82.491
N6110 X43.521
N6120 G1 X39.523 Z-82.421
N6130 X35.35 Z-84.367 F.25
N6140 Z-89.764 F.5
N6150 X37.47 Z-89.801
N6160 G3 X37.574 Z-89.804 I-.035 K-.999
N6170 G1 X39.523 Z-89.889
N6180 X43.523
N6190 G0 Z-84.25
N6200 X39.748
N6210 G1 X35.75 Z-84.18
N6220 X31.577 Z-86.126 F.25
N6230 Z-89.698 F.5
N6240 X35.75 Z-89.771
N6250 X39.75
N6260 G0 X100.436
N6270 Z-94.175
N6280 X99.436
N6290 G1 Z-96.175
N6300 G3 X98.138 Z-98.36 I-4. F.25
N6310 G2 X95.833 Z-100.167 I89.631 K-58.44
N6320 G1 Z-213.433 F.5
N6330 G2 X99.836 Z-216.523 I90.783 K56.633
N6340 G1 X103.836 Z-216.522
N6350 G0 Z-99.403
N6360 X100.132
N6370 G1 X96.233 Z-99.848
N6380 G2 X92.229 Z-103.163 I90.583 K-56.953 F.25
N6390 G1 Z-210.437 F.5
N6400 G2 X96.233 Z-213.753 I92.585 K53.637
N6410 G1 X100.233
N6420 G0 Z-102.312
N6430 X96.498
N6440 G1 X92.629 Z-102.819
N6450 G2 X88.625 Z-106.402 I92.385 K-53.981 F.25
N6460 G1 Z-207.199 F.5
N6470 G2 X92.629 Z-210.78 I94.387 K50.398
N6480 G1 X96.629 Z-210.781
N6490 G0 Z-105.455
N6500 X92.857
N6510 G1 X89.025 Z-106.029
N6520 G2 X85.022 Z-109.932 I94.187 K-50.772 F.25
N6530 G1 Z-203.668 F.5
N6540 G2 X89.025 Z-207.571 I96.189 K46.868
N6550 G1 X93.025
N6560 G0 Z-108.88
N6570 X89.209
N6580 G1 X85.422 Z-109.523
N6590 G2 X81.418 Z-113.826 I95.989 K-47.277 F.25
N6600 G1 Z-199.774 F.5
N6610 G2 X85.422 Z-204.077 I97.991 K42.974
N6620 G1 X89.422
N6630 G0 Z-112.654
N6640 X85.551
N6650 G1 X81.818 Z-113.373
N6660 G2 X77.814 Z-118.195 I97.791 K-43.427 F.25
N6670 G1 Z-195.406 F.5
N6680 G2 X81.818 Z-200.227 I99.793 K38.606
N6690 G1 X85.818
N6700 G0 Z-116.882
N6710 X81.881
N6720 G1 X78.214 Z-117.681
N6730 G2 X74.211 Z-123.221 I99.593 K-39.119 F.25
N6740 G1 Z-190.379 F.5
N6750 G2 X78.214 Z-195.919 I101.594 K33.579
N6760 G1 X82.214
N6770 G0 Z-121.734
N6780 X78.195
N6790 G1 X74.611 Z-122.622
N6800 G2 X70.607 Z-129.265 I101.394 K-34.178 F.25
N6810 G1 Z-184.335 F.5
N6820 G2 X74.611 Z-190.978 I103.396 K27.535
N6830 G1 X78.611
N6840 G0 Z-127.534
N6850 X74.483
N6860 G1 X71.007 Z-128.524
N6870 G2 X67.004 Z-137.247 I103.196 K-28.276 F.25
N6880 G1 Z-176.354 F.5
N6890 G2 X71.007 Z-185.076 I105.198 K19.553
N6900 G1 X75.007
N6910 G0 Z-135.084
N6920 X70.724
N6930 G1 X67.404 Z-136.2
N6940 G2 X63.4 Z-156.8 I104.998 K-20.601 F.25
N6950 X67.404 Z-177.4 I107. F.5
N6960 G1 X71.404
N6970 G0 X168.551
N6980 X170.38
N6990 Z-251.386
N7000 G1 X167.551 Z-252.8
N7010 G3 X164.061 Z-258.444 I-10. F.25
N7020 G1 Z-279.203 F.5
N7030 G3 X165.4 Z-282.8 I-9.331 K-3.598
N7040 G1 Z-291.8
N7050 Z-320.797
N7060 X167.151 Z-320.827
N7070 X171.151
N7080 G0 Z-257.699
N7090 X168.363
N7100 G1 X164.461 Z-258.14
N7110 G3 X163.843 Z-258.601 I-8.455 K5.34 F.25
N7120 X160.571 Z-262.82 I-21.221 K5.8
N7130 G1 Z-276.284 F.5
N7140 G3 X164.461 Z-279.772 I-7.585 K-6.516
N7150 G1 X168.461
N7160 G0 Z-261.766
N7170 X164.751
N7180 G1 X160.971 Z-262.42
N7190 G3 X157.081 Z-265.673 I-19.785 K9.62 F.25
N7200 G1 Z-274.683 F.5
N7210 G3 X160.971 Z-276.524 I-5.84 K-8.117
N7220 G1 X164.971
N7230 G0 Z-265.041
N7240 X161.419
N7250 G1 X157.481 Z-265.391
N7260 G3 X153.591 Z-267.798 I-18.04 K12.591 F.25
N7270 G1 Z-273.677 F.5
N7280 G3 X157.481 Z-274.83 I-4.096 K-9.123
N7290 G1 X161.481
N7300 G0 Z-267.483
N7310 X157.986
N7320 G1 X153.991 Z-267.581
N7330 G3 X151.408 Z-268.89 I-16.296 K14.78 F.25
N7340 G1 X150.1 Z-269.499
N7350 Z-273.08 F.5
N7360 G3 X153.991 Z-273.769 I-2.35 K-9.72
N7370 G1 X157.991
N7380 G0 Z-269.383
N7390 X154.498
N7400 G1 X150.5 Z-269.313
N7410 X146.61 Z-271.127 F.25
N7420 Z-272.818 F.5
N7430 G3 X150.5 Z-273.13 I-.605 K-9.982
N7440 G1 X154.5 Z-273.131
N7450 G0 Z-271.01
N7460 X151.008
N7470 G1 X147.01 Z-270.94
N7480 X143.12 Z-272.754 F.25
N7490 X146.098 Z-272.806 F.5
N7500 G3 X147.01 Z-272.832 I-.349 K-9.994
N7510 G1 X151.01
N7520 G0 X166.4
N7530 X168.228
N7540 Z-290.386
N7550 G1 X165.4 Z-291.8
N7560 G3 X164.764 Z-292.531 I-1. F.25
N7570 G1 X161.96 Z-293.839
N7580 Z-299.204 F.5
N7590 G3 X165.4 Z-303.8 I-5.28 K-4.596
N7600 G1 X169.4
N7610 G0 Z-293.722
N7620 X166.358
N7630 G1 X162.36 Z-293.652
N7640 X158.52 Z-295.442 F.25
N7650 Z-297.773 F.5
N7660 G3 X162.36 Z-299.445 I-3.56 K-6.027
N7670 G1 X166.36
N7680 G0 Z-295.326
N7690 X162.918
N7700 G1 X158.92 Z-295.256
N7710 X155.081 Z-297.046 F.25
N7720 G3 X158.92 Z-297.896 I-1.84 K-6.754 F.5
N7730 G1 X162.92
N7740 G0 X166.4
N7750 X168.228
N7760 Z-305.386
N7770 G1 X165.4 Z-306.8
N7780 G3 X162.141 Z-311.29 I-7. F.25
N7790 G1 Z-314.31 F.5
N7800 G3 X165.4 Z-318.8 I-5.37 K-4.49
N7810 G1 Z-320.797
N7820 X165.8 Z-320.804
N7830 X169.8
N7840 G0 Z-309.448
N7850 X164.963
N7860 G1 X162.541 Z-311.039
N7870 G3 X160.948 Z-311.92 I-5.57 K4.239 F.25
N7880 G1 X158.881 Z-312.883
N7890 G3 X161.639 Z-314.026 I-3.74 K-5.917 F.5
N7900 X162.541 Z-314.56 I-5.12 K-4.774
N7910 G1 X166.541 Z-314.561
N7920 G0 X169.751
N7930 G28 U0. V0. W0. M05
N7940 T2100
N7950 M01
N7960 (TOOL - 22 OFFSET - 22)
N7970 (OD FINISH LEFT - 35 DEG.  INSERT - VNMG 16 04 08)
N7980 G0 T2222
N7990 G18
N8000 G97 S1029 M03
N8010 G0 G54 X170.077 Z-317.943
N8020 G50 S3600
N8030 G96 S550
N8040 G1 X167.151 Z-316.579 F.5
N8050 X165.023 Z-315.586 F.25
N8060 G18 G2 X164.395 Z-314.595 I-6.811 K-1.613
N8070 G1 Z-307.805 F.5
N8080 G2 X165.255 Z-306.206 I-6.498 K2.605
N8090 G1 X167.151 Z-306.173
N8100 X171.151
N8110 G0 Z-316.105
N8120 X168.323
N8130 G1 X164.795 Z-315.164
N8140 G2 X161.638 Z-312.426 I-6.697 K-2.036 F.25
N8150 G1 Z-309.975 F.5
N8160 G2 X164.795 Z-307.236 I-5.119 K4.774
N8170 G1 X168.795
N8180 G0 Z-314.169
N8190 X164.638
N8200 G1 X162.038 Z-312.649
N8210 G2 X160.948 Z-312.08 I-5.319 K-4.55 F.25
N8220 G1 X158.881 Z-311.117
N8230 G2 X161.639 Z-309.974 I-3.74 K5.917 F.5
N8240 X162.038 Z-309.751 I-5.12 K4.774
N8250 G1 X166.038
N8260 G0 X169.751
N8270 G28 U0. V0. W0. M05
N8280 T2200
N8290 M01
N8300 (TOOL - 42 OFFSET - 42)
N8310 (OD GROOVE CENTER - MEDIUM  INSERT - N151.2-400-40-5G)
N8320 G0 T4242
N8330 G18
N8340 G97 S562 M03
N8350 G0 G54 X171.151 Z-296.8
N8360 G50 S3600
N8370 G96 S302
N8380 G1 X153.4 F.05
N8390 G0 X171.151
N8400 Z-295.2
N8410 G1 X153.4 F.1
N8420 X153.72 Z-295.36
N8430 G0 X171.151
N8440 G97 S500
N8450 Z-293.586
N8460 X169.98
N8470 G1 X167.151 Z-295. F.05
N8480 X153.
N8490 X153.4 Z-295.2
N8500 G0 X169.98
N8510 Z-298.414
N8520 G1 X167.151 Z-297.
N8530 X153.
N8540 X153.4 Z-296.8
N8550 G0 X169.98
N8560 G96 S302
N8570 G97 S500
N8580 Z-293.586
N8590 X167.828
N8600 G1 X165. Z-295.
N8610 X153.
N8620 X153.4 Z-295.2
N8630 G0 X167.828
N8640 Z-298.414
N8650 G1 X165. Z-297.
N8660 X153.
N8670 X153.4 Z-296.8
N8680 G0 X167.828
N8690 G28 U0. V0. W0. M05
N8700 T4200
N8710 M30
N8720 %
