( Aspire___Buho )
( File created: Saturday December 04 2021 - 11:19 PM)
( for Mach2/3 from Vectric )
( Material Size)
( X= 200.000, Y= 251.327, Z= 40.000)
()
(Toolpaths used in this file:)
(Acabado 3D 2)
(Tools used in this file: )
(1 = Ball Nose {0.0625 inch})
N100G00G21G17G90G40G49G80
N110G71G91.1
N120T1M06
N130 (Ball Nose {0.0625 inch})
N140G00G43Z20.000H1
N150S12000M03
N160(Toolpath:- Acabado 3D 2)
N170()
N180G94
N190X0.000Y0.000F635.0
N200G00X100.305Y99.695Z5.000
N210G1Z-4.747F381.0
N220G1Y100.143Z-4.698F635.0
N230G1Y100.814Z-4.691
N240G1Y102.605Z-4.762
N250G1Y102.829Z-4.661
N260G1Y103.277Z-4.520
N270G1Y103.948Z-4.445
N280G1Y104.396Z-4.441
N290G1Y104.844Z-4.523
N300G1Y105.068Z-4.600
N310G1Y105.292Z-4.722
N320G1Y105.516Z-4.796
N330G1Y106.635Z-4.754
N340G1Y107.083Z-4.549
N350G1Y107.530Z-4.433
N360G1Y108.202Z-4.349
N370G1Y109.321Z-4.377
N380G1Y110.441Z-4.524
N390G1Y110.665Z-4.557
N400G1Y110.888Z-4.547
N410G1Y111.560Z-4.349
N420G1Y112.232Z-4.242
N430G1Y112.679Z-4.206
N440G1Y113.575Z-4.240
N450G1Y114.470Z-4.345
N460G1Y114.918Z-4.504
N470G1Y115.142Z-4.613
N480G1Y115.590Z-4.924
N490G1Y115.814Z-4.860
N500G1Y116.261Z-4.795
N510G1Y116.709Z-4.781
N520G1Y117.157Z-4.811
N530G1Y118.276Z-4.986
N540G1Y119.172Z-5.177
N550G1Y119.395Z-5.207
N560G1Y119.619Z-5.136
N570G1Y120.067Z-5.071
N580G1Y120.739Z-5.048
N590G1Y121.410Z-5.088
N600G1Y121.858Z-5.153
N610G1Y122.753Z-5.346
N620G1Y123.201Z-5.472
N630G1Y123.649Z-5.669
N640G1Y123.873Z-5.828
N650G1Y124.097Z-6.064
N660G1Y124.320Z-6.138
N670G1Y124.544Z-6.179
N680G1Y124.992Z-6.161
N690G1Y125.664Z-6.237
N700G1Y126.111Z-6.343
N710G1Y126.783Z-6.558
N720G1Y127.455Z-6.830
N730G1Y128.798Z-7.428
N740G1Y129.469Z-7.775
N750G1Y129.693Z-7.856
N760G1Y129.917Z-7.964
N770G1Y130.141Z-8.123
N780G1Y131.932Z-9.078
N790G1Y132.827Z-9.621
N800G1Y133.275Z-9.914
N810G1Y133.723Z-10.040
N820G1Y134.171Z-10.225
N830G1Y134.618Z-10.444
N840G1Y135.290Z-10.923
N850G1Y135.514Z-11.172
N860G1Y135.738Z-11.596
N870G1Y135.962Z-12.178
N880G1Y136.186Z-12.422
N890G1Y136.409Z-12.561
N900G1Y141.782Z-13.121
N910G1Y144.916Z-13.462
N920G1Y148.274Z-13.861
N930G1Y151.632Z-14.305
N940G1X99.695Z-14.266
N950G1Y147.155Z-13.689
N960G1Y142.678Z-13.182
N970G1Y136.857Z-12.576
N980G1Y136.409Z-12.163
N990G1Y135.962Z-11.676
N1000G1Y135.738Z-11.383
N1010G1Y135.514Z-11.027
N1020G1Y135.290Z-10.806
N1030G1Y134.842Z-10.489
N1040G1Y134.618Z-10.387
N1050G1Y134.395Z-10.310
N1060G1Y133.275Z-9.522
N1070G1Y132.380Z-8.974
N1080G1Y131.260Z-8.384
N1090G1Y130.813Z-8.202
N1100G1Y130.589Z-8.071
N1110G1Y130.365Z-7.900
N1120G1Y129.246Z-7.309
N1130G1Y127.455Z-6.528
N1140G1Y126.783Z-6.330
N1150G1Y126.559Z-6.266
N1160G1Y125.888Z-6.172
N1170G1Y125.440Z-6.171
N1180G1Y125.216Z-6.200
N1190G1Y124.992Z-6.200
N1200G1Y124.320Z-6.061
N1210G1Y124.097Z-5.984
N1220G1Y123.873Z-5.757
N1230G1Y123.649Z-5.602
N1240G1Y123.201Z-5.395
N1250G1Y122.753Z-5.282
N1260G1Y121.858Z-5.137
N1270G1Y121.186Z-5.145
N1280G1Y120.739Z-5.195
N1290G1Y120.515Z-5.228
N1300G1Y120.291Z-5.236
N1310G1Y118.724Z-4.883
N1320G1Y117.828Z-4.760
N1330G1Y117.157Z-4.740
N1340G1Y116.933Z-4.750
N1350G1Y116.261Z-4.848
N1360G1Y115.814Z-4.974
N1370G1Y115.590Z-4.948
N1380G1Y115.142Z-4.623
N1390G1Y114.694Z-4.415
N1400G1Y114.470Z-4.345
N1410G1Y114.023Z-4.293
N1420G1Y113.127Z-4.273
N1430G1Y112.679Z-4.335
N1440G1Y112.232Z-4.436
N1450G1Y112.008Z-4.508
N1460G1Y111.784Z-4.549
N1470G1Y110.217Z-4.318
N1480G1Y109.321Z-4.275
N1490G1Y108.874Z-4.296
N1500G1Y108.202Z-4.387
N1510G1Y107.754Z-4.534
N1520G1Y107.083Z-4.779
N1530G1Y105.068Z-4.844
N1540G1Y103.277Z-4.632
N1550G1Y102.158Z-4.576
N1560G1Y101.262Z-4.587
N1570G1Y100.367Z-4.677
N1580G1Y99.919Z-4.750
N1590G1Y99.695Z-4.802
N1600G1X100.102Z-4.750
N1610G1X100.305Z-4.747
N1620G1X100.623Y99.377Z-4.796
N1630G1Y99.827Z-4.763
N1640G1Y100.276Z-4.747
N1650G1Y102.074Z-4.821
N1660G1Y102.298Z-4.688
N1670G1Y102.972Z-4.459
N1680G1Y103.422Z-4.391
N1690G1Y103.871Z-4.358
N1700G1Y104.320Z-4.345
N1710G1Y104.770Z-4.413
N1720G1Y104.994Z-4.474
N1730G1Y105.219Z-4.573
N1740G1Y105.444Z-4.720
N1750G1Y105.668Z-4.778
N1760G1Y106.342Z-4.752
N1770G1Y107.016Z-4.500
N1780G1Y107.466Z-4.419
N1790G1Y108.140Z-4.375
N1800G1Y109.263Z-4.450
N1810G1Y110.162Z-4.566
N1820G1Y110.386Z-4.569
N1830G1Y111.060Z-4.336
N1840G1Y111.734Z-4.231
N1850G1Y112.408Z-4.199
N1860G1Y113.082Z-4.221
N1870G1Y114.430Z-4.390
N1880G1Y114.655Z-4.453
N1890G1Y115.104Z-4.644
N1900G1Y115.329Z-4.795
N1910G1Y115.554Z-4.886
N1920G1Y116.228Z-4.809
N1930G1Y116.452Z-4.806
N1940G1Y117.576Z-4.952
N1950G1Y118.699Z-5.176
N1960G1Y118.924Z-5.207
N1970G1Y119.148Z-5.139
N1980G1Y119.822Z-5.014
N1990G1Y120.496Z-5.021
N2000G1Y121.395Z-5.114
N2010G1Y122.069Z-5.249
N2020G1Y122.968Z-5.471
N2030G1Y123.192Z-5.539
N2040G1Y123.642Z-5.739
N2050G1Y123.866Z-5.901
N2060G1Y124.091Z-6.124
N2070G1Y124.316Z-6.170
N2080G1Y124.990Z-6.199
N2090G1Y125.439Z-6.265
N2100G1Y126.338Z-6.539
N2110G1Y127.236Z-6.892
N2120G1Y128.809Z-7.615
N2130G1Y129.034Z-7.648
N2140G1Y129.483Z-7.749
N2150G1Y129.708Z-7.816
N2160G1Y129.932Z-7.924
N2170G1Y130.606Z-8.409
N2180G1Y130.831Z-8.604
N2190G1Y131.056Z-8.760
N2200G1Y131.954Z-9.253
N2210G1Y132.853Z-9.833
N2220G1Y133.302Z-9.938
N2230G1Y133.752Z-10.087
N2240G1Y134.201Z-10.299
N2250G1Y134.650Z-10.578
N2260G1Y135.100Z-10.924
N2270G1Y135.324Z-11.149
N2280G1Y135.549Z-11.436
N2290G1Y135.998Z-12.484
N2300G1Y136.223Z-12.560
N2310G1Y141.391Z-13.100
N2320G1Y144.311Z-13.411
N2330G1Y147.906Z-13.835
N2340G1Y151.950Z-14.365
N2350G1X99.377Z-14.286
N2360G1Y147.457Z-13.705
N2370G1Y142.963Z-13.192
N2380G1Y137.122Z-12.586
N2390G1Y136.448Z-11.944
N2400G1Y135.549Z-10.996
N2410G1Y135.100Z-10.607
N2420G1Y134.650Z-10.247
N2430G1Y133.302Z-9.320
N2440G1Y132.404Z-8.788
N2450G1Y131.505Z-8.344
N2460G1Y131.056Z-8.201
N2470G1Y130.831Z-8.079
N2480G1Y130.382Z-7.722
N2490G1Y129.483Z-7.242
N2500G1Y127.910Z-6.573
N2510G1Y127.236Z-6.352
N2520G1Y126.787Z-6.240
N2530G1Y126.113Z-6.165
N2540G1Y125.664Z-6.175
N2550G1Y125.214Z-6.229
N2560G1Y124.091Z-5.968
N2570G1Y123.642Z-5.654
N2580G1Y123.192Z-5.444
N2590G1Y122.743Z-5.315
N2600G1Y122.069Z-5.207
N2610G1Y121.844Z-5.185
N2620G1Y121.620Z-5.186
N2630G1Y120.946Z-5.277
N2640G1Y119.148Z-4.862
N2650G1Y118.250Z-4.739
N2660G1Y118.025Z-4.716
N2670G1Y117.351Z-4.734
N2680G1Y117.126Z-4.745
N2690G1Y116.902Z-4.780
N2700G1Y116.452Z-4.909
N2710G1Y116.228Z-4.956
N2720G1Y116.003Z-4.979
N2730G1Y115.554Z-4.929
N2740G1Y115.329Z-4.884
N2750G1Y115.104Z-4.714
N2760G1Y114.655Z-4.505
N2770G1Y114.430Z-4.436
N2780G1Y113.981Z-4.388
N2790G1Y113.307Z-4.370
N2800G1Y113.082Z-4.374
N2810G1Y112.858Z-4.414
N2820G1Y112.408Z-4.553
N2830G1Y110.386Z-4.272
N2840G1Y109.712Z-4.255
N2850G1Y109.038Z-4.285
N2860G1Y108.364Z-4.411
N2870G1Y107.915Z-4.581
N2880G1Y107.690Z-4.707
N2890G1Y107.466Z-4.783
N2900G1Y105.444Z-4.829
N2910G1Y105.219Z-4.846
N2920G1Y104.994Z-4.808
N2930G1Y104.545Z-4.697
N2940G1Y103.422Z-4.556
N2950G1Y102.523Z-4.526
N2960G1Y101.624Z-4.547
N2970G1Y100.950Z-4.612
N2980G1Y100.051Z-4.792
N2990G1Y99.827Z-4.870
N3000G1Y99.602Z-4.924
N3010G1Y99.377Z-5.007
N3020G1X99.792Z-4.863
N3030G1X100.000Z-4.818
N3040G1X100.415Z-4.786
N3050G1X100.623Z-4.796
N3060G1X100.940Y99.060Z-4.868
N3070G1Y99.734Z-4.821
N3080G1Y101.305Z-4.879
N3090G1Y101.530Z-4.858
N3100G1Y101.754Z-4.747
N3110G1Y101.979Z-4.670
N3120G1Y102.203Z-4.569
N3130G1Y102.877Z-4.394
N3140G1Y103.775Z-4.288
N3150G1Y104.224Z-4.291
N3160G1Y104.448Z-4.303
N3170G1Y104.673Z-4.348
N3180G1Y105.122Z-4.499
N3190G1Y105.571Z-4.763
N3200G1Y106.020Z-4.746
N3210G1Y106.693Z-4.535
N3220G1Y106.918Z-4.482
N3230G1Y107.367Z-4.431
N3240G1Y107.816Z-4.414
N3250G1Y108.938Z-4.497
N3260G1Y109.836Z-4.606
N3270G1Y110.061Z-4.548
N3280G1Y110.285Z-4.450
N3290G1Y110.959Z-4.275
N3300G1Y111.408Z-4.221
N3310G1Y112.306Z-4.197
N3320G1Y113.204Z-4.270
N3330G1Y114.102Z-4.390
N3340G1Y114.551Z-4.491
N3350G1Y115.000Z-4.667
N3360G1Y115.224Z-4.801
N3370G1Y115.449Z-4.874
N3380G1Y116.122Z-4.843
N3390G1Y116.571Z-4.886
N3400G1Y117.469Z-5.029
N3410G1Y118.367Z-5.201
N3420G1Y119.041Z-5.059
N3430G1Y119.939Z-4.986
N3440G1Y120.612Z-5.046
N3450G1Y121.286Z-5.146
N3460G1Y122.408Z-5.393
N3470G1Y123.082Z-5.589
N3480G1Y123.531Z-5.789
N3490G1Y123.755Z-5.926
N3500G1Y123.980Z-6.129
N3510G1Y124.878Z-6.242
N3520G1Y125.327Z-6.332
N3530G1Y126.225Z-6.639
N3540G1Y127.347Z-7.108
N3550G1Y128.021Z-7.417
N3560G1Y128.245Z-7.491
N3570G1Y128.695Z-7.551
N3580G1Y129.368Z-7.707
N3590G1Y129.817Z-7.887
N3600G1Y130.491Z-8.290
N3610G1Y130.940Z-8.673
N3620G1Y131.164Z-8.959
N3630G1Y131.838Z-9.362
N3640G1Y132.287Z-9.654
N3650G1Y132.511Z-9.774
N3660G1Y133.185Z-9.941
N3670G1Y133.858Z-10.209
N3680G1Y134.532Z-10.656
N3690G1Y134.756Z-10.821
N3700G1Y134.981Z-11.020
N3710G1Y135.205Z-11.257
N3720G1Y135.430Z-11.527
N3730G1Y135.654Z-11.974
N3740G1Y135.879Z-12.539
N3750G1Y140.818Z-13.061
N3760G1Y143.961Z-13.390
N3770G1Y147.777Z-13.841
N3780G1Y152.267Z-14.427
N3790G1X99.060Z-14.309
N3800G1Y147.777Z-13.732
N3810G1Y143.287Z-13.215
N3820G1Y137.450Z-12.613
N3830G1Y137.226Z-12.439
N3840G1Y136.328Z-11.561
N3850G1Y135.879Z-11.055
N3860G1Y135.654Z-10.784
N3870G1Y134.756Z-10.071
N3880G1Y133.409Z-9.161
N3890G1Y132.511Z-8.658
N3900G1Y132.062Z-8.449
N3910G1Y131.613Z-8.275
N3920G1Y131.164Z-8.160
N3930G1Y130.715Z-7.750
N3940G1Y130.042Z-7.347
N3950G1Y129.593Z-7.126
N3960G1Y128.021Z-6.497
N3970G1Y127.347Z-6.309
N3980G1Y126.898Z-6.215
N3990G1Y126.449Z-6.180
N4000G1Y126.225Z-6.196
N4010G1Y126.000Z-6.183
N4020G1Y125.776Z-6.199
N4030G1Y125.551Z-6.249
N4040G1Y125.102Z-6.160
N4050G1Y123.755Z-5.861
N4060G1Y123.531Z-5.729
N4070G1Y123.082Z-5.505
N4080G1Y122.857Z-5.415
N4090G1Y122.184Z-5.288
N4100G1Y121.959Z-5.271
N4110G1Y121.510Z-5.310
N4120G1Y119.265Z-4.793
N4130G1Y118.592Z-4.717
N4140G1Y117.918Z-4.690
N4150G1Y117.245Z-4.768
N4160G1Y116.796Z-4.880
N4170G1Y116.571Z-4.973
N4180G1Y116.347Z-4.999
N4190G1Y115.224Z-4.892
N4200G1Y115.000Z-4.857
N4210G1Y114.551Z-4.659
N4220G1Y114.326Z-4.600
N4230G1Y113.428Z-4.548
N4240G1Y112.979Z-4.546
N4250G1Y111.408Z-4.325
N4260G1Y110.510Z-4.241
N4270G1Y109.836Z-4.246
N4280G1Y109.163Z-4.318
N4290G1Y108.714Z-4.422
N4300G1Y108.489Z-4.507
N4310G1Y108.265Z-4.566
N4320G1Y107.816Z-4.783
N4330G1Y106.469Z-4.797
N4340G1Y106.020Z-4.782
N4350G1Y105.346Z-4.845
N4360G1Y104.897Z-4.671
N4370G1Y104.224Z-4.559
N4380G1Y103.550Z-4.497
N4390G1Y102.652Z-4.489
N4400G1Y101.979Z-4.521
N4410G1Y101.305Z-4.585
N4420G1Y100.856Z-4.677
N4430G1Y100.183Z-4.850
N4440G1Y99.509Z-5.146
N4450G1Y99.285Z-5.266
N4460G1Y99.060Z-5.456
N4470G1X99.295Z-5.230
N4480G1X99.530Z-5.079
N4490G1X99.765Z-4.982
N4500G1X100.235Z-4.861
N4510G1X100.705Z-4.846
N4520G1X100.940Z-4.868
N4530G1X101.257Y98.743Z-4.937
N4540G1Y99.416Z-4.897
N4550G1Y100.313Z-4.916
N4560G1Y100.762Z-4.936
N4570G1Y100.986Z-4.909
N4580G1Y101.210Z-4.781
N4590G1Y101.883Z-4.543
N4600G1Y102.108Z-4.499
N4610G1Y102.332Z-4.429
N4620G1Y103.229Z-4.298
N4630G1Y103.678Z-4.270
N4640G1Y104.351Z-4.290
N4650G1Y104.575Z-4.320
N4660G1Y104.800Z-4.384
N4670G1Y105.248Z-4.575
N4680G1Y105.473Z-4.727
N4690G1Y105.697Z-4.740
N4700G1Y105.921Z-4.708
N4710G1Y106.370Z-4.573
N4720G1Y107.043Z-4.463
N4730G1Y107.716Z-4.464
N4740G1Y108.614Z-4.542
N4750G1Y109.287Z-4.621
N4760G1Y109.511Z-4.619
N4770G1Y110.184Z-4.377
N4780G1Y110.408Z-4.312
N4790G1Y111.081Z-4.210
N4800G1Y111.979Z-4.203
N4810G1Y113.325Z-4.339
N4820G1Y113.998Z-4.447
N4830G1Y114.447Z-4.557
N4840G1Y114.671Z-4.628
N4850G1Y115.120Z-4.852
N4860G1Y115.344Z-4.874
N4870G1Y116.017Z-4.893
N4880G1Y117.139Z-5.069
N4890G1Y117.812Z-5.173
N4900G1Y118.036Z-5.192
N4910G1Y118.260Z-5.121
N4920G1Y118.709Z-5.041
N4930G1Y119.158Z-4.995
N4940G1Y120.055Z-5.008
N4950G1Y121.177Z-5.188
N4960G1Y122.074Z-5.388
N4970G1Y123.196Z-5.749
N4980G1Y123.645Z-5.998
N4990G1Y123.869Z-6.155
N5000G1Y124.318Z-6.201
N5010G1Y124.991Z-6.354
N5020G1Y125.888Z-6.655
N5030G1Y127.010Z-7.116
N5040G1Y127.458Z-7.312
N5050G1Y128.356Z-7.461
N5060G1Y128.580Z-7.527
N5070G1Y128.805Z-7.566
N5080G1Y129.478Z-7.788
N5090G1Y130.151Z-8.127
N5100G1Y130.599Z-8.426
N5110G1Y130.824Z-8.621
N5120G1Y131.048Z-8.861
N5130G1Y131.272Z-9.168
N5140G1Y131.945Z-9.591
N5150G1Y132.170Z-9.701
N5160G1Y132.394Z-9.739
N5170G1Y132.618Z-9.806
N5180G1Y133.067Z-9.965
N5190G1Y133.740Z-10.293
N5200G1Y134.413Z-10.769
N5210G1Y134.862Z-11.153
N5220G1Y135.086Z-11.380
N5230G1Y135.310Z-11.720
N5240G1Y135.535Z-12.336
N5250G1Y135.759Z-12.543
N5260G1Y140.470Z-13.041
N5270G1Y143.836Z-13.395
N5280G1Y147.649Z-13.846
N5290G1Y152.585Z-14.491
N5300G1X98.743Z-14.329
N5310G1Y147.874Z-13.723
N5320G1Y143.387Z-13.206
N5330G1Y137.778Z-12.629
N5340G1Y137.554Z-12.533
N5350G1Y137.105Z-12.058
N5360G1Y136.657Z-11.639
N5370G1Y136.208Z-11.175
N5380G1Y135.984Z-10.839
N5390G1Y135.759Z-10.598
N5400G1Y134.862Z-9.893
N5410G1Y133.516Z-9.010
N5420G1Y132.843Z-8.647
N5430G1Y132.394Z-8.436
N5440G1Y131.721Z-8.235
N5450G1Y131.497Z-8.191
N5460G1Y131.272Z-8.095
N5470G1Y131.048Z-7.815
N5480G1Y130.824Z-7.624
N5490G1Y130.151Z-7.245
N5500G1Y129.702Z-7.026
N5510G1Y128.356Z-6.518
N5520G1Y127.683Z-6.331
N5530G1Y127.010Z-6.221
N5540G1Y126.785Z-6.199
N5550G1Y126.561Z-6.198
N5560G1Y125.888Z-6.276
N5570G1Y125.215Z-6.127
N5580G1Y124.093Z-5.880
N5590G1Y123.420Z-5.734
N5600G1Y123.196Z-5.701
N5610G1Y122.747Z-5.534
N5620G1Y122.299Z-5.420
N5630G1Y121.401Z-5.165
N5640G1Y120.279Z-4.913
N5650G1Y119.382Z-4.749
N5660G1Y118.709Z-4.692
N5670G1Y118.036Z-4.707
N5680G1Y117.363Z-4.805
N5690G1Y116.914Z-4.952
N5700G1Y116.690Z-4.998
N5710G1Y114.895Z-4.838
N5720G1Y114.671Z-4.801
N5730G1Y114.447Z-4.734
N5740G1Y112.652Z-4.414
N5750G1Y111.754Z-4.299
N5760G1Y110.857Z-4.234
N5770G1Y110.184Z-4.248
N5780G1Y109.511Z-4.326
N5790G1Y109.062Z-4.428
N5800G1Y108.838Z-4.502
N5810G1Y108.389Z-4.746
N5820G1Y108.165Z-4.783
N5830G1Y106.819Z-4.764
N5840G1Y106.370Z-4.762
N5850G1Y105.921Z-4.783
N5860G1Y105.697Z-4.817
N5870G1Y105.473Z-4.784
N5880G1Y105.248Z-4.683
N5890G1Y104.800Z-4.564
N5900G1Y103.902Z-4.458
N5910G1Y103.005Z-4.463
N5920G1Y101.883Z-4.537
N5930G1Y101.210Z-4.646
N5940G1Y100.537Z-4.859
N5950G1Y100.313Z-4.934
N5960G1Y100.089Z-5.043
N5970G1Y99.640Z-5.315
N5980G1Y99.416Z-5.473
N5990G1Y99.191Z-5.574
N6000G1Y98.743Z-5.604
N6010G1X98.971Z-5.620
N6020G1X99.200Z-5.513
N6030G1X99.428Z-5.307
N6040G1X99.657Z-5.163
N6050G1X99.886Z-5.045
N6060G1X100.114Z-4.972
N6070G1X100.572Z-4.892
N6080G1X101.029Z-4.909
N6090G1X101.257Z-4.937
N6100G1X101.575Y98.425Z-5.007
N6110G1Y99.098Z-4.973
N6120G1Y99.994Z-4.986
N6130G1Y100.218Z-4.996
N6140G1Y100.443Z-4.981
N6150G1Y100.891Z-4.772
N6160G1Y101.339Z-4.592
N6170G1Y102.236Z-4.397
N6180G1Y102.909Z-4.312
N6190G1Y103.581Z-4.266
N6200G1Y104.254Z-4.309
N6210G1Y104.478Z-4.338
N6220G1Y104.702Z-4.387
N6230G1Y105.151Z-4.545
N6240G1Y105.375Z-4.675
N6250G1Y105.599Z-4.718
N6260G1Y106.496Z-4.518
N6270G1Y107.168Z-4.501
N6280G1Y108.513Z-4.614
N6290G1Y108.962Z-4.667
N6300G1Y109.186Z-4.602
N6310G1Y109.634Z-4.432
N6320G1Y110.307Z-4.274
N6330G1Y110.979Z-4.213
N6340G1Y111.652Z-4.226
N6350G1Y112.773Z-4.331
N6360G1Y113.221Z-4.384
N6370G1Y114.118Z-4.580
N6380G1Y114.342Z-4.636
N6390G1Y114.791Z-4.823
N6400G1Y115.015Z-4.896
N6410G1Y115.239Z-4.888
N6420G1Y115.912Z-4.959
N6430G1Y117.033Z-5.122
N6440G1Y117.481Z-5.171
N6450G1Y117.929Z-5.100
N6460G1Y118.378Z-5.019
N6470G1Y119.050Z-4.979
N6480G1Y119.947Z-5.035
N6490G1Y121.068Z-5.244
N6500G1Y121.965Z-5.462
N6510G1Y122.861Z-5.761
N6520G1Y123.310Z-5.951
N6530G1Y123.534Z-6.098
N6540G1Y123.758Z-6.174
N6550G1Y124.206Z-6.242
N6560G1Y124.431Z-6.293
N6570G1Y125.776Z-6.763
N6580G1Y127.121Z-7.284
N6590G1Y127.793Z-7.335
N6600G1Y128.466Z-7.504
N6610G1Y129.139Z-7.737
N6620G1Y129.587Z-7.935
N6630G1Y130.484Z-8.444
N6640G1Y130.932Z-8.856
N6650G1Y131.156Z-9.174
N6660G1Y131.380Z-9.387
N6670G1Y131.829Z-9.675
N6680G1Y132.053Z-9.695
N6690G1Y132.277Z-9.744
N6700G1Y132.950Z-10.011
N6710G1Y133.398Z-10.257
N6720G1Y133.847Z-10.560
N6730G1Y134.743Z-11.306
N6740G1Y134.967Z-11.585
N6750G1Y135.192Z-11.899
N6760G1Y135.416Z-12.525
N6770G1Y140.124Z-13.026
N6780G1Y143.711Z-13.402
N6790G1Y147.522Z-13.854
N6800G1Y152.902Z-14.559
N6810G1X98.425Z-14.352
N6820G1Y147.970Z-13.720
N6830G1Y144.383Z-13.302
N6840G1Y137.882Z-12.631
N6850G1Y137.209Z-11.913
N6860G1Y136.537Z-11.277
N6870G1Y136.088Z-10.655
N6880G1Y135.864Z-10.406
N6890G1Y135.192Z-9.880
N6900G1Y133.847Z-8.994
N6910G1Y133.174Z-8.636
N6920G1Y132.501Z-8.355
N6930G1Y131.829Z-8.198
N6940G1Y131.605Z-8.182
N6950G1Y131.156Z-7.725
N6960G1Y130.932Z-7.529
N6970G1Y130.708Z-7.383
N6980G1Y130.035Z-7.053
N6990G1Y128.690Z-6.526
N7000G1Y128.018Z-6.356
N7010G1Y127.569Z-6.279
N7020G1Y126.897Z-6.231
N7030G1Y126.448Z-6.272
N7040G1Y126.224Z-6.323
N7050G1Y123.982Z-5.782
N7060G1Y123.534Z-5.690
N7070G1Y123.310Z-5.674
N7080G1Y123.086Z-5.562
N7090G1Y122.861Z-5.473
N7100G1Y121.740Z-5.140
N7110G1Y120.619Z-4.890
N7120G1Y119.723Z-4.743
N7130G1Y119.050Z-4.697
N7140G1Y118.378Z-4.719
N7150G1Y117.929Z-4.779
N7160G1Y117.033Z-5.011
N7170G1Y115.912Z-4.906
N7180G1Y115.239Z-4.833
N7190G1Y115.015Z-4.827
N7200G1Y114.791Z-4.769
N7210G1Y114.566Z-4.680
N7220G1Y112.997Z-4.385
N7230G1Y112.100Z-4.282
N7240G1Y111.204Z-4.231
N7250G1Y110.531Z-4.258
N7260G1Y110.307Z-4.274
N7270G1Y110.083Z-4.320
N7280G1Y109.859Z-4.339
N7290G1Y109.634Z-4.390
N7300G1Y109.410Z-4.469
N7310G1Y109.186Z-4.525
N7320G1Y108.962Z-4.620
N7330G1Y108.738Z-4.743
N7340G1Y108.513Z-4.783
N7350G1Y106.944Z-4.720
N7360G1Y106.496Z-4.745
N7370G1Y105.823Z-4.855
N7380G1Y105.599Z-4.742
N7390G1Y105.151Z-4.567
N7400G1Y104.702Z-4.482
N7410G1Y103.805Z-4.424
N7420G1Y102.685Z-4.479
N7430G1Y102.012Z-4.552
N7440G1Y101.339Z-4.691
N7450G1Y101.115Z-4.754
N7460G1Y100.667Z-4.944
N7470G1Y100.218Z-5.172
N7480G1Y99.770Z-5.519
N7490G1Y98.425Z-5.622
N7500G1X99.100Z-5.648
N7510G1X99.325Z-5.622
N7520G1X99.775Z-5.277
N7530G1X100.000Z-5.141
N7540G1X100.225Z-5.052
N7550G1X100.450Z-5.001
N7560G1X100.900Z-4.959
N7570G1X101.350Z-4.977
N7580G1X101.575Z-5.007
N7590G1X101.893Y98.107Z-5.072
N7600G1Y98.780Z-5.046
N7610G1Y99.900Z-5.067
N7620G1Y100.124Z-4.988
N7630G1Y100.348Z-4.844
N7640G1Y100.572Z-4.733
N7650G1Y101.244Z-4.531
N7660G1Y102.140Z-4.380
N7670G1Y103.036Z-4.307
N7680G1Y103.484Z-4.298
N7690G1Y104.156Z-4.332
N7700G1Y104.604Z-4.403
N7710G1Y105.053Z-4.553
N7720G1Y105.277Z-4.664
N7730G1Y105.501Z-4.670
N7740G1Y105.949Z-4.596
N7750G1Y106.397Z-4.545
N7760G1Y106.845Z-4.541
N7770G1Y108.413Z-4.682
N7780G1Y108.637Z-4.652
N7790G1Y109.309Z-4.424
N7800G1Y109.533Z-4.363
N7810G1Y110.205Z-4.260
N7820G1Y110.877Z-4.234
N7830G1Y111.550Z-4.263
N7840G1Y111.998Z-4.300
N7850G1Y113.342Z-4.510
N7860G1Y114.014Z-4.669
N7870G1Y114.462Z-4.815
N7880G1Y114.686Z-4.930
N7890G1Y115.134Z-4.934
N7900G1Y116.254Z-5.083
N7910G1Y117.150Z-5.170
N7920G1Y117.598Z-5.043
N7930G1Y117.823Z-5.011
N7940G1Y118.271Z-4.979
N7950G1Y118.943Z-4.982
N7960G1Y119.839Z-5.079
N7970G1Y120.959Z-5.313
N7980G1Y122.079Z-5.631
N7990G1Y122.975Z-5.930
N8000G1Y123.423Z-6.156
N8010G1Y124.095Z-6.312
N8020G1Y125.664Z-6.857
N8030G1Y126.784Z-7.256
N8040G1Y127.008Z-7.256
N8050G1Y127.680Z-7.331
N8060G1Y128.352Z-7.518
N8070G1Y129.248Z-7.886
N8080G1Y130.144Z-8.384
N8090G1Y130.368Z-8.518
N8100G1Y130.592Z-8.687
N8110G1Y130.816Z-8.890
N8120G1Y131.041Z-9.147
N8130G1Y131.265Z-9.446
N8140G1Y131.489Z-9.591
N8150G1Y131.713Z-9.695
N8160G1Y131.937Z-9.728
N8170G1Y132.385Z-9.867
N8180G1Y132.833Z-10.085
N8190G1Y133.281Z-10.363
N8200G1Y133.505Z-10.523
N8210G1Y134.401Z-11.294
N8220G1Y134.625Z-11.512
N8230G1Y134.849Z-11.782
N8240G1Y135.073Z-12.180
N8250G1Y135.297Z-12.529
N8260G1Y139.554Z-12.984
N8270G1Y143.138Z-13.356
N8280G1Y147.171Z-13.830
N8290G1Y153.220Z-14.625
N8300G1X98.107Z-14.374
N8310G1Y148.067Z-13.716
N8320G1Y144.483Z-13.303
N8330G1Y143.810Z-13.246
N8340G1Y141.122Z-12.948
N8350G1Y138.210Z-12.657
N8360G1Y137.986Z-12.472
N8370G1Y137.538Z-11.985
N8380G1Y136.865Z-11.350
N8390G1Y136.641Z-11.114
N8400G1Y136.417Z-10.708
N8410G1Y136.193Z-10.420
N8420G1Y135.521Z-9.862
N8430G1Y134.177Z-8.978
N8440G1Y133.729Z-8.728
N8450G1Y133.281Z-8.524
N8460G1Y132.609Z-8.300
N8470G1Y132.161Z-8.205
N8480G1Y131.713Z-8.148
N8490G1Y131.265Z-7.659
N8500G1Y130.816Z-7.320
N8510G1Y129.696Z-6.801
N8520G1Y129.024Z-6.562
N8530G1Y128.352Z-6.374
N8540G1Y127.680Z-6.287
N8550G1Y126.784Z-6.316
N8560G1Y126.560Z-6.348
N8570G1Y124.319Z-5.765
N8580G1Y123.647Z-5.672
N8590G1Y123.423Z-5.619
N8600G1Y122.975Z-5.401
N8610G1Y122.079Z-5.112
N8620G1Y120.959Z-4.876
N8630G1Y120.063Z-4.747
N8640G1Y119.391Z-4.714
N8650G1Y119.167Z-4.713
N8660G1Y118.943Z-4.734
N8670G1Y118.719Z-4.733
N8680G1Y118.495Z-4.765
N8690G1Y118.271Z-4.821
N8700G1Y118.047Z-4.856
N8710G1Y117.598Z-5.012
N8720G1Y117.374Z-5.024
N8730G1Y116.478Z-4.929
N8740G1Y115.806Z-4.844
N8750G1Y115.358Z-4.826
N8760G1Y115.134Z-4.792
N8770G1Y114.910Z-4.693
N8780G1Y114.462Z-4.566
N8790G1Y113.342Z-4.374
N8800G1Y112.446Z-4.269
N8810G1Y111.550Z-4.233
N8820G1Y111.101Z-4.242
N8830G1Y110.429Z-4.318
N8840G1Y109.757Z-4.495
N8850G1Y109.533Z-4.570
N8860G1Y109.309Z-4.692
N8870G1Y109.085Z-4.775
N8880G1Y107.517Z-4.697
N8890G1Y106.845Z-4.711
N8900G1Y106.621Z-4.741
N8910G1Y106.173Z-4.859
N8920G1Y105.949Z-4.881
N8930G1Y105.725Z-4.744
N8940G1Y105.501Z-4.634
N8950G1Y105.053Z-4.490
N8960G1Y104.380Z-4.415
N8970G1Y103.932Z-4.401
N8980G1Y103.036Z-4.458
N8990G1Y102.364Z-4.551
N9000G1Y101.692Z-4.700
N9010G1Y101.468Z-4.768
N9020G1Y101.020Z-4.931
N9030G1Y100.796Z-5.051
N9040G1Y100.348Z-5.433
N9050G1Y100.124Z-5.468
N9060G1Y99.004Z-5.554
N9070G1Y98.107Z-5.664
N9080G1X99.221Z-5.682
N9090G1X99.443Z-5.658
N9100G1X99.666Z-5.547
N9110G1X99.889Z-5.358
N9120G1X100.111Z-5.235
N9130G1X100.557Z-5.077
N9140G1X101.002Z-5.009
N9150G1X101.447Z-5.014
N9160G1X101.893Z-5.072
N9170G1X102.210Y97.790Z-5.147
N9180G1Y98.686Z-5.119
N9190G1Y99.357Z-5.129
N9200G1Y99.581Z-5.099
N9210G1Y99.805Z-4.964
N9220G1Y100.029Z-4.875
N9230G1Y100.253Z-4.754
N9240G1Y100.701Z-4.599
N9250G1Y101.148Z-4.499
N9260G1Y101.820Z-4.406
N9270G1Y103.163Z-4.329
N9280G1Y103.611Z-4.345
N9290G1Y104.283Z-4.401
N9300G1Y104.730Z-4.509
N9310G1Y105.178Z-4.696
N9320G1Y105.626Z-4.610
N9330G1Y106.298Z-4.586
N9340G1Y107.865Z-4.690
N9350G1Y108.089Z-4.698
N9360G1Y108.313Z-4.649
N9370G1Y108.760Z-4.458
N9380G1Y109.432Z-4.314
N9390G1Y110.104Z-4.260
N9400G1Y110.775Z-4.258
N9410G1Y111.895Z-4.368
N9420G1Y113.238Z-4.628
N9430G1Y114.134Z-4.827
N9440G1Y114.581Z-4.957
N9450G1Y116.820Z-5.167
N9460G1Y117.044Z-5.122
N9470G1Y117.268Z-5.052
N9480G1Y117.492Z-5.005
N9490G1Y118.164Z-4.960
N9500G1Y118.835Z-4.999
N9510G1Y119.507Z-5.093
N9520G1Y120.850Z-5.412
N9530G1Y121.970Z-5.729
N9540G1Y122.865Z-6.022
N9550G1Y123.313Z-6.204
N9560G1Y123.537Z-6.255
N9570G1Y125.328Z-6.847
N9580G1Y126.223Z-7.163
N9590G1Y127.119Z-7.274
N9600G1Y127.791Z-7.414
N9610G1Y128.238Z-7.571
N9620G1Y129.134Z-7.968
N9630G1Y130.029Z-8.475
N9640G1Y130.477Z-8.755
N9650G1Y130.925Z-9.180
N9660G1Y131.149Z-9.530
N9670G1Y131.373Z-9.632
N9680G1Y132.044Z-9.862
N9690G1Y132.492Z-10.068
N9700G1Y132.940Z-10.344
N9710G1Y133.388Z-10.672
N9720G1Y134.283Z-11.459
N9730G1Y134.507Z-11.717
N9740G1Y134.731Z-12.031
N9750G1Y134.955Z-12.503
N9760G1Y138.537Z-12.905
N9770G1Y143.015Z-13.362
N9780G1Y147.045Z-13.834
N9790G1Y153.537Z-14.688
N9800G1X98.453Z-14.434
N9810G1X97.790Z-14.392
N9820G1Y148.388Z-13.735
N9830G1Y144.806Z-13.320
N9840G1Y143.910Z-13.247
N9850G1Y141.224Z-12.944
N9860G1Y138.537Z-12.679
N9870G1Y138.313Z-12.563
N9880G1Y137.642Z-11.861
N9890G1Y136.970Z-11.228
N9900G1Y136.746Z-10.890
N9910G1Y136.522Z-10.501
N9920G1Y136.298Z-10.227
N9930G1Y135.627Z-9.700
N9940G1Y134.283Z-8.840
N9950G1Y133.836Z-8.621
N9960G1Y133.388Z-8.434
N9970G1Y132.716Z-8.262
N9980G1Y132.492Z-8.240
N9990G1Y132.268Z-8.196
N10000G1Y132.044Z-8.182
N10010G1Y131.821Z-8.110
N10020G1Y131.597Z-7.929
N10030G1Y131.373Z-7.644
N10040G1Y130.925Z-7.275
N10050G1Y130.701Z-7.140
N10060G1Y129.582Z-6.669
N10070G1Y129.134Z-6.529
N10080G1Y128.462Z-6.369
N10090G1Y127.791Z-6.319
N10100G1Y127.343Z-6.352
N10110G1Y127.119Z-6.403
N10120G1Y126.895Z-6.373
N10130G1Y125.552Z-5.973
N10140G1Y124.432Z-5.712
N10150G1Y123.761Z-5.673
N10160G1Y123.313Z-5.417
N10170G1Y122.641Z-5.172
N10180G1Y122.193Z-5.051
N10190G1Y121.298Z-4.876
N10200G1Y120.402Z-4.757
N10210G1Y119.955Z-4.726
N10220G1Y119.283Z-4.746
N10230G1Y118.835Z-4.800
N10240G1Y118.164Z-4.963
N10250G1Y117.940Z-5.051
N10260G1Y117.716Z-5.042
N10270G1Y116.372Z-4.855
N10280G1Y115.925Z-4.822
N10290G1Y115.477Z-4.833
N10300G1Y115.029Z-4.627
N10310G1Y114.581Z-4.504
N10320G1Y113.686Z-4.363
N10330G1Y112.566Z-4.258
N10340G1Y111.895Z-4.235
N10350G1Y111.223Z-4.264
N10360G1Y110.551Z-4.377
N10370G1Y110.104Z-4.539
N10380G1Y109.656Z-4.725
N10390G1Y109.432Z-4.756
N10400G1Y108.313Z-4.678
N10410G1Y107.641Z-4.663
N10420G1Y107.417Z-4.676
N10430G1Y106.969Z-4.727
N10440G1Y106.522Z-4.819
N10450G1Y106.298Z-4.903
N10460G1Y106.074Z-4.882
N10470G1Y105.850Z-4.745
N10480G1Y105.402Z-4.552
N10490G1Y104.954Z-4.453
N10500G1Y104.283Z-4.399
N10510G1Y103.387Z-4.452
N10520G1Y102.715Z-4.563
N10530G1Y102.268Z-4.658
N10540G1Y101.820Z-4.789
N10550G1Y101.596Z-4.877
N10560G1Y101.148Z-5.108
N10570G1Y100.924Z-5.245
N10580G1Y100.701Z-5.418
N10590G1Y99.357Z-5.505
N10600G1Y98.462Z-5.626
N10610G1Y98.238Z-5.669
N10620G1Y97.790Z-5.821
N10630G1X98.232Z-5.724
N10640G1X98.674Z-5.702
N10650G1X99.337Z-5.713
N10660G1X99.779Z-5.661
N10670G1X100.000Z-5.541
N10680G1X100.221Z-5.379
N10690G1X100.663Z-5.178
N10700G1X101.105Z-5.080
N10710G1X101.547Z-5.062
N10720G1X101.768Z-5.074
N10730G1X102.210Z-5.147
N10740G1X102.528Y97.472Z-5.217
N10750G1Y98.371Z-5.203
N10760G1Y98.820Z-5.208
N10770G1Y99.045Z-5.180
N10780G1Y99.719Z-4.841
N10790G1Y99.943Z-4.779
N10800G1Y100.168Z-4.691
N10810G1Y100.842Z-4.522
N10820G1Y101.516Z-4.438
N10830G1Y102.414Z-4.388
N10840G1Y103.088Z-4.373
N10850G1Y103.762Z-4.422
N10860G1Y104.211Z-4.471
N10870G1Y104.436Z-4.517
N10880G1Y104.885Z-4.673
N10890G1Y105.110Z-4.694
N10900G1Y105.559Z-4.631
N10910G1Y106.008Z-4.634
N10920G1Y106.907Z-4.693
N10930G1Y107.581Z-4.711
N10940G1Y107.806Z-4.674
N10950G1Y108.030Z-4.574
N10960G1Y108.929Z-4.352
N10970G1Y109.603Z-4.282
N10980G1Y110.276Z-4.282
N10990G1Y110.950Z-4.339
N11000G1Y111.624Z-4.424
N11010G1Y113.421Z-4.785
N11020G1Y114.095Z-4.853
N11030G1Y114.320Z-4.907
N11040G1Y114.544Z-4.997
N11050G1Y116.342Z-5.169
N11060G1Y116.566Z-5.168
N11070G1Y117.240Z-5.010
N11080G1Y117.689Z-4.971
N11090G1Y118.363Z-5.000
N11100G1Y118.812Z-5.054
N11110G1Y119.711Z-5.242
N11120G1Y121.508Z-5.721
N11130G1Y123.305Z-6.292
N11140G1Y125.102Z-6.873
N11150G1Y125.776Z-7.100
N11160G1Y126.001Z-7.137
N11170G1Y126.450Z-7.168
N11180G1Y127.348Z-7.370
N11190G1Y127.798Z-7.512
N11200G1Y128.472Z-7.801
N11210G1Y129.370Z-8.255
N11220G1Y130.044Z-8.649
N11230G1Y130.493Z-8.956
N11240G1Y130.718Z-9.194
N11250G1Y130.943Z-9.538
N11260G1Y131.167Z-9.649
N11270G1Y131.392Z-9.714
N11280G1Y132.066Z-10.016
N11290G1Y132.740Z-10.441
N11300G1Y133.189Z-10.794
N11310G1Y134.087Z-11.593
N11320G1Y134.312Z-11.848
N11330G1Y134.761Z-12.510
N11340G1Y138.805Z-12.953
N11350G1Y142.848Z-13.363
N11360G1Y146.891Z-13.837
N11370G1Y153.855Z-14.755
N11380G1X99.670Z-14.551
N11390G1X97.472Z-14.415
N11400G1Y148.688Z-13.758
N11410G1Y144.870Z-13.323
N11420G1Y143.747Z-13.226
N11430G1Y141.051Z-12.919
N11440G1Y138.805Z-12.704
N11450G1Y138.580Z-12.575
N11460G1Y137.906Z-11.870
N11470G1Y137.008Z-11.054
N11480G1Y136.783Z-10.488
N11490G1Y136.558Z-10.217
N11500G1Y136.334Z-10.007
N11510G1Y135.660Z-9.507
N11520G1Y134.537Z-8.810
N11530G1Y133.863Z-8.503
N11540G1Y133.638Z-8.412
N11550G1Y132.964Z-8.258
N11560G1Y132.290Z-8.225
N11570G1Y131.841Z-8.029
N11580G1Y131.616Z-7.869
N11590G1Y131.392Z-7.574
N11600G1Y130.943Z-7.193
N11610G1Y130.718Z-7.057
N11620G1Y129.819Z-6.696
N11630G1Y129.595Z-6.612
N11640G1Y128.921Z-6.462
N11650G1Y128.472Z-6.396
N11660G1Y128.022Z-6.369
N11670G1Y127.348Z-6.422
N11680G1Y126.225Z-6.057
N11690G1Y125.327Z-5.819
N11700G1Y125.102Z-5.768
N11710G1Y124.878Z-5.742
N11720G1Y124.653Z-5.693
N11730G1Y124.204Z-5.676
N11740G1Y123.979Z-5.684
N11750G1Y123.305Z-5.302
N11760G1Y122.856Z-5.145
N11770G1Y122.182Z-4.977
N11780G1Y121.059Z-4.800
N11790G1Y120.160Z-4.733
N11800G1Y119.486Z-4.777
N11810G1Y118.588Z-4.987
N11820G1Y118.363Z-5.087
N11830G1Y117.465Z-4.935
N11840G1Y116.791Z-4.850
N11850G1Y116.117Z-4.818
N11860G1Y115.892Z-4.836
N11870G1Y115.668Z-4.830
N11880G1Y115.443Z-4.701
N11890G1Y114.994Z-4.520
N11900G1Y114.320Z-4.401
N11910G1Y113.197Z-4.277
N11920G1Y112.298Z-4.241
N11930G1Y111.400Z-4.296
N11940G1Y110.501Z-4.524
N11950G1Y110.052Z-4.750
N11960G1Y108.704Z-4.652
N11970G1Y108.030Z-4.631
N11980G1Y107.581Z-4.664
N11990G1Y107.132Z-4.752
N12000G1Y106.682Z-4.867
N12010G1Y106.458Z-4.965
N12020G1Y106.233Z-4.984
N12030G1Y106.008Z-4.808
N12040G1Y105.784Z-4.687
N12050G1Y105.335Z-4.512
N12060G1Y104.885Z-4.430
N12070G1Y104.211Z-4.425
N12080G1Y103.538Z-4.483
N12090G1Y102.864Z-4.614
N12100G1Y102.190Z-4.815
N12110G1Y101.740Z-5.016
N12120G1Y101.516Z-5.140
N12130G1Y101.291Z-5.338
N12140G1Y100.842Z-5.382
N12150G1Y99.719Z-5.469
N12160G1Y99.045Z-5.556
N12170G1Y98.371Z-5.699
N12180G1Y97.922Z-5.854
N12190G1Y97.697Z-5.955
N12200G1Y97.472Z-6.092
N12210G1X97.692Z-5.983
N12220G1X98.352Z-5.778
N12230G1X98.571Z-5.750
N12240G1X99.451Z-5.752
N12250G1X100.110Z-5.674
N12260G1X100.330Z-5.559
N12270G1X100.549Z-5.392
N12280G1X100.769Z-5.279
N12290G1X100.989Z-5.207
N12300G1X101.429Z-5.139
N12310G1X101.868Z-5.123
N12320G1X102.308Z-5.174
N12330G1X102.528Z-5.217
N12340G1X102.845Y97.155Z-5.300
N12350G1Y98.502Z-5.268
N12360G1Y98.726Z-5.174
N12370G1Y98.951Z-5.043
N12380G1Y99.400Z-4.856
N12390G1Y99.849Z-4.702
N12400G1Y100.747Z-4.521
N12410G1Y101.645Z-4.444
N12420G1Y102.991Z-4.433
N12430G1Y104.114Z-4.551
N12440G1Y104.338Z-4.586
N12450G1Y104.787Z-4.706
N12460G1Y105.461Z-4.675
N12470G1Y106.808Z-4.722
N12480G1Y107.481Z-4.726
N12490G1Y107.930Z-4.510
N12500G1Y108.154Z-4.439
N12510G1Y108.828Z-4.335
N12520G1Y109.501Z-4.302
N12530G1Y110.175Z-4.329
N12540G1Y111.522Z-4.528
N12550G1Y112.644Z-4.735
N12560G1Y113.093Z-4.646
N12570G1Y113.766Z-4.664
N12580G1Y114.215Z-4.722
N12590G1Y114.440Z-4.790
N12600G1Y114.664Z-4.900
N12610G1Y114.889Z-5.053
N12620G1Y116.011Z-5.170
N12630G1Y116.236Z-5.161
N12640G1Y116.460Z-5.092
N12650G1Y116.685Z-5.058
N12660G1Y117.358Z-4.996
N12670G1Y117.582Z-4.994
N12680G1Y118.031Z-5.023
N12690G1Y118.929Z-5.170
N12700G1Y121.174Z-5.757
N12710G1Y121.399Z-5.826
N12720G1Y121.848Z-5.839
N12730G1Y122.297Z-5.897
N12740G1Y122.970Z-6.089
N12750G1Y123.194Z-6.166
N12760G1Y123.419Z-6.274
N12770G1Y123.868Z-6.566
N12780G1Y125.439Z-7.090
N12790G1Y125.664Z-7.120
N12800G1Y126.113Z-7.140
N12810G1Y126.562Z-7.224
N12820G1Y127.011Z-7.346
N12830G1Y127.908Z-7.681
N12840G1Y128.582Z-8.008
N12850G1Y129.480Z-8.492
N12860G1Y130.153Z-8.919
N12870G1Y130.602Z-9.313
N12880G1Y130.827Z-9.636
N12890G1Y131.276Z-9.787
N12900G1Y131.725Z-10.018
N12910G1Y132.398Z-10.448
N12920G1Y132.847Z-10.807
N12930G1Y133.745Z-11.609
N12940G1Y134.194Z-12.131
N12950G1Y134.418Z-12.485
N12960G1Y138.683Z-12.965
N12970G1Y141.826Z-13.266
N12980G1Y146.540Z-13.813
N12990G1Y154.172Z-14.820
N13000G1X99.659Z-14.591
N13010G1X97.155Z-14.432
N13020G1Y148.560Z-13.723
N13030G1Y144.969Z-13.318
N13040G1Y143.846Z-13.230
N13050G1Y140.928Z-12.889
N13060G1Y139.132Z-12.720
N13070G1Y138.908Z-12.659
N13080G1Y138.234Z-11.944
N13090G1Y137.337Z-11.142
N13100G1Y137.112Z-10.913
N13110G1Y136.888Z-10.372
N13120G1Y136.663Z-10.069
N13130G1Y136.214Z-9.704
N13140G1Y135.765Z-9.384
N13150G1Y134.867Z-8.842
N13160G1Y134.418Z-8.620
N13170G1Y133.969Z-8.448
N13180G1Y133.745Z-8.379
N13190G1Y133.296Z-8.278
N13200G1Y133.071Z-8.245
N13210G1Y132.623Z-8.242
N13220G1Y132.398Z-8.189
N13230G1Y131.725Z-7.893
N13240G1Y131.500Z-7.629
N13250G1Y131.276Z-7.399
N13260G1Y130.827Z-7.062
N13270G1Y130.153Z-6.767
N13280G1Y129.704Z-6.618
N13290G1Y129.031Z-6.493
N13300G1Y128.806Z-6.491
N13310G1Y128.582Z-6.457
N13320G1Y127.908Z-6.466
N13330G1Y127.684Z-6.413
N13340G1Y126.786Z-6.113
N13350G1Y125.888Z-5.856
N13360G1Y125.439Z-5.754
N13370G1Y124.766Z-5.684
N13380G1Y124.317Z-5.680
N13390G1Y124.092Z-5.705
N13400G1Y123.643Z-5.386
N13410G1Y123.194Z-5.174
N13420G1Y122.521Z-4.983
N13430G1Y121.174Z-4.795
N13440G1Y120.501Z-4.764
N13450G1Y120.052Z-4.783
N13460G1Y119.603Z-4.837
N13470G1Y119.154Z-4.967
N13480G1Y118.929Z-5.060
N13490G1Y118.705Z-5.074
N13500G1Y117.807Z-4.919
N13510G1Y116.909Z-4.820
N13520G1Y116.236Z-4.850
N13530G1Y116.011Z-4.867
N13540G1Y115.787Z-4.839
N13550G1Y115.562Z-4.684
N13560G1Y115.338Z-4.579
N13570G1Y114.889Z-4.442
N13580G1Y114.215Z-4.359
N13590G1Y113.317Z-4.267
N13600G1Y112.644Z-4.257
N13610G1Y111.971Z-4.306
N13620G1Y111.297Z-4.412
N13630G1Y111.073Z-4.488
N13640G1Y110.624Z-4.670
N13650G1Y110.399Z-4.724
N13660G1Y109.277Z-4.634
N13670G1Y108.379Z-4.618
N13680G1Y107.930Z-4.636
N13690G1Y107.257Z-4.766
N13700G1Y107.032Z-4.838
N13710G1Y106.583Z-5.064
N13720G1Y106.359Z-5.074
N13730G1Y106.134Z-4.897
N13740G1Y105.910Z-4.748
N13750G1Y105.461Z-4.564
N13760G1Y105.236Z-4.501
N13770G1Y105.012Z-4.473
N13780G1Y104.338Z-4.472
N13790G1Y103.889Z-4.515
N13800G1Y103.216Z-4.640
N13810G1Y102.542Z-4.873
N13820G1Y102.318Z-5.001
N13830G1Y102.094Z-5.100
N13840G1Y101.869Z-5.266
N13850G1Y101.645Z-5.322
N13860G1Y100.298Z-5.396
N13870G1Y99.175Z-5.561
N13880G1Y98.726Z-5.676
N13890G1Y98.277Z-5.835
N13900G1Y98.053Z-5.959
N13910G1Y97.828Z-6.054
N13920G1Y97.379Z-6.316
N13930G1Y97.155Z-6.253
N13940G1X97.383Z-6.212
N13950G1X97.610Z-6.192
N13960G1X98.065Z-5.963
N13970G1X98.293Z-5.885
N13980G1X98.748Z-5.809
N13990G1X99.431Z-5.809
N14000G1X100.341Z-5.705
N14010G1X100.797Z-5.427
N14020G1X101.024Z-5.329
N14030G1X101.252Z-5.259
N14040G1X101.707Z-5.190
N14050G1X102.162Z-5.194
N14060G1X102.617Z-5.252
N14070G1X102.845Z-5.300
N14080G1X103.162Y96.838Z-5.384
N14090G1Y97.959Z-5.329
N14100G1Y98.183Z-5.281
N14110G1Y98.632Z-5.045
N14120G1Y99.081Z-4.856
N14130G1Y99.754Z-4.677
N14140G1Y100.427Z-4.559
N14150G1Y101.548Z-4.491
N14160G1Y102.670Z-4.511
N14170G1Y104.016Z-4.623
N14180G1Y104.689Z-4.712
N14190G1Y107.157Z-4.758
N14200G1Y107.830Z-4.484
N14210G1Y108.278Z-4.387
N14220G1Y108.727Z-4.344
N14230G1Y109.400Z-4.349
N14240G1Y110.073Z-4.399
N14250G1Y111.868Z-4.720
N14260G1Y112.092Z-4.743
N14270G1Y112.540Z-4.620
N14280G1Y113.213Z-4.566
N14290G1Y113.886Z-4.602
N14300G1Y114.111Z-4.628
N14310G1Y114.335Z-4.676
N14320G1Y114.559Z-4.760
N14330G1Y114.784Z-4.888
N14340G1Y115.008Z-5.053
N14350G1Y115.232Z-5.116
N14360G1Y115.905Z-5.190
N14370G1Y116.354Z-5.072
N14380G1Y116.803Z-5.025
N14390G1Y117.251Z-5.023
N14400G1Y117.924Z-5.093
N14410G1Y118.597Z-5.214
N14420G1Y119.719Z-5.500
N14430G1Y120.841Z-5.798
N14440G1Y121.065Z-5.812
N14450G1Y121.514Z-5.788
N14460G1Y122.187Z-5.850
N14470G1Y122.860Z-6.023
N14480G1Y123.308Z-6.185
N14490G1Y123.533Z-6.313
N14500G1Y123.981Z-6.689
N14510G1Y125.103Z-7.074
N14520G1Y125.552Z-7.097
N14530G1Y125.776Z-7.137
N14540G1Y126.000Z-7.154
N14550G1Y126.673Z-7.320
N14560G1Y127.571Z-7.684
N14570G1Y128.243Z-8.004
N14580G1Y129.141Z-8.493
N14590G1Y129.814Z-8.923
N14600G1Y130.262Z-9.258
N14610G1Y130.487Z-9.523
N14620G1Y130.711Z-9.710
N14630G1Y131.384Z-10.006
N14640G1Y132.057Z-10.465
N14650G1Y132.730Z-11.001
N14660G1Y133.179Z-11.403
N14670G1Y133.627Z-11.868
N14680G1Y134.076Z-12.414
N14690G1Y134.300Z-12.501
N14700G1Y138.787Z-13.006
N14710G1Y141.255Z-13.227
N14720G1Y146.414Z-13.820
N14730G1Y154.490Z-14.888
N14740G1X99.548Z-14.627
N14750G1X96.838Z-14.453
N14760G1Y148.657Z-13.723
N14770G1Y145.292Z-13.341
N14780G1Y143.946Z-13.236
N14790G1Y141.030Z-12.895
N14800G1Y139.236Z-12.723
N14810G1Y139.011Z-12.527
N14820G1Y138.338Z-11.805
N14830G1Y137.217Z-10.834
N14840G1Y136.992Z-10.292
N14850G1Y136.768Z-9.987
N14860G1Y136.544Z-9.764
N14870G1Y135.871Z-9.279
N14880G1Y135.198Z-8.868
N14890G1Y134.749Z-8.653
N14900G1Y134.525Z-8.563
N14910G1Y134.076Z-8.422
N14920G1Y133.627Z-8.329
N14930G1Y133.403Z-8.312
N14940G1Y133.179Z-8.275
N14950G1Y132.730Z-8.242
N14960G1Y131.608Z-7.752
N14970G1Y131.384Z-7.524
N14980G1Y130.935Z-7.152
N14990G1Y130.487Z-6.899
N15000G1Y130.038Z-6.713
N15010G1Y129.589Z-6.615
N15020G1Y128.916Z-6.553
N15030G1Y128.468Z-6.559
N15040G1Y127.122Z-6.095
N15050G1Y126.449Z-5.898
N15060G1Y125.776Z-5.739
N15070G1Y125.327Z-5.688
N15080G1Y124.879Z-5.667
N15090G1Y124.206Z-5.743
N15100G1Y123.757Z-5.384
N15110G1Y123.533Z-5.255
N15120G1Y123.084Z-5.083
N15130G1Y122.860Z-5.013
N15140G1Y122.411Z-4.921
N15150G1Y121.514Z-4.823
N15160G1Y120.841Z-4.803
N15170G1Y120.168Z-4.841
N15180G1Y119.495Z-4.987
N15190G1Y119.270Z-5.084
N15200G1Y117.924Z-4.870
N15210G1Y117.476Z-4.828
N15220G1Y117.027Z-4.812
N15230G1Y116.578Z-4.852
N15240G1Y116.130Z-4.927
N15250G1Y115.905Z-4.904
N15260G1Y115.681Z-4.717
N15270G1Y115.457Z-4.589
N15280G1Y115.232Z-4.504
N15290G1Y114.784Z-4.395
N15300G1Y113.662Z-4.295
N15310G1Y112.989Z-4.281
N15320G1Y112.540Z-4.314
N15330G1Y112.092Z-4.367
N15340G1Y111.419Z-4.549
N15350G1Y111.195Z-4.627
N15360G1Y110.970Z-4.729
N15370G1Y109.849Z-4.618
N15380G1Y108.951Z-4.592
N15390G1Y108.278Z-4.631
N15400G1Y108.054Z-4.654
N15410G1Y107.381Z-4.811
N15420G1Y106.708Z-5.100
N15430G1Y106.259Z-5.100
N15440G1Y106.035Z-4.903
N15450G1Y105.811Z-4.769
N15460G1Y105.362Z-4.599
N15470G1Y105.138Z-4.550
N15480G1Y104.689Z-4.528
N15490G1Y104.016Z-4.598
N15500G1Y103.343Z-4.741
N15510G1Y102.670Z-5.067
N15520G1Y102.446Z-5.233
N15530G1Y102.221Z-5.274
N15540G1Y100.875Z-5.345
N15550G1Y100.202Z-5.410
N15560G1Y99.305Z-5.579
N15570G1Y98.856Z-5.729
N15580G1Y98.408Z-5.923
N15590G1Y98.183Z-6.076
N15600G1Y97.959Z-6.262
N15610G1Y97.735Z-6.338
N15620G1Y97.286Z-6.422
N15630G1Y96.838Z-6.254
N15640G1X97.063Z-6.160
N15650G1X97.289Z-6.105
N15660G1X97.741Z-6.056
N15670G1X97.967Z-6.047
N15680G1X98.193Z-6.062
N15690G1X98.871Z-5.883
N15700G1X99.322Z-5.850
N15710G1X99.548Z-5.853
N15720G1X100.678Z-5.710
N15730G1X101.129Z-5.464
N15740G1X101.355Z-5.370
N15750G1X101.807Z-5.265
N15760G1X102.259Z-5.248
N15770G1X102.711Z-5.288
N15780G1X103.162Z-5.384
N15790G1X103.480Y96.520Z-5.455
N15800G1Y97.417Z-5.379
N15810G1Y97.641Z-5.365
N15820G1Y97.865Z-5.305
N15830G1Y98.089Z-5.149
N15840G1Y98.313Z-5.035
N15850G1Y98.538Z-4.964
N15860G1Y98.762Z-4.871
N15870G1Y98.986Z-4.804
N15880G1Y99.210Z-4.766
N15890G1Y99.434Z-4.702
N15900G1Y100.331Z-4.587
N15910G1Y101.452Z-4.560
N15920G1Y103.021Z-4.626
N15930G1Y103.245Z-4.549
N15940G1Y103.470Z-4.512
N15950G1Y104.142Z-4.493
N15960G1Y104.366Z-4.531
N15970G1Y105.039Z-4.744
N15980G1Y106.608Z-4.778
N15990G1Y106.832Z-4.763
N16000G1Y107.729Z-4.477
N16010G1Y108.177Z-4.411
N16020G1Y108.850Z-4.385
N16030G1Y109.747Z-4.465
N16040G1Y111.316Z-4.736
N16050G1Y111.540Z-4.763
N16060G1Y111.764Z-4.692
N16070G1Y112.437Z-4.570
N16080G1Y112.885Z-4.540
N16090G1Y113.558Z-4.569
N16100G1Y114.006Z-4.608
N16110G1Y114.230Z-4.640
N16120G1Y114.455Z-4.707
N16130G1Y114.903Z-4.921
N16140G1Y115.127Z-5.076
N16150G1Y115.351Z-5.151
N16160G1Y115.576Z-5.176
N16170G1Y115.800Z-5.171
N16180G1Y116.024Z-5.106
N16190G1Y116.472Z-5.051
N16200G1Y117.145Z-5.069
N16210G1Y118.266Z-5.253
N16220G1Y119.387Z-5.531
N16230G1Y120.283Z-5.773
N16240G1Y121.404Z-5.764
N16250G1Y122.077Z-5.846
N16260G1Y122.974Z-6.100
N16270G1Y123.198Z-6.178
N16280G1Y123.422Z-6.286
N16290G1Y123.870Z-6.582
N16300G1Y124.094Z-6.809
N16310G1Y124.767Z-7.055
N16320G1Y124.991Z-7.085
N16330G1Y125.215Z-7.085
N16340G1Y125.888Z-7.196
N16350G1Y126.560Z-7.400
N16360G1Y127.009Z-7.581
N16370G1Y127.906Z-8.028
N16380G1Y129.251Z-8.773
N16390G1Y129.923Z-9.230
N16400G1Y130.147Z-9.424
N16410G1Y130.372Z-9.672
N16420G1Y130.820Z-9.894
N16430G1Y131.268Z-10.149
N16440G1Y131.941Z-10.651
N16450G1Y132.613Z-11.207
N16460G1Y133.062Z-11.645
N16470G1Y133.510Z-12.132
N16480G1Y133.734Z-12.410
N16490G1Y133.958Z-12.483
N16500G1Y138.218Z-12.968
N16510G1Y141.581Z-13.278
N16520G1Y146.288Z-13.828
N16530G1Y154.359Z-14.894
N16540G1Y154.583Z-13.810
N16550G1Y154.807Z-12.930
N16560G1X103.031Z-13.064
N16570G1X102.357Z-13.341
N16580G1X102.133Z-13.588
N16590G1X101.908Z-13.990
N16600G1X101.684Z-14.774
N16610G1X101.459Z-14.798
N16620G1X96.520Z-14.471
N16630G1Y148.530Z-13.692
N16640G1Y145.392Z-13.339
N16650G1Y143.822Z-13.218
N16660G1Y141.356Z-12.917
N16670G1Y139.563Z-12.749
N16680G1Y139.339Z-12.603
N16690G1Y138.666Z-11.869
N16700G1Y137.545Z-10.920
N16710G1Y137.321Z-10.690
N16720G1Y137.097Z-10.157
N16730G1Y136.873Z-9.884
N16740G1Y136.649Z-9.672
N16750G1Y135.976Z-9.174
N16760G1Y135.528Z-8.919
N16770G1Y134.855Z-8.590
N16780G1Y134.631Z-8.522
N16790G1Y134.183Z-8.416
N16800G1Y133.734Z-8.351
N16810G1Y133.286Z-8.338
N16820G1Y133.062Z-8.278
N16830G1Y132.165Z-7.868
N16840G1Y131.268Z-7.525
N16850G1Y130.820Z-7.158
N16860G1Y130.596Z-6.998
N16870G1Y130.147Z-6.789
N16880G1Y129.923Z-6.721
N16890G1Y129.699Z-6.688
N16900G1Y129.475Z-6.687
N16910G1Y129.026Z-6.619
N16920G1Y127.233Z-6.007
N16930G1Y126.560Z-5.829
N16940G1Y126.112Z-5.730
N16950G1Y125.664Z-5.672
N16960G1Y124.991Z-5.668
N16970G1Y124.319Z-5.773
N16980G1Y124.094Z-5.629
N16990G1Y123.870Z-5.414
N17000G1Y123.646Z-5.259
N17010G1Y123.422Z-5.153
N17020G1Y122.974Z-5.015
N17030G1Y122.301Z-4.900
N17040G1Y121.853Z-4.853
N17050G1Y120.956Z-4.855
N17060G1Y120.283Z-4.946
N17070G1Y119.835Z-5.075
N17080G1Y119.611Z-5.081
N17090G1Y118.714Z-4.918
N17100G1Y117.817Z-4.811
N17110G1Y117.145Z-4.820
N17120G1Y116.696Z-4.886
N17130G1Y116.472Z-4.943
N17140G1Y116.248Z-4.974
N17150G1Y116.024Z-4.961
N17160G1Y115.576Z-4.627
N17170G1Y115.351Z-4.521
N17180G1Y114.903Z-4.397
N17190G1Y114.679Z-4.365
N17200G1Y113.782Z-4.314
N17210G1Y113.109Z-4.324
N17220G1Y112.437Z-4.420
N17230G1Y112.213Z-4.491
N17240G1Y111.989Z-4.529
N17250G1Y111.764Z-4.607
N17260G1Y111.540Z-4.726
N17270G1Y110.195Z-4.587
N17280G1Y109.298Z-4.572
N17290G1Y108.850Z-4.588
N17300G1Y108.177Z-4.687
N17310G1Y107.729Z-4.830
N17320G1Y107.281Z-4.997
N17330G1Y107.057Z-5.122
N17340G1Y106.160Z-5.134
N17350G1Y105.711Z-4.875
N17360G1Y105.263Z-4.715
N17370G1Y105.039Z-4.678
N17380G1Y104.591Z-4.671
N17390G1Y103.918Z-4.759
N17400G1Y103.245Z-5.005
N17410G1Y103.021Z-5.154
N17420G1Y102.797Z-5.236
N17430G1Y101.228Z-5.295
N17440G1Y100.331Z-5.407
N17450G1Y99.659Z-5.554
N17460G1Y99.210Z-5.703
N17470G1Y98.762Z-5.913
N17480G1Y98.538Z-6.038
N17490G1Y98.313Z-6.232
N17500G1Y98.089Z-6.366
N17510G1Y97.193Z-6.538
N17520G1Y96.968Z-6.466
N17530G1Y96.520Z-6.397
N17540G1X96.745Z-6.241
N17550G1X96.969Z-6.134
N17560G1X97.194Z-6.067
N17570G1X97.643Z-6.004
N17580G1X98.092Z-5.995
N17590G1X98.541Z-6.040
N17600G1X98.990Z-5.936
N17610G1X99.214Z-5.903
N17620G1X99.663Z-5.898
N17630G1X101.010Z-5.720
N17640G1X101.235Z-5.630
N17650G1X101.459Z-5.505
N17660G1X101.908Z-5.369
N17670G1X102.357Z-5.309
N17680G1X102.582Z-5.309
N17690G1X103.031Z-5.370
N17700G1X103.480Z-5.455
N17710G1X103.798Y96.202Z-5.486
N17720G1Y97.323Z-5.397
N17730G1Y97.547Z-5.360
N17740G1Y97.771Z-5.205
N17750G1Y97.995Z-5.074
N17760G1Y98.443Z-4.904
N17770G1Y99.115Z-4.746
N17780G1Y100.011Z-4.650
N17790G1Y100.907Z-4.633
N17800G1Y102.252Z-4.675
N17810G1Y102.476Z-4.651
N17820G1Y102.924Z-4.487
N17830G1Y103.372Z-4.386
N17840G1Y104.044Z-4.353
N17850G1Y104.268Z-4.372
N17860G1Y104.716Z-4.497
N17870G1Y104.940Z-4.589
N17880G1Y105.164Z-4.728
N17890G1Y105.388Z-4.768
N17900G1Y106.284Z-4.794
N17910G1Y106.508Z-4.789
N17920G1Y106.956Z-4.633
N17930G1Y107.629Z-4.490
N17940G1Y108.077Z-4.452
N17950G1Y108.525Z-4.452
N17960G1Y109.421Z-4.536
N17970G1Y110.989Z-4.794
N17980G1Y111.885Z-4.586
N17990G1Y112.557Z-4.531
N18000G1Y113.454Z-4.576
N18010G1Y113.902Z-4.615
N18020G1Y114.350Z-4.704
N18030G1Y114.798Z-4.877
N18040G1Y115.022Z-5.008
N18050G1Y115.246Z-5.169
N18060G1Y115.470Z-5.193
N18070G1Y115.918Z-5.114
N18080G1Y116.366Z-5.081
N18090G1Y117.038Z-5.130
N18100G1Y117.934Z-5.302
N18110G1Y119.279Z-5.631
N18120G1Y119.727Z-5.752
N18130G1Y120.175Z-5.729
N18140G1Y120.399Z-5.713
N18150G1Y120.623Z-5.730
N18160G1Y120.847Z-5.722
N18170G1Y121.519Z-5.787
N18180G1Y122.191Z-5.934
N18190G1Y122.863Z-6.142
N18200G1Y123.311Z-6.316
N18210G1Y123.759Z-6.567
N18220G1Y124.207Z-6.950
N18230G1Y124.656Z-7.100
N18240G1Y125.104Z-7.115
N18250G1Y125.552Z-7.205
N18260G1Y126.000Z-7.336
N18270G1Y126.672Z-7.601
N18280G1Y127.120Z-7.814
N18290G1Y128.912Z-8.788
N18300G1Y129.584Z-9.227
N18310G1Y129.808Z-9.392
N18320G1Y130.032Z-9.596
N18330G1Y130.257Z-9.761
N18340G1Y130.481Z-9.870
N18350G1Y131.153Z-10.325
N18360G1Y131.601Z-10.657
N18370G1Y132.273Z-11.222
N18380G1Y132.945Z-11.901
N18390G1Y133.169Z-12.140
N18400G1Y133.393Z-12.414
N18410G1Y133.617Z-12.469
N18420G1Y138.322Z-13.005
N18430G1Y141.683Z-13.312
N18440G1Y146.387Z-13.868
N18450G1Y154.453Z-14.931
N18460G1Y154.677Z-13.227
N18470G1Y155.125Z-12.113
N18480G1X102.904Z-12.376
N18490G1X101.564Z-12.954
N18500G1X101.117Z-13.169
N18510G1X100.670Z-13.596
N18520G1X100.223Z-14.751
N18530G1X96.202Z-14.490
N18540G1Y148.628Z-13.688
N18550G1Y145.715Z-13.357
N18560G1Y143.923Z-13.221
N18570G1Y141.683Z-12.938
N18580G1Y139.890Z-12.775
N18590G1Y139.666Z-12.699
N18600G1Y138.994Z-11.954
N18610G1Y138.546Z-11.530
N18620G1Y137.874Z-10.971
N18630G1Y137.426Z-10.618
N18640G1Y137.202Z-10.110
N18650G1Y136.978Z-9.797
N18660G1Y136.530Z-9.415
N18670G1Y136.082Z-9.107
N18680G1Y135.857Z-8.973
N18690G1Y135.185Z-8.658
N18700G1Y134.961Z-8.573
N18710G1Y134.513Z-8.466
N18720G1Y133.841Z-8.390
N18730G1Y133.617Z-8.403
N18740G1Y132.273Z-7.804
N18750G1Y130.705Z-7.200
N18760G1Y130.481Z-7.055
N18770G1Y130.032Z-6.861
N18780G1Y129.808Z-6.799
N18790G1Y129.136Z-6.524
N18800G1Y127.344Z-5.918
N18810G1Y126.672Z-5.764
N18820G1Y126.224Z-5.689
N18830G1Y125.552Z-5.655
N18840G1Y125.104Z-5.686
N18850G1Y124.656Z-5.787
N18860G1Y124.431Z-5.774
N18870G1Y124.207Z-5.738
N18880G1Y123.983Z-5.509
N18890G1Y123.759Z-5.323
N18900G1Y123.535Z-5.195
N18910G1Y123.311Z-5.110
N18920G1Y122.639Z-4.958
N18930G1Y121.967Z-4.896
N18940G1Y121.295Z-4.918
N18950G1Y121.071Z-4.957
N18960G1Y120.847Z-4.974
N18970G1Y120.399Z-5.090
N18980G1Y120.175Z-5.116
N18990G1Y119.279Z-4.932
N19000G1Y118.606Z-4.842
N19010G1Y117.934Z-4.793
N19020G1Y117.262Z-4.845
N19030G1Y116.814Z-4.938
N19040G1Y116.590Z-5.025
N19050G1Y116.142Z-4.996
N19060G1Y115.918Z-4.905
N19070G1Y115.694Z-4.714
N19080G1Y115.470Z-4.583
N19090G1Y115.246Z-4.496
N19100G1Y114.798Z-4.388
N19110G1Y114.126Z-4.358
N19120G1Y113.230Z-4.393
N19130G1Y112.557Z-4.553
N19140G1Y112.333Z-4.621
N19150G1Y112.109Z-4.724
N19160G1Y110.541Z-4.561
N19170G1Y109.869Z-4.541
N19180G1Y109.197Z-4.568
N19190G1Y108.973Z-4.592
N19200G1Y108.301Z-4.736
N19210G1Y107.853Z-4.916
N19220G1Y107.629Z-5.058
N19230G1Y107.404Z-5.148
N19240G1Y105.836Z-5.180
N19250G1Y105.164Z-4.938
N19260G1Y104.716Z-4.906
N19270G1Y104.044Z-4.976
N19280G1Y103.820Z-5.042
N19290G1Y103.596Z-5.166
N19300G1Y103.372Z-5.197
N19310G1Y101.355Z-5.274
N19320G1Y100.683Z-5.371
N19330G1Y100.011Z-5.532
N19340G1Y99.339Z-5.780
N19350G1Y99.115Z-5.920
N19360G1Y98.667Z-6.240
N19370G1Y98.443Z-6.391
N19380G1Y97.099Z-6.660
N19390G1Y96.875Z-6.690
N19400G1Y96.427Z-6.650
N19410G1Y96.202Z-6.668
N19420G1X96.649Z-6.286
N19430G1X96.873Z-6.161
N19440G1X97.096Z-6.079
N19450G1X97.543Z-5.995
N19460G1X97.990Z-5.986
N19470G1X98.660Z-6.016
N19480G1X98.883Z-6.039
N19490G1X99.106Z-6.020
N19500G1X99.330Z-5.974
N19510G1X100.000Z-5.916
N19520G1X100.894Z-5.774
N19530G1X101.564Z-5.680
N19540G1X102.010Z-5.483
N19550G1X102.234Z-5.428
N19560G1X102.681Z-5.388
N19570G1X103.127Z-5.416
N19580G1X103.351Z-5.463
N19590G1X103.574Z-5.487
N19600G1X103.798Z-5.486
N19610G1X104.115Y95.885Z-5.526
N19620G1Y97.005Z-5.422
N19630G1Y97.452Z-5.221
N19640G1Y98.124Z-4.953
N19650G1Y98.348Z-4.893
N19660G1Y98.796Z-4.801
N19670G1Y99.691Z-4.708
N19680G1Y101.706Z-4.757
N19690G1Y101.930Z-4.721
N19700G1Y102.378Z-4.516
N19710G1Y103.050Z-4.338
N19720G1Y103.498Z-4.296
N19730G1Y103.945Z-4.288
N19740G1Y104.169Z-4.294
N19750G1Y104.617Z-4.370
N19760G1Y104.841Z-4.443
N19770G1Y105.065Z-4.557
N19780G1Y105.289Z-4.725
N19790G1Y105.513Z-4.795
N19800G1Y106.184Z-4.811
N19810G1Y106.408Z-4.756
N19820G1Y106.632Z-4.670
N19830G1Y106.856Z-4.607
N19840G1Y107.528Z-4.520
N19850G1Y107.976Z-4.511
N19860G1Y108.871Z-4.575
N19870G1Y110.215Z-4.789
N19880G1Y110.439Z-4.828
N19890G1Y110.662Z-4.780
N19900G1Y111.110Z-4.645
N19910G1Y111.782Z-4.562
N19920G1Y112.454Z-4.542
N19930G1Y112.901Z-4.566
N19940G1Y113.797Z-4.661
N19950G1Y114.245Z-4.736
N19960G1Y114.693Z-4.881
N19970G1Y114.917Z-4.992
N19980G1Y115.140Z-5.154
N19990G1Y115.364Z-5.194
N20000G1Y116.036Z-5.131
N20010G1Y116.484Z-5.144
N20020G1Y117.379Z-5.294
N20030G1Y118.723Z-5.601
N20040G1Y119.171Z-5.719
N20050G1Y119.395Z-5.754
N20060G1Y119.842Z-5.691
N20070G1Y120.514Z-5.701
N20080G1Y121.410Z-5.820
N20090G1Y121.634Z-5.864
N20100G1Y122.529Z-6.145
N20110G1Y123.425Z-6.496
N20120G1Y123.649Z-6.610
N20130G1Y123.873Z-6.779
N20140G1Y124.096Z-7.008
N20150G1Y124.320Z-7.086
N20160G1Y124.544Z-7.122
N20170G1Y124.768Z-7.134
N20180G1Y125.216Z-7.214
N20190G1Y125.664Z-7.350
N20200G1Y126.559Z-7.721
N20210G1Y128.351Z-8.686
N20220G1Y128.798Z-8.942
N20230G1Y129.470Z-9.381
N20240G1Y129.918Z-9.734
N20250G1Y130.366Z-10.004
N20260G1Y131.261Z-10.669
N20270G1Y131.933Z-11.239
N20280G1Y132.381Z-11.680
N20290G1Y132.829Z-12.148
N20300G1Y133.052Z-12.409
N20310G1Y133.724Z-12.499
N20320G1Y137.978Z-12.987
N20330G1Y139.098Z-13.104
N20340G1Y141.113Z-13.274
N20350G1Y146.039Z-13.854
N20360G1Y154.323Z-14.943
N20370G1Y154.547Z-13.380
N20380G1Y155.219Z-11.781
N20390G1Y155.442Z-11.352
N20400G1X103.670Z-11.476
N20410G1X103.225Z-11.541
N20420G1X103.003Z-11.597
N20430G1X99.889Z-12.935
N20440G1X98.777Z-13.484
N20450G1X98.554Z-13.655
N20460G1X98.332Z-14.203
N20470G1X98.109Z-14.655
N20480G1X95.885Z-14.511
N20490G1Y148.725Z-13.689
N20500G1Y145.815Z-13.360
N20510G1Y144.024Z-13.234
N20520G1Y141.785Z-12.943
N20530G1Y140.217Z-12.806
N20540G1Y139.993Z-12.762
N20550G1Y139.322Z-12.018
N20560G1Y138.874Z-11.600
N20570G1Y137.978Z-10.861
N20580G1Y137.530Z-10.516
N20590G1Y137.083Z-9.822
N20600G1Y136.635Z-9.388
N20610G1Y136.187Z-9.057
N20620G1Y135.515Z-8.745
N20630G1Y135.291Z-8.680
N20640G1Y135.068Z-8.592
N20650G1Y134.844Z-8.527
N20660G1Y134.396Z-8.463
N20670G1Y133.948Z-8.441
N20680G1Y132.381Z-7.713
N20690G1Y131.709Z-7.439
N20700G1Y130.813Z-7.138
N20710G1Y130.590Z-6.995
N20720G1Y130.142Z-6.784
N20730G1Y129.470Z-6.503
N20740G1Y127.679Z-5.914
N20750G1Y127.231Z-5.792
N20760G1Y126.335Z-5.664
N20770G1Y125.888Z-5.661
N20780G1Y125.664Z-5.688
N20790G1Y125.440Z-5.688
N20800G1Y125.216Z-5.721
N20810G1Y124.992Z-5.784
N20820G1Y124.768Z-5.813
N20830G1Y124.320Z-5.745
N20840G1Y124.096Z-5.682
N20850G1Y123.873Z-5.447
N20860G1Y123.649Z-5.288
N20870G1Y123.425Z-5.179
N20880G1Y122.977Z-5.059
N20890G1Y122.305Z-4.969
N20900G1Y121.857Z-4.976
N20910G1Y121.410Z-5.028
N20920G1Y121.186Z-5.070
N20930G1Y120.962Z-5.138
N20940G1Y120.738Z-5.145
N20950G1Y119.618Z-4.912
N20960G1Y118.947Z-4.827
N20970G1Y118.275Z-4.793
N20980G1Y118.051Z-4.791
N20990G1Y117.379Z-4.890
N21000G1Y116.708Z-5.058
N21010G1Y116.036Z-5.008
N21020G1Y115.812Z-4.908
N21030G1Y115.588Z-4.735
N21040G1Y115.364Z-4.619
N21050G1Y114.917Z-4.489
N21060G1Y114.693Z-4.453
N21070G1Y113.797Z-4.442
N21080G1Y113.125Z-4.544
N21090G1Y112.901Z-4.617
N21100G1Y112.678Z-4.719
N21110G1Y110.662Z-4.518
N21120G1Y110.215Z-4.513
N21130G1Y109.767Z-4.532
N21140G1Y109.095Z-4.615
N21150G1Y108.423Z-4.810
N21160G1Y107.976Z-5.026
N21170G1Y107.752Z-5.173
N21180G1Y105.737Z-5.219
N21190G1Y105.513Z-5.194
N21200G1Y103.722Z-5.159
N21210G1Y101.930Z-5.235
N21220G1Y101.259Z-5.320
N21230G1Y100.811Z-5.403
N21240G1Y100.139Z-5.584
N21250G1Y99.467Z-5.900
N21260G1Y99.243Z-6.065
N21270G1Y99.020Z-6.280
N21280G1Y98.796Z-6.401
N21290G1Y96.781Z-6.839
N21300G1Y96.333Z-6.963
N21310G1Y96.109Z-7.069
N21320G1Y95.885Z-7.152
N21330G1X96.107Z-6.832
N21340G1X96.552Z-6.392
N21350G1X96.775Z-6.242
N21360G1X96.997Z-6.140
N21370G1X97.442Z-6.018
N21380G1X97.664Z-5.989
N21390G1X98.999Z-6.019
N21400G1X99.221Z-6.041
N21410G1X99.444Z-6.031
N21420G1X99.666Z-5.999
N21430G1X99.889Z-5.988
N21440G1X101.001Z-5.805
N21450G1X101.891Z-5.695
N21460G1X102.336Z-5.533
N21470G1X102.780Z-5.453
N21480G1X103.225Z-5.465
N21490G1X103.670Z-5.532
N21500G1X104.115Z-5.526
N21510G1X104.433Y95.567Z-5.559
N21520G1Y96.690Z-5.455
N21530G1Y96.915Z-5.388
N21540G1Y97.364Z-5.159
N21550G1Y98.038Z-4.953
N21560G1Y98.712Z-4.847
N21570G1Y99.610Z-4.789
N21580G1Y101.182Z-4.827
N21590G1Y101.407Z-4.799
N21600G1Y101.632Z-4.675
N21610G1Y102.305Z-4.437
N21620G1Y102.530Z-4.373
N21630G1Y103.204Z-4.272
N21640G1Y103.878Z-4.240
N21650G1Y104.102Z-4.247
N21660G1Y104.551Z-4.312
N21670G1Y104.776Z-4.372
N21680G1Y105.001Z-4.471
N21690G1Y105.450Z-4.770
N21700G1Y105.674Z-4.828
N21710G1Y105.899Z-4.836
N21720G1Y106.124Z-4.821
N21730G1Y106.573Z-4.661
N21740G1Y107.022Z-4.586
N21750G1Y107.696Z-4.568
N21760G1Y108.594Z-4.658
N21770G1Y109.942Z-4.862
N21780G1Y110.166Z-4.828
N21790G1Y110.616Z-4.697
N21800G1Y111.065Z-4.610
N21810G1Y111.289Z-4.576
N21820G1Y112.412Z-4.567
N21830G1Y113.985Z-4.754
N21840G1Y114.434Z-4.868
N21850G1Y114.883Z-5.064
N21860G1Y115.108Z-5.204
N21870G1Y115.781Z-5.171
N21880G1Y116.231Z-5.197
N21890G1Y117.129Z-5.359
N21900G1Y118.926Z-5.762
N21910G1Y119.600Z-5.681
N21920G1Y120.273Z-5.692
N21930G1Y121.396Z-5.891
N21940G1Y122.070Z-6.092
N21950G1Y123.193Z-6.535
N21960G1Y123.642Z-6.748
N21970G1Y124.092Z-7.095
N21980G1Y124.316Z-7.158
N21990G1Y124.541Z-7.170
N22000G1Y124.765Z-7.203
N22010G1Y125.439Z-7.408
N22020G1Y126.562Z-7.916
N22030G1Y128.359Z-8.903
N22040G1Y129.482Z-9.619
N22050G1Y130.605Z-10.436
N22060G1Y131.279Z-10.991
N22070G1Y131.952Z-11.597
N22080G1Y132.626Z-12.327
N22090G1Y132.851Z-12.422
N22100G1Y137.792Z-12.986
N22110G1Y138.915Z-13.114
N22120G1Y140.936Z-13.276
N22130G1Y145.878Z-13.858
N22140G1Y154.412Z-14.977
N22150G1Y154.637Z-13.081
N22160G1Y155.311Z-11.492
N22170G1Y155.760Z-10.831
N22180G1X103.103Z-11.021
N22190G1X102.881Z-11.077
N22200G1X102.438Z-11.243
N22210G1X101.551Z-11.468
N22220G1X101.108Z-11.639
N22230G1X98.892Z-12.601
N22240G1X97.340Z-13.373
N22250G1X97.119Z-13.610
N22260G1X96.897Z-13.951
N22270G1X96.676Z-14.599
N22280G1X95.567Z-14.527
N22290G1Y148.797Z-13.678
N22300G1Y146.102Z-13.371
N22310G1Y144.305Z-13.236
N22320G1Y142.059Z-12.956
N22330G1Y140.487Z-12.822
N22340G1Y140.263Z-12.780
N22350G1Y139.589Z-12.034
N22360G1Y139.140Z-11.607
N22370G1Y138.241Z-10.855
N22380G1Y137.343Z-10.202
N22390G1Y137.118Z-9.871
N22400G1Y136.894Z-9.596
N22410G1Y136.669Z-9.361
N22420G1Y136.220Z-9.027
N22430G1Y135.771Z-8.823
N22440G1Y135.097Z-8.630
N22450G1Y134.423Z-8.514
N22460G1Y134.198Z-8.421
N22470G1Y133.300Z-7.968
N22480G1Y132.626Z-7.665
N22490G1Y131.952Z-7.397
N22500G1Y131.728Z-7.325
N22510G1Y131.279Z-7.206
N22520G1Y131.054Z-7.166
N22530G1Y130.829Z-6.983
N22540G1Y130.156Z-6.640
N22550G1Y129.482Z-6.377
N22560G1Y128.134Z-5.946
N22570G1Y127.460Z-5.776
N22580G1Y126.787Z-5.678
N22590G1Y126.113Z-5.667
N22600G1Y125.215Z-5.821
N22610G1Y124.990Z-5.833
N22620G1Y124.092Z-5.702
N22630G1Y123.867Z-5.572
N22640G1Y123.642Z-5.397
N22650G1Y123.418Z-5.281
N22660G1Y122.969Z-5.157
N22670G1Y122.295Z-5.066
N22680G1Y122.070Z-5.067
N22690G1Y121.396Z-5.189
N22700G1Y119.824Z-4.872
N22710G1Y119.150Z-4.799
N22720G1Y118.701Z-4.790
N22730G1Y118.252Z-4.805
N22740G1Y117.803Z-4.877
N22750G1Y117.578Z-4.948
N22760G1Y117.354Z-4.995
N22770G1Y117.129Z-5.071
N22780G1Y116.904Z-5.095
N22790G1Y115.781Z-5.016
N22800G1Y115.332Z-4.772
N22810G1Y114.883Z-4.639
N22820G1Y114.658Z-4.604
N22830G1Y113.985Z-4.594
N22840G1Y113.760Z-4.599
N22850G1Y113.535Z-4.641
N22860G1Y113.311Z-4.725
N22870G1Y111.289Z-4.521
N22880G1Y110.616Z-4.504
N22890G1Y109.942Z-4.540
N22900G1Y109.268Z-4.658
N22910G1Y108.819Z-4.805
N22920G1Y108.594Z-4.914
N22930G1Y108.370Z-5.000
N22940G1Y108.145Z-5.139
N22950G1Y107.920Z-5.195
N22960G1Y106.124Z-5.228
N22970G1Y105.450Z-5.165
N22980G1Y104.327Z-5.128
N22990G1Y102.979Z-5.166
N23000G1Y102.081Z-5.241
N23010G1Y101.182Z-5.394
N23020G1Y100.733Z-5.521
N23030G1Y100.059Z-5.786
N23040G1Y99.610Z-6.076
N23050G1Y99.161Z-6.405
N23060G1Y97.140Z-6.876
N23070G1Y96.466Z-7.062
N23080G1Y95.792Z-7.227
N23090G1Y95.567Z-7.289
N23100G1X95.789Z-7.247
N23110G1X96.011Z-7.150
N23120G1X96.232Z-6.808
N23130G1X96.454Z-6.544
N23140G1X96.676Z-6.363
N23150G1X96.897Z-6.239
N23160G1X97.340Z-6.079
N23170G1X97.562Z-6.035
N23180G1X98.005Z-6.003
N23190G1X98.449Z-6.027
N23200G1X99.335Z-6.015
N23210G1X99.778Z-6.043
N23220G1X100.000Z-6.029
N23230G1X101.108Z-5.823
N23240G1X101.330Z-5.727
N23250G1X101.551Z-5.669
N23260G1X101.995Z-5.613
N23270G1X102.438Z-5.623
N23280G1X102.660Z-5.566
N23290G1X103.103Z-5.510
N23300G1X103.768Z-5.566
N23310G1X104.433Z-5.559
N23320G1X104.591Y95.409Z-5.579
N23330G1X104.750Y95.250Z-5.464
N23340G1Y95.474Z-5.559
N23350G1Y95.923Z-5.540
N23360G1Y96.597Z-5.467
N23370G1Y96.821Z-5.328
N23380G1Y97.270Z-5.139
N23390G1Y97.943Z-4.977
N23400G1Y98.841Z-4.893
N23410G1Y99.739Z-4.875
N23420G1Y100.637Z-4.904
N23430G1Y100.861Z-4.852
N23440G1Y101.310Z-4.638
N23450G1Y101.535Z-4.580
N23460G1Y101.759Z-4.494
N23470G1Y102.433Z-4.339
N23480G1Y103.330Z-4.253
N23490G1Y103.555Z-4.242
N23500G1Y104.228Z-4.279
N23510G1Y104.677Z-4.364
N23520G1Y105.126Z-4.545
N23530G1Y105.350Z-4.668
N23540G1Y105.575Z-4.848
N23550G1Y105.799Z-4.854
N23560G1Y106.697Z-4.658
N23570G1Y107.146Z-4.623
N23580G1Y107.820Z-4.668
N23590G1Y108.942Z-4.819
N23600G1Y109.615Z-4.918
N23610G1Y109.840Z-4.861
N23620G1Y110.064Z-4.770
N23630G1Y110.513Z-4.657
N23640G1Y111.186Z-4.580
N23650G1Y111.860Z-4.586
N23660G1Y112.982Z-4.677
N23670G1Y113.880Z-4.823
N23680G1Y114.329Z-4.939
N23690G1Y115.002Z-5.220
N23700G1Y115.451Z-5.202
N23710G1Y115.675Z-5.216
N23720G1Y116.124Z-5.272
N23730G1Y117.471Z-5.554
N23740G1Y118.369Z-5.741
N23750G1Y118.593Z-5.759
N23760G1Y118.818Z-5.716
N23770G1Y119.491Z-5.681
N23780G1Y120.165Z-5.726
N23790G1Y121.062Z-5.908
N23800G1Y121.960Z-6.163
N23810G1Y122.409Z-6.327
N23820G1Y123.307Z-6.729
N23830G1Y123.531Z-6.845
N23840G1Y123.980Z-7.153
N23850G1Y124.654Z-7.290
N23860G1Y125.103Z-7.433
N23870G1Y126.000Z-7.827
N23880G1Y126.898Z-8.287
N23890G1Y128.245Z-9.056
N23900G1Y128.918Z-9.484
N23910G1Y129.143Z-9.611
N23920G1Y129.592Z-9.926
N23930G1Y130.714Z-10.794
N23940G1Y131.612Z-11.581
N23950G1Y132.285Z-12.312
N23960G1Y132.510Z-12.406
N23970G1Y137.672Z-12.995
N23980G1Y139.019Z-13.147
N23990G1Y140.814Z-13.291
N24000G1Y141.712Z-13.401
N24010G1Y145.752Z-13.873
N24020G1Y154.282Z-14.991
N24030G1Y154.506Z-13.348
N24040G1Y155.404Z-11.248
N24050G1Y155.853Z-10.687
N24060G1Y156.077Z-10.437
N24070G1X103.167Z-10.661
N24080G1X101.583Z-11.030
N24090G1X100.226Z-11.368
N24100G1X99.774Z-11.527
N24110G1X97.286Z-12.607
N24120G1X95.250Z-13.627
N24130G1Y155.853Z-14.523
N24140G1Y148.895Z-13.680
N24150G1Y146.201Z-13.377
N24160G1Y145.079Z-13.291
N24170G1Y143.283Z-13.078
N24180G1Y140.590Z-12.829
N24190G1Y139.692Z-11.884
N24200G1Y139.243Z-11.471
N24210G1Y138.570Z-10.910
N24220G1Y137.672Z-10.254
N24230G1Y137.223Z-9.971
N24240G1Y136.999Z-9.791
N24250G1Y136.774Z-9.490
N24260G1Y136.550Z-9.266
N24270G1Y136.325Z-9.076
N24280G1Y136.101Z-8.945
N24290G1Y135.876Z-8.858
N24300G1Y135.428Z-8.753
N24310G1Y135.203Z-8.730
N24320G1Y134.979Z-8.646
N24330G1Y133.856Z-8.060
N24340G1Y132.959Z-7.648
N24350G1Y132.510Z-7.469
N24360G1Y132.061Z-7.312
N24370G1Y131.836Z-7.260
N24380G1Y131.387Z-7.182
N24390G1Y131.163Z-7.067
N24400G1Y130.938Z-6.892
N24410G1Y130.714Z-6.746
N24420G1Y130.041Z-6.442
N24430G1Y128.918Z-6.079
N24440G1Y128.020Z-5.847
N24450G1Y127.572Z-5.759
N24460G1Y127.123Z-5.695
N24470G1Y126.898Z-5.679
N24480G1Y126.674Z-5.695
N24490G1Y126.449Z-5.686
N24500G1Y126.225Z-5.702
N24510G1Y125.776Z-5.799
N24520G1Y125.551Z-5.890
N24530G1Y125.327Z-5.879
N24540G1Y124.429Z-5.735
N24550G1Y123.756Z-5.651
N24560G1Y123.307Z-5.432
N24570G1Y122.858Z-5.319
N24580G1Y122.185Z-5.243
N24590G1Y121.960Z-5.228
N24600G1Y120.389Z-4.898
N24610G1Y119.716Z-4.802
N24620G1Y119.042Z-4.772
N24630G1Y118.593Z-4.824
N24640G1Y118.369Z-4.868
N24650G1Y118.144Z-4.887
N24660G1Y117.920Z-4.939
N24670G1Y117.471Z-5.131
N24680G1Y117.247Z-5.138
N24690G1Y115.451Z-5.023
N24700G1Y115.227Z-4.996
N24710G1Y114.778Z-4.885
N24720G1Y114.329Z-4.833
N24730G1Y113.655Z-4.709
N24740G1Y111.860Z-4.520
N24750G1Y111.186Z-4.495
N24760G1Y110.289Z-4.550
N24770G1Y109.840Z-4.622
N24780G1Y109.615Z-4.676
N24790G1Y109.166Z-4.812
N24800G1Y108.942Z-4.913
N24810G1Y108.493Z-5.205
N24820G1Y107.146Z-5.211
N24830G1Y106.922Z-5.208
N24840G1Y106.248Z-5.258
N24850G1Y105.799Z-5.156
N24860G1Y104.453Z-5.091
N24870G1Y103.330Z-5.150
N24880G1Y102.208Z-5.265
N24890G1Y101.310Z-5.466
N24900G1Y100.861Z-5.610
N24910G1Y100.637Z-5.713
N24920G1Y100.188Z-5.957
N24930G1Y99.964Z-6.143
N24940G1Y99.739Z-6.373
N24950G1Y98.841Z-6.569
N24960G1Y97.719Z-6.844
N24970G1Y97.270Z-6.926
N24980G1Y95.923Z-7.247
N24990G1Y95.250Z-7.469
N25000G1X95.929Z-7.307
N25010G1X96.155Z-7.064
N25020G1X96.381Z-6.724
N25030G1X96.607Z-6.507
N25040G1X96.833Z-6.362
N25050G1X97.060Z-6.244
N25060G1X97.286Z-6.153
N25070G1X97.738Z-6.047
N25080G1X98.190Z-6.025
N25090G1X98.643Z-6.051
N25100G1X99.321Z-6.034
N25110G1X100.000Z-6.080
N25120G1X100.679Z-5.935
N25130G1X101.131Z-5.676
N25140G1X101.357Z-5.588
N25150G1X101.810Z-5.503
N25160G1X102.036Z-5.489
N25170G1X102.488Z-5.517
N25180G1X102.940Z-5.613
N25190G1X103.619Z-5.594
N25200G1X104.071Z-5.603
N25210G1X104.298Z-5.597
N25220G1X104.524Z-5.551
N25230G1X104.750Z-5.464
N25240G1X104.909Y95.091Z-5.366
N25250G1X105.068Y94.932Z-5.305
N25260G1Y95.157Z-5.345
N25270G1Y95.381Z-5.411
N25280G1Y95.605Z-5.515
N25290G1Y95.830Z-5.558
N25300G1Y96.278Z-5.507
N25310G1Y96.727Z-5.296
N25320G1Y97.176Z-5.145
N25330G1Y97.849Z-5.023
N25340G1Y98.746Z-4.965
N25350G1Y100.092Z-4.976
N25360G1Y100.316Z-4.954
N25370G1Y100.540Z-4.827
N25380G1Y100.765Z-4.723
N25390G1Y101.438Z-4.498
N25400G1Y102.111Z-4.373
N25410G1Y102.784Z-4.290
N25420G1Y103.456Z-4.271
N25430G1Y103.905Z-4.295
N25440G1Y104.354Z-4.354
N25450G1Y104.802Z-4.466
N25460G1Y105.027Z-4.548
N25470G1Y105.251Z-4.655
N25480G1Y105.475Z-4.812
N25490G1Y105.700Z-4.842
N25500G1Y106.148Z-4.756
N25510G1Y106.821Z-4.696
N25520G1Y107.046Z-4.695
N25530G1Y108.167Z-4.826
N25540G1Y109.064Z-4.951
N25550G1Y109.289Z-4.925
N25560G1Y109.737Z-4.780
N25570G1Y110.410Z-4.651
N25580G1Y110.859Z-4.613
N25590G1Y111.532Z-4.618
N25600G1Y112.653Z-4.717
N25610G1Y113.551Z-4.861
N25620G1Y113.999Z-4.958
N25630G1Y114.448Z-5.113
N25640G1Y114.672Z-5.227
N25650G1Y114.897Z-5.249
N25660G1Y115.345Z-5.251
N25670G1Y116.691Z-5.495
N25680G1Y118.037Z-5.758
N25690G1Y118.261Z-5.725
N25700G1Y118.934Z-5.695
N25710G1Y119.383Z-5.703
N25720G1Y120.056Z-5.783
N25730G1Y120.504Z-5.874
N25740G1Y121.402Z-6.115
N25750G1Y122.299Z-6.410
N25760G1Y123.196Z-6.837
N25770G1Y123.645Z-7.111
N25780G1Y123.869Z-7.200
N25790G1Y124.318Z-7.308
N25800G1Y124.766Z-7.460
N25810G1Y125.664Z-7.853
N25820G1Y126.561Z-8.303
N25830G1Y128.131Z-9.198
N25840G1Y128.580Z-9.341
N25850G1Y128.804Z-9.447
N25860G1Y129.253Z-9.769
N25870G1Y129.701Z-10.255
N25880G1Y130.374Z-10.768
N25890G1Y131.272Z-11.564
N25900G1Y131.496Z-11.790
N25910G1Y131.945Z-12.306
N25920G1Y132.169Z-12.389
N25930G1Y137.777Z-13.028
N25940G1Y138.898Z-13.153
N25950G1Y140.693Z-13.304
N25960G1Y141.590Z-13.415
N25970G1Y144.731Z-13.767
N25980G1Y154.152Z-14.999
N25990G1Y154.376Z-14.205
N26000G1Y154.600Z-12.983
N26010G1Y155.273Z-11.411
N26020G1Y155.498Z-11.053
N26030G1Y156.395Z-10.035
N26040G1X103.266Z-10.289
N26050G1X99.887Z-11.070
N26060G1X98.536Z-11.406
N26070G1X97.860Z-11.666
N26080G1X97.410Z-11.776
N26090G1X96.959Z-11.937
N26100G1X96.059Z-12.331
N26110G1X94.932Z-12.897
N26120G1Y156.171Z-13.486
N26130G1Y155.946Z-14.515
N26140G1Y148.993Z-13.672
N26150G1Y146.301Z-13.375
N26160G1Y145.403Z-13.295
N26170G1Y143.609Z-13.097
N26180G1Y140.917Z-12.851
N26190G1Y140.693Z-12.668
N26200G1Y139.796Z-11.723
N26210G1Y139.123Z-11.135
N26220G1Y138.450Z-10.607
N26230G1Y137.777Z-10.138
N26240G1Y136.655Z-9.451
N26250G1Y136.431Z-9.210
N26260G1Y136.207Z-9.048
N26270G1Y135.982Z-8.938
N26280G1Y135.758Z-8.869
N26290G1Y134.861Z-8.393
N26300G1Y133.739Z-7.824
N26310G1Y132.842Z-7.454
N26320G1Y132.169Z-7.263
N26330G1Y131.496Z-7.174
N26340G1Y131.272Z-6.957
N26350G1Y131.047Z-6.786
N26360G1Y130.599Z-6.548
N26370G1Y130.150Z-6.365
N26380G1Y129.028Z-6.032
N26390G1Y128.355Z-5.866
N26400G1Y127.683Z-5.758
N26410G1Y126.785Z-5.724
N26420G1Y126.112Z-5.814
N26430G1Y125.888Z-5.885
N26440G1Y125.664Z-5.918
N26450G1Y124.766Z-5.770
N26460G1Y123.869Z-5.640
N26470G1Y122.972Z-5.376
N26480G1Y121.850Z-5.115
N26490G1Y120.729Z-4.894
N26500G1Y119.832Z-4.787
N26510G1Y119.159Z-4.788
N26520G1Y118.710Z-4.851
N26530G1Y118.261Z-5.005
N26540G1Y118.037Z-5.055
N26550G1Y117.813Z-5.134
N26560G1Y117.588Z-5.165
N26570G1Y115.794Z-5.030
N26580G1Y115.570Z-5.031
N26590G1Y115.121Z-4.903
N26600G1Y113.775Z-4.659
N26610G1Y112.878Z-4.555
N26620G1Y111.980Z-4.500
N26630G1Y111.308Z-4.499
N26640G1Y110.410Z-4.604
N26650G1Y109.962Z-4.706
N26660G1Y109.513Z-4.869
N26670G1Y109.289Z-4.995
N26680G1Y109.064Z-5.087
N26690G1Y108.840Z-5.224
N26700G1Y107.046Z-5.211
N26710G1Y106.597Z-5.288
N26720G1Y106.148Z-5.164
N26730G1Y105.475Z-5.093
N26740G1Y104.802Z-5.064
N26750G1Y104.129Z-5.098
N26760G1Y103.232Z-5.187
N26770G1Y102.335Z-5.310
N26780G1Y101.438Z-5.571
N26790G1Y101.213Z-5.658
N26800G1Y100.765Z-5.883
N26810G1Y100.540Z-6.040
N26820G1Y100.316Z-6.244
N26830G1Y100.092Z-6.384
N26840G1Y98.970Z-6.622
N26850G1Y98.297Z-6.771
N26860G1Y98.073Z-6.842
N26870G1Y97.624Z-6.894
N26880G1Y96.278Z-7.212
N26890G1Y95.157Z-7.590
N26900G1Y94.932Z-7.675
N26910G1X95.608Z-7.485
N26920G1X96.059Z-7.380
N26930G1X96.284Z-7.016
N26940G1X96.509Z-6.740
N26950G1X96.959Z-6.393
N26960G1X97.185Z-6.282
N26970G1X97.635Z-6.125
N26980G1X98.086Z-6.066
N26990G1X99.437Z-6.070
N27000G1X100.113Z-6.115
N27010G1X100.563Z-5.987
N27020G1X101.014Z-5.671
N27030G1X101.239Z-5.564
N27040G1X101.464Z-5.496
N27050G1X101.914Z-5.440
N27060G1X102.365Z-5.450
N27070G1X103.491Z-5.645
N27080G1X104.167Z-5.635
N27090G1X104.392Z-5.506
N27100G1X104.617Z-5.401
N27110G1X104.842Z-5.337
N27120G1X105.068Z-5.305
N27130G1X105.226Y94.774Z-5.256
N27140G1X105.385Y94.615Z-5.241
N27150G1Y94.839Z-5.257
N27160G1Y95.288Z-5.346
N27170G1Y95.512Z-5.432
N27180G1Y95.736Z-5.560
N27190G1Y95.960Z-5.553
N27200G1Y96.857Z-5.218
N27210G1Y97.529Z-5.100
N27220G1Y98.874Z-5.044
N27230G1Y99.771Z-5.055
N27240G1Y99.995Z-5.002
N27250G1Y100.444Z-4.727
N27260G1Y100.668Z-4.638
N27270G1Y101.340Z-4.470
N27280G1Y102.013Z-4.375
N27290G1Y102.910Z-4.320
N27300G1Y103.582Z-4.333
N27310G1Y104.255Z-4.406
N27320G1Y104.703Z-4.504
N27330G1Y105.151Z-4.686
N27340G1Y105.376Z-4.822
N27350G1Y105.600Z-4.849
N27360G1Y105.824Z-4.800
N27370G1Y106.272Z-4.765
N27380G1Y106.945Z-4.787
N27390G1Y108.290Z-4.959
N27400G1Y108.738Z-4.985
N27410G1Y108.962Z-4.937
N27420G1Y109.187Z-4.849
N27430G1Y109.635Z-4.749
N27440G1Y110.083Z-4.681
N27450G1Y110.980Z-4.645
N27460G1Y112.101Z-4.733
N27470G1Y113.222Z-4.915
N27480G1Y114.119Z-5.109
N27490G1Y114.567Z-5.277
N27500G1Y115.239Z-5.324
N27510G1Y117.481Z-5.732
N27520G1Y117.705Z-5.760
N27530G1Y117.930Z-5.711
N27540G1Y118.602Z-5.682
N27550G1Y119.275Z-5.737
N27560G1Y119.947Z-5.846
N27570G1Y120.844Z-6.078
N27580G1Y121.741Z-6.364
N27590G1Y122.637Z-6.726
N27600G1Y123.086Z-6.935
N27610G1Y123.534Z-7.215
N27620G1Y124.207Z-7.395
N27630G1Y125.327Z-7.880
N27640G1Y126.448Z-8.433
N27650G1Y127.345Z-8.925
N27660G1Y127.569Z-9.032
N27670G1Y127.793Z-9.117
N27680G1Y128.018Z-9.174
N27690G1Y128.690Z-9.454
N27700G1Y128.914Z-9.590
N27710G1Y129.138Z-9.756
N27720G1Y129.363Z-9.956
N27730G1Y129.811Z-10.525
N27740G1Y130.035Z-10.760
N27750G1Y130.484Z-11.126
N27760G1Y130.932Z-11.528
N27770G1Y131.380Z-12.014
N27780G1Y131.604Z-12.288
N27790G1Y131.829Z-12.372
N27800G1Y138.554Z-13.140
N27810G1Y140.572Z-13.316
N27820G1Y141.692Z-13.459
N27830G1Y144.383Z-13.755
N27840G1Y154.246Z-15.039
N27850G1Y154.471Z-13.473
N27860G1Y154.695Z-12.705
N27870G1Y155.143Z-11.644
N27880G1Y155.367Z-11.177
N27890G1Y155.592Z-10.887
N27900G1Y156.712Z-9.646
N27910G1X103.141Z-9.956
N27920G1X98.878Z-10.948
N27930G1X97.308Z-11.332
N27940G1X96.859Z-11.473
N27950G1X95.737Z-11.756
N27960G1X95.288Z-11.944
N27970G1X94.839Z-12.162
N27980G1X94.615Z-12.303
N27990G1Y156.488Z-12.884
N28000G1Y156.264Z-13.551
N28010G1Y156.040Z-14.507
N28020G1Y148.866Z-13.645
N28030G1Y146.624Z-13.395
N28040G1Y142.365Z-12.978
N28050G1Y141.244Z-12.878
N28060G1Y141.020Z-12.791
N28070G1Y140.796Z-12.484
N28080G1Y140.572Z-12.209
N28090G1Y139.899Z-11.494
N28100G1Y139.002Z-10.750
N28110G1Y138.330Z-10.254
N28120G1Y137.209Z-9.592
N28130G1Y136.985Z-9.497
N28140G1Y136.536Z-9.159
N28150G1Y135.640Z-8.601
N28160G1Y134.070Z-7.804
N28170G1Y133.398Z-7.527
N28180G1Y132.950Z-7.366
N28190G1Y132.277Z-7.219
N28200G1Y131.829Z-7.194
N28210G1Y131.604Z-7.116
N28220G1Y131.380Z-6.893
N28230G1Y131.156Z-6.711
N28240G1Y130.932Z-6.576
N28250G1Y130.259Z-6.318
N28260G1Y129.587Z-6.115
N28270G1Y128.690Z-5.885
N28280G1Y128.018Z-5.786
N28290G1Y127.569Z-5.767
N28300G1Y126.897Z-5.803
N28310G1Y126.224Z-5.963
N28320G1Y126.000Z-5.955
N28330G1Y124.431Z-5.666
N28340G1Y123.982Z-5.625
N28350G1Y123.534Z-5.437
N28360G1Y122.861Z-5.248
N28370G1Y121.965Z-5.052
N28380G1Y120.844Z-4.860
N28390G1Y120.171Z-4.804
N28400G1Y119.723Z-4.798
N28410G1Y119.050Z-4.861
N28420G1Y118.826Z-4.912
N28430G1Y118.378Z-5.090
N28440G1Y118.154Z-5.209
N28450G1Y116.809Z-5.098
N28460G1Y115.912Z-5.018
N28470G1Y115.688Z-5.034
N28480G1Y115.239Z-4.863
N28490G1Y114.343Z-4.669
N28500G1Y113.446Z-4.564
N28510G1Y112.325Z-4.502
N28520G1Y111.653Z-4.525
N28530G1Y110.980Z-4.599
N28540G1Y110.532Z-4.686
N28550G1Y110.307Z-4.747
N28560G1Y109.859Z-4.913
N28570G1Y109.635Z-5.020
N28580G1Y109.411Z-5.189
N28590G1Y109.187Z-5.239
N28600G1Y107.842Z-5.193
N28610G1Y106.945Z-5.282
N28620G1Y106.721Z-5.255
N28630G1Y106.272Z-5.136
N28640G1Y105.824Z-5.086
N28650G1Y105.151Z-5.049
N28660G1Y104.479Z-5.086
N28670G1Y103.358Z-5.216
N28680G1Y102.685Z-5.326
N28690G1Y102.461Z-5.377
N28700G1Y102.013Z-5.520
N28710G1Y101.340Z-5.809
N28720G1Y100.892Z-6.125
N28730G1Y100.668Z-6.348
N28740G1Y99.099Z-6.659
N28750G1Y98.202Z-6.874
N28760G1Y97.753Z-6.915
N28770G1Y96.633Z-7.181
N28780G1Y95.736Z-7.476
N28790G1Y94.839Z-7.819
N28800G1Y94.615Z-7.927
N28810G1X95.064Z-7.759
N28820G1X95.737Z-7.554
N28830G1X96.186Z-7.450
N28840G1X96.634Z-6.820
N28850G1X96.859Z-6.596
N28860G1X97.083Z-6.448
N28870G1X97.307Z-6.334
N28880G1X97.532Z-6.244
N28890G1X97.981Z-6.137
N28900G1X98.429Z-6.097
N28910G1X99.327Z-6.105
N28920G1X100.000Z-6.155
N28930G1X100.224Z-6.156
N28940G1X100.449Z-6.066
N28950G1X100.897Z-5.706
N28960G1X101.122Z-5.578
N28970G1X101.346Z-5.493
N28980G1X101.571Z-5.444
N28990G1X102.019Z-5.417
N29000G1X102.917Z-5.507
N29010G1X103.814Z-5.650
N29020G1X104.039Z-5.666
N29030G1X104.488Z-5.420
N29040G1X104.712Z-5.335
N29050G1X105.161Z-5.256
N29060G1X105.385Z-5.241
N29070G1X105.544Y94.456Z-5.240
N29080G1X105.702Y94.298Z-5.266
N29090G1Y94.970Z-5.277
N29100G1Y95.194Z-5.312
N29110G1Y95.418Z-5.382
N29120G1Y95.642Z-5.491
N29130G1Y95.866Z-5.538
N29140G1Y96.314Z-5.363
N29150G1Y96.762Z-5.249
N29160G1Y97.434Z-5.163
N29170G1Y98.554Z-5.139
N29180G1Y99.226Z-5.141
N29190G1Y99.451Z-5.105
N29200G1Y99.899Z-4.868
N29210G1Y100.123Z-4.785
N29220G1Y100.347Z-4.680
N29230G1Y100.795Z-4.546
N29240G1Y101.243Z-4.471
N29250G1Y101.691Z-4.417
N29260G1Y102.587Z-4.387
N29270G1Y103.483Z-4.398
N29280G1Y104.379Z-4.522
N29290G1Y104.828Z-4.657
N29300G1Y105.276Z-4.884
N29310G1Y105.724Z-4.844
N29320G1Y105.948Z-4.821
N29330G1Y106.172Z-4.823
N29340G1Y107.292Z-4.938
N29350G1Y107.740Z-4.983
N29360G1Y108.412Z-5.008
N29370G1Y108.636Z-4.913
N29380G1Y108.860Z-4.847
N29390G1Y109.084Z-4.816
N29400G1Y109.308Z-4.757
N29410G1Y109.981Z-4.692
N29420G1Y110.877Z-4.695
N29430G1Y111.997Z-4.823
N29440G1Y114.013Z-5.193
N29450G1Y114.461Z-5.318
N29460G1Y117.374Z-5.775
N29470G1Y117.822Z-5.703
N29480G1Y118.270Z-5.687
N29490G1Y118.718Z-5.719
N29500G1Y119.390Z-5.833
N29510G1Y119.839Z-5.922
N29520G1Y120.959Z-6.261
N29530G1Y122.079Z-6.664
N29540G1Y122.751Z-6.944
N29550G1Y123.423Z-7.285
N29560G1Y124.095Z-7.510
N29570G1Y125.216Z-8.011
N29580G1Y126.560Z-8.682
N29590G1Y126.784Z-8.804
N29600G1Y127.008Z-8.900
N29610G1Y127.456Z-9.026
N29620G1Y127.904Z-9.193
N29630G1Y128.576Z-9.510
N29640G1Y129.248Z-10.008
N29650G1Y129.697Z-10.496
N29660G1Y129.921Z-10.914
N29670G1Y130.593Z-11.511
N29680G1Y131.041Z-11.987
N29690G1Y131.265Z-12.249
N29700G1Y131.489Z-12.351
N29710G1Y138.882Z-13.191
N29720G1Y140.227Z-13.302
N29730G1Y141.571Z-13.478
N29740G1Y144.035Z-13.740
N29750G1Y154.117Z-15.050
N29760G1Y154.341Z-13.515
N29770G1Y154.565Z-12.884
N29780G1Y155.014Z-11.833
N29790G1Y155.238Z-11.389
N29800G1Y155.462Z-10.990
N29810G1Y156.806Z-9.515
N29820G1Y157.030Z-9.317
N29830G1X104.137Z-9.478
N29840G1X103.243Z-9.604
N29850G1X99.888Z-10.364
N29860G1X96.310Z-11.215
N29870G1X94.968Z-11.546
N29880G1X94.745Z-11.619
N29890G1X94.298Z-11.827
N29900G1Y156.806Z-12.289
N29910G1Y156.358Z-13.433
N29920G1Y156.134Z-14.496
N29930G1Y148.068Z-13.540
N29940G1Y145.604Z-13.283
N29950G1Y141.347Z-12.887
N29960G1Y141.123Z-12.525
N29970G1Y140.899Z-12.210
N29980G1Y140.003Z-11.279
N29990G1Y139.106Z-10.553
N30000G1Y138.658Z-10.227
N30010G1Y137.762Z-9.706
N30020G1Y137.090Z-9.419
N30030G1Y136.866Z-9.192
N30040G1Y136.642Z-8.999
N30050G1Y135.970Z-8.581
N30060G1Y135.074Z-8.122
N30070G1Y134.177Z-7.686
N30080G1Y133.505Z-7.427
N30090G1Y133.057Z-7.298
N30100G1Y132.385Z-7.193
N30110G1Y131.937Z-7.195
N30120G1Y131.713Z-7.078
N30130G1Y131.489Z-6.842
N30140G1Y131.041Z-6.544
N30150G1Y130.817Z-6.436
N30160G1Y129.697Z-6.072
N30170G1Y128.800Z-5.876
N30180G1Y128.352Z-5.819
N30190G1Y127.680Z-5.807
N30200G1Y127.008Z-5.893
N30210G1Y126.560Z-6.024
N30220G1Y124.992Z-5.694
N30230G1Y124.543Z-5.635
N30240G1Y124.319Z-5.635
N30250G1Y124.095Z-5.563
N30260G1Y123.871Z-5.452
N30270G1Y122.975Z-5.180
N30280G1Y122.303Z-5.046
N30290G1Y120.959Z-4.847
N30300G1Y120.287Z-4.827
N30310G1Y119.839Z-4.837
N30320G1Y119.390Z-4.915
N30330G1Y119.166Z-4.979
N30340G1Y118.942Z-5.018
N30350G1Y118.718Z-5.094
N30360G1Y118.494Z-5.217
N30370G1Y118.046Z-5.197
N30380G1Y116.702Z-5.040
N30390G1Y116.030Z-5.055
N30400G1Y115.582Z-4.879
N30410G1Y115.134Z-4.755
N30420G1Y114.461Z-4.627
N30430G1Y113.789Z-4.554
N30440G1Y112.669Z-4.516
N30450G1Y111.997Z-4.542
N30460G1Y111.101Z-4.670
N30470G1Y110.429Z-4.866
N30480G1Y109.981Z-5.093
N30490G1Y109.757Z-5.236
N30500G1Y108.412Z-5.194
N30510G1Y107.964Z-5.194
N30520G1Y107.516Z-5.260
N30530G1Y107.292Z-5.325
N30540G1Y107.068Z-5.310
N30550G1Y106.620Z-5.164
N30560G1Y106.172Z-5.077
N30570G1Y105.052Z-5.057
N30580G1Y103.259Z-5.287
N30590G1Y102.587Z-5.468
N30600G1Y102.139Z-5.627
N30610G1Y101.915Z-5.748
N30620G1Y101.467Z-6.048
N30630G1Y101.243Z-6.263
N30640G1Y101.019Z-6.370
N30650G1Y99.899Z-6.544
N30660G1Y99.226Z-6.685
N30670G1Y98.554Z-6.895
N30680G1Y98.330Z-6.892
N30690G1Y97.882Z-6.940
N30700G1Y96.986Z-7.152
N30710G1Y96.314Z-7.367
N30720G1Y95.194Z-7.780
N30730G1Y94.746Z-8.001
N30740G1Y94.298Z-8.273
N30750G1X94.745Z-8.026
N30760G1X95.192Z-7.846
N30770G1X96.087Z-7.568
N30780G1X96.310Z-7.517
N30790G1X96.757Z-6.917
N30800G1X96.981Z-6.676
N30810G1X97.205Z-6.510
N30820G1X97.428Z-6.398
N30830G1X97.876Z-6.243
N30840G1X98.546Z-6.142
N30850G1X99.217Z-6.134
N30860G1X100.335Z-6.214
N30870G1X100.783Z-5.814
N30880G1X101.006Z-5.659
N30890G1X101.230Z-5.553
N30900G1X101.454Z-5.486
N30910G1X101.901Z-5.417
N30920G1X102.124Z-5.417
N30930G1X103.466Z-5.569
N30940G1X103.913Z-5.656
N30950G1X104.137Z-5.648
N30960G1X104.361Z-5.491
N30970G1X104.584Z-5.383
N30980G1X104.808Z-5.315
N30990G1X105.255Z-5.238
N31000G1X105.479Z-5.236
N31010G1X105.702Z-5.266
N31020G1X106.020Y93.980Z-5.336
N31030G1Y94.876Z-5.324
N31040G1Y95.100Z-5.346
N31050G1Y95.323Z-5.403
N31060G1Y95.547Z-5.499
N31070G1Y95.771Z-5.518
N31080G1Y96.219Z-5.380
N31090G1Y96.667Z-5.285
N31100G1Y97.787Z-5.228
N31110G1Y98.906Z-5.219
N31120G1Y99.130Z-5.079
N31130G1Y99.354Z-4.989
N31140G1Y99.578Z-4.871
N31150G1Y99.802Z-4.788
N31160G1Y100.026Z-4.734
N31170G1Y100.250Z-4.654
N31180G1Y100.921Z-4.516
N31190G1Y101.369Z-4.470
N31200G1Y102.937Z-4.451
N31210G1Y103.608Z-4.511
N31220G1Y104.280Z-4.624
N31230G1Y104.504Z-4.682
N31240G1Y104.952Z-4.864
N31250G1Y105.176Z-4.923
N31260G1Y105.847Z-4.894
N31270G1Y106.743Z-4.984
N31280G1Y108.087Z-5.051
N31290G1Y108.534Z-4.875
N31300G1Y109.206Z-4.756
N31310G1Y109.878Z-4.718
N31320G1Y110.773Z-4.770
N31330G1Y111.893Z-4.925
N31340G1Y114.356Z-5.362
N31350G1Y116.819Z-5.760
N31360G1Y117.043Z-5.767
N31370G1Y117.939Z-5.706
N31380G1Y118.610Z-5.770
N31390G1Y119.506Z-5.970
N31400G1Y120.178Z-6.170
N31410G1Y121.745Z-6.710
N31420G1Y122.865Z-7.166
N31430G1Y123.313Z-7.368
N31440G1Y124.208Z-7.734
N31450G1Y124.880Z-8.016
N31460G1Y126.447Z-8.787
N31470G1Y126.895Z-8.889
N31480G1Y127.567Z-9.130
N31490G1Y128.239Z-9.472
N31500G1Y128.687Z-9.762
N31510G1Y129.134Z-10.118
N31520G1Y129.358Z-10.343
N31530G1Y129.582Z-10.610
N31540G1Y129.806Z-11.056
N31550G1Y130.254Z-11.463
N31560G1Y130.702Z-11.962
N31570G1Y130.926Z-12.233
N31580G1Y131.150Z-12.333
N31590G1Y138.987Z-13.223
N31600G1Y140.106Z-13.312
N31610G1Y141.673Z-13.519
N31620G1Y144.137Z-13.777
N31630G1Y154.213Z-15.086
N31640G1Y154.437Z-13.123
N31650G1Y155.108Z-11.554
N31660G1Y155.332Z-11.145
N31670G1Y155.556Z-10.839
N31680G1Y156.676Z-9.604
N31690G1Y157.124Z-9.215
N31700G1Y157.347Z-9.078
N31710G1X103.121Z-9.367
N31720G1X102.007Z-9.555
N31730G1X100.892Z-9.803
N31740G1X100.000Z-9.971
N31750G1X96.433Z-10.810
N31760G1X95.095Z-11.141
N31770G1X94.426Z-11.366
N31780G1X93.980Z-11.537
N31790G1Y157.124Z-11.874
N31800G1Y156.900Z-12.278
N31810G1Y156.452Z-13.432
N31820G1Y156.228Z-14.485
N31830G1Y148.391Z-13.562
N31840G1Y145.928Z-13.307
N31850G1Y141.673Z-12.914
N31860G1Y141.450Z-12.700
N31870G1Y141.226Z-12.186
N31880G1Y141.002Z-11.910
N31890G1Y140.778Z-11.723
N31900G1Y140.330Z-11.256
N31910G1Y139.434Z-10.526
N31920G1Y138.987Z-10.202
N31930G1Y138.315Z-9.808
N31940G1Y138.091Z-9.715
N31950G1Y137.867Z-9.599
N31960G1Y137.643Z-9.512
N31970G1Y137.419Z-9.447
N31980G1Y137.195Z-9.297
N31990G1Y136.971Z-9.029
N32000G1Y136.523Z-8.711
N32010G1Y136.076Z-8.432
N32020G1Y134.732Z-7.765
N32030G1Y134.060Z-7.495
N32040G1Y133.613Z-7.348
N32050G1Y133.165Z-7.247
N32060G1Y132.493Z-7.181
N32070G1Y132.045Z-7.212
N32080G1Y131.821Z-7.130
N32090G1Y131.597Z-6.844
N32100G1Y131.373Z-6.653
N32110G1Y131.150Z-6.519
N32120G1Y130.926Z-6.410
N32130G1Y130.254Z-6.176
N32140G1Y129.806Z-6.058
N32150G1Y129.134Z-5.920
N32160G1Y128.463Z-5.847
N32170G1Y127.791Z-5.872
N32180G1Y127.119Z-6.032
N32190G1Y126.895Z-6.040
N32200G1Y126.000Z-5.824
N32210G1Y125.328Z-5.692
N32220G1Y124.656Z-5.618
N32230G1Y124.432Z-5.609
N32240G1Y124.208Z-5.476
N32250G1Y123.760Z-5.308
N32260G1Y122.865Z-5.084
N32270G1Y121.745Z-4.922
N32280G1Y121.073Z-4.848
N32290G1Y120.402Z-4.864
N32300G1Y119.954Z-4.894
N32310G1Y119.506Z-5.003
N32320G1Y118.834Z-5.262
N32330G1Y117.491Z-5.081
N32340G1Y116.819Z-5.025
N32350G1Y116.371Z-5.056
N32360G1Y116.147Z-5.033
N32370G1Y115.923Z-4.917
N32380G1Y115.700Z-4.825
N32390G1Y115.028Z-4.667
N32400G1Y114.356Z-4.575
N32410G1Y113.684Z-4.542
N32420G1Y112.565Z-4.541
N32430G1Y112.117Z-4.587
N32440G1Y111.221Z-4.766
N32450G1Y110.550Z-5.064
N32460G1Y110.326Z-5.186
N32470G1Y110.102Z-5.240
N32480G1Y108.982Z-5.185
N32490G1Y108.534Z-5.191
N32500G1Y107.863Z-5.256
N32510G1Y107.639Z-5.303
N32520G1Y107.415Z-5.387
N32530G1Y106.967Z-5.223
N32540G1Y106.519Z-5.105
N32550G1Y106.071Z-5.064
N32560G1Y105.176Z-5.083
N32570G1Y103.832Z-5.266
N32580G1Y103.160Z-5.417
N32590G1Y102.713Z-5.576
N32600G1Y102.265Z-5.763
N32610G1Y102.041Z-5.919
N32620G1Y101.593Z-6.331
N32630G1Y100.697Z-6.449
N32640G1Y99.578Z-6.677
N32650G1Y99.354Z-6.759
N32660G1Y99.130Z-6.814
N32670G1Y98.906Z-6.901
N32680G1Y98.458Z-6.910
N32690G1Y98.234Z-6.927
N32700G1Y97.563Z-7.066
N32710G1Y96.891Z-7.257
N32720G1Y95.547Z-7.763
N32730G1Y95.323Z-7.850
N32740G1Y95.100Z-7.961
N32750G1Y94.652Z-8.246
N32760G1Y94.428Z-8.407
N32770G1Y94.204Z-8.648
N32780G1Y93.980Z-9.020
N32790G1X94.203Z-8.655
N32800G1X94.426Z-8.421
N32810G1X94.649Z-8.267
N32820G1X95.095Z-8.025
N32830G1X95.987Z-7.709
N32840G1X96.433Z-7.585
N32850G1X96.656Z-7.501
N32860G1X96.879Z-7.030
N32870G1X97.101Z-6.779
N32880G1X97.324Z-6.609
N32890G1X97.547Z-6.479
N32900G1X97.993Z-6.309
N32910G1X98.439Z-6.221
N32920G1X99.108Z-6.167
N32930G1X100.223Z-6.246
N32940G1X100.446Z-6.205
N32950G1X100.669Z-5.967
N32960G1X100.892Z-5.778
N32970G1X101.115Z-5.649
N32980G1X101.561Z-5.492
N32990G1X101.784Z-5.441
N33000G1X102.230Z-5.422
N33010G1X103.121Z-5.514
N33020G1X104.013Z-5.689
N33030G1X104.236Z-5.627
N33040G1X104.459Z-5.493
N33050G1X104.905Z-5.324
N33060G1X105.128Z-5.271
N33070G1X105.351Z-5.251
N33080G1X105.574Z-5.262
N33090G1X106.020Z-5.336
N33100G1X106.338Y93.662Z-5.378
N33110G1Y94.336Z-5.376
N33120G1Y95.010Z-5.414
N33130G1Y95.234Z-5.457
N33140G1Y95.459Z-5.539
N33150G1Y95.684Z-5.516
N33160G1Y96.357Z-5.376
N33170G1Y97.031Z-5.335
N33180G1Y98.378Z-5.302
N33190G1Y98.603Z-5.244
N33200G1Y98.828Z-5.088
N33210G1Y99.277Z-4.891
N33220G1Y99.726Z-4.741
N33230G1Y100.400Z-4.600
N33240G1Y101.073Z-4.530
N33250G1Y101.972Z-4.520
N33260G1Y103.094Z-4.560
N33270G1Y103.768Z-4.662
N33280G1Y104.442Z-4.798
N33290G1Y104.891Z-4.968
N33300G1Y105.116Z-4.956
N33310G1Y107.810Z-5.091
N33320G1Y108.260Z-4.912
N33330G1Y108.709Z-4.816
N33340G1Y109.382Z-4.768
N33350G1Y110.056Z-4.793
N33360G1Y110.730Z-4.866
N33370G1Y112.302Z-5.126
N33380G1Y112.751Z-5.206
N33390G1Y112.976Z-5.164
N33400G1Y113.200Z-5.145
N33410G1Y113.874Z-5.195
N33420G1Y114.548Z-5.318
N33430G1Y114.772Z-5.403
N33440G1Y114.997Z-5.510
N33450G1Y116.569Z-5.782
N33460G1Y116.793Z-5.789
N33470G1Y117.018Z-5.750
N33480G1Y117.242Z-5.732
N33490G1Y117.916Z-5.760
N33500G1Y118.365Z-5.823
N33510G1Y119.263Z-6.036
N33520G1Y121.509Z-6.789
N33530G1Y124.653Z-8.064
N33540G1Y126.001Z-8.734
N33550G1Y126.225Z-8.796
N33560G1Y126.674Z-8.888
N33570G1Y127.348Z-9.142
N33580G1Y128.022Z-9.519
N33590G1Y128.471Z-9.823
N33600G1Y129.145Z-10.375
N33610G1Y129.369Z-10.612
N33620G1Y129.594Z-10.999
N33630G1Y129.818Z-11.340
N33640G1Y130.043Z-11.549
N33650G1Y130.267Z-11.787
N33660G1Y130.492Z-12.063
N33670G1Y130.717Z-12.306
N33680G1Y132.962Z-12.569
N33690G1Y139.026Z-13.244
N33700G1Y139.924Z-13.319
N33710G1Y141.720Z-13.561
N33720G1Y144.191Z-13.812
N33730G1Y154.072Z-15.099
N33740G1Y154.296Z-13.378
N33750G1Y154.970Z-11.812
N33760G1Y155.195Z-11.334
N33770G1Y155.419Z-10.960
N33780G1Y156.767Z-9.466
N33790G1Y157.216Z-9.119
N33800G1Y157.665Z-8.845
N33810G1X103.224Z-9.151
N33820G1X100.111Z-9.678
N33830G1X99.444Z-9.817
N33840G1X98.332Z-10.015
N33850G1X95.219Z-10.751
N33860G1X94.774Z-10.885
N33870G1X93.662Z-11.306
N33880G1Y157.216Z-11.847
N33890G1Y156.991Z-12.332
N33900G1Y156.542Z-13.472
N33910G1Y156.318Z-14.478
N33920G1Y150.030Z-13.744
N33930G1Y146.886Z-13.403
N33940G1Y141.945Z-12.940
N33950G1Y141.720Z-12.803
N33960G1Y141.271Z-11.842
N33970G1Y140.373Z-10.987
N33980G1Y139.475Z-10.284
N33990G1Y139.026Z-9.992
N34000G1Y138.576Z-9.758
N34010G1Y138.352Z-9.660
N34020G1Y137.678Z-9.451
N34030G1Y137.454Z-9.289
N34040G1Y137.229Z-9.019
N34050G1Y137.004Z-8.818
N34060G1Y136.555Z-8.500
N34070G1Y135.657Z-8.039
N34080G1Y134.759Z-7.628
N34090G1Y134.085Z-7.382
N34100G1Y133.411Z-7.234
N34110G1Y132.738Z-7.180
N34120G1Y132.289Z-7.221
N34130G1Y132.064Z-7.264
N34140G1Y131.839Z-7.067
N34150G1Y131.615Z-6.775
N34160G1Y131.390Z-6.584
N34170G1Y131.166Z-6.452
N34180G1Y130.717Z-6.268
N34190G1Y130.043Z-6.088
N34200G1Y129.594Z-5.991
N34210G1Y129.145Z-5.943
N34220G1Y128.695Z-5.910
N34230G1Y128.022Z-5.943
N34240G1Y127.573Z-6.051
N34250G1Y127.348Z-6.058
N34260G1Y126.225Z-5.787
N34270G1Y125.551Z-5.670
N34280G1Y124.878Z-5.636
N34290G1Y124.653Z-5.609
N34300G1Y124.429Z-5.475
N34310G1Y123.979Z-5.289
N34320G1Y122.857Z-5.041
N34330G1Y121.734Z-4.902
N34340G1Y121.285Z-4.863
N34350G1Y120.611Z-4.897
N34360G1Y120.162Z-4.992
N34370G1Y119.937Z-5.022
N34380G1Y119.713Z-5.079
N34390G1Y119.263Z-5.284
N34400G1Y118.365Z-5.137
N34410G1Y117.467Z-5.044
N34420G1Y117.018Z-5.062
N34430G1Y116.793Z-5.050
N34440G1Y116.569Z-5.068
N34450G1Y116.344Z-5.046
N34460G1Y116.119Z-4.916
N34470G1Y115.670Z-4.746
N34480G1Y114.997Z-4.621
N34490G1Y114.323Z-4.563
N34500G1Y113.425Z-4.552
N34510G1Y112.751Z-4.585
N34520G1Y112.302Z-4.633
N34530G1Y111.853Z-4.734
N34540G1Y111.179Z-4.979
N34550G1Y110.954Z-5.096
N34560G1Y110.730Z-5.247
N34570G1Y109.607Z-5.184
N34580G1Y108.933Z-5.189
N34590G1Y108.484Z-5.224
N34600G1Y108.035Z-5.345
N34610G1Y107.586Z-5.450
N34620G1Y107.361Z-5.331
N34630G1Y106.912Z-5.186
N34640G1Y106.463Z-5.100
N34650G1Y105.789Z-5.077
N34660G1Y105.116Z-5.134
N34670G1Y104.666Z-5.200
N34680G1Y104.442Z-5.251
N34690G1Y104.217Z-5.281
N34700G1Y103.094Z-5.589
N34710G1Y102.870Z-5.695
N34720G1Y102.421Z-5.987
N34730G1Y101.972Z-6.317
N34740G1Y100.849Z-6.467
N34750G1Y99.950Z-6.654
N34760G1Y99.726Z-6.723
N34770G1Y99.277Z-6.924
N34780G1Y98.828Z-6.910
N34790G1Y98.378Z-6.952
N34800G1Y97.705Z-7.094
N34810G1Y97.256Z-7.226
N34820G1Y96.582Z-7.467
N34830G1Y95.684Z-7.840
N34840G1Y95.234Z-8.074
N34850G1Y94.785Z-8.380
N34860G1Y94.561Z-8.579
N34870G1Y94.336Z-8.940
N34880G1Y94.112Z-9.528
N34890G1Y93.887Z-9.997
N34900G1Y93.662Z-10.229
N34910G1X93.885Z-9.923
N34920G1X94.330Z-8.844
N34930G1X94.552Z-8.579
N34940G1X94.997Z-8.252
N34950G1X95.441Z-8.032
N34960G1X96.331Z-7.724
N34970G1X96.776Z-7.595
N34980G1X96.998Z-7.134
N34990G1X97.220Z-6.854
N35000G1X97.443Z-6.677
N35010G1X97.887Z-6.444
N35020G1X98.332Z-6.328
N35030G1X98.999Z-6.229
N35040G1X99.666Z-6.242
N35050G1X100.334Z-6.291
N35060G1X100.556Z-6.175
N35070G1X100.778Z-5.942
N35080G1X101.001Z-5.783
N35090G1X101.445Z-5.569
N35100G1X101.668Z-5.500
N35110G1X102.113Z-5.447
N35120G1X102.557Z-5.449
N35130G1X103.447Z-5.570
N35140G1X104.114Z-5.720
N35150G1X104.336Z-5.642
N35160G1X104.781Z-5.411
N35170G1X105.003Z-5.338
N35180G1X105.226Z-5.299
N35190G1X105.670Z-5.299
N35200G1X106.338Z-5.378
N35210G1X106.655Y93.345Z-5.435
N35220G1Y94.018Z-5.432
N35230G1Y94.692Z-5.464
N35240G1Y95.365Z-5.575
N35250G1Y96.038Z-5.470
N35260G1Y96.487Z-5.435
N35270G1Y97.834Z-5.369
N35280G1Y98.058Z-5.347
N35290G1Y98.283Z-5.216
N35300G1Y98.507Z-5.130
N35310G1Y98.731Z-5.011
N35320G1Y99.180Z-4.848
N35330G1Y99.629Z-4.730
N35340G1Y100.527Z-4.599
N35350G1Y101.649Z-4.591
N35360G1Y102.771Z-4.655
N35370G1Y104.118Z-4.853
N35380G1Y104.567Z-4.958
N35390G1Y104.791Z-5.016
N35400G1Y105.240Z-5.031
N35410G1Y107.260Z-5.117
N35420G1Y107.484Z-5.085
N35430G1Y107.709Z-5.015
N35440G1Y107.933Z-4.979
N35450G1Y108.158Z-4.916
N35460G1Y108.607Z-4.842
N35470G1Y109.280Z-4.826
N35480G1Y109.953Z-4.876
N35490G1Y112.198Z-5.232
N35500G1Y112.646Z-5.146
N35510G1Y113.095Z-5.103
N35520G1Y113.320Z-5.101
N35530G1Y113.993Z-5.168
N35540G1Y114.442Z-5.244
N35550G1Y114.666Z-5.308
N35560G1Y114.891Z-5.411
N35570G1Y115.115Z-5.563
N35580G1Y115.564Z-5.662
N35590G1Y116.462Z-5.831
N35600G1Y116.911Z-5.774
N35610G1Y117.360Z-5.780
N35620G1Y118.033Z-5.875
N35630G1Y118.706Z-6.027
N35640G1Y119.828Z-6.389
N35650G1Y121.399Z-6.928
N35660G1Y121.624Z-7.017
N35670G1Y121.848Z-7.071
N35680G1Y122.073Z-7.102
N35690G1Y122.297Z-7.168
N35700G1Y122.746Z-7.360
N35710G1Y122.970Z-7.504
N35720G1Y124.542Z-8.151
N35730G1Y125.664Z-8.701
N35740G1Y125.888Z-8.733
N35750G1Y126.786Z-9.026
N35760G1Y127.459Z-9.373
N35770G1Y127.908Z-9.643
N35780G1Y128.132Z-9.805
N35790G1Y129.255Z-10.757
N35800G1Y129.479Z-11.104
N35810G1Y129.704Z-11.503
N35820G1Y129.928Z-11.732
N35830G1Y130.377Z-12.292
N35840G1Y132.397Z-12.535
N35850G1Y138.905Z-13.252
N35860G1Y139.803Z-13.333
N35870G1Y141.599Z-13.575
N35880G1Y144.067Z-13.825
N35890G1Y153.943Z-15.110
N35900G1Y154.167Z-14.642
N35910G1Y154.391Z-13.042
N35920G1Y155.065Z-11.488
N35930G1Y155.514Z-10.796
N35940G1Y156.636Z-9.562
N35950G1Y156.860Z-9.348
N35960G1Y157.309Z-9.034
N35970G1Y157.982Z-8.624
N35980G1X103.271Z-8.956
N35990G1X98.534Z-9.744
N36000G1X96.503Z-10.110
N36010G1X95.601Z-10.320
N36020G1X94.924Z-10.464
N36030G1X94.247Z-10.707
N36040G1X93.345Z-11.052
N36050G1Y157.534Z-11.568
N36060G1Y157.309Z-11.875
N36070G1Y157.085Z-12.267
N36080G1Y156.636Z-13.424
N36090G1Y156.411Z-14.467
N36100G1Y151.249Z-13.865
N36110G1Y147.210Z-13.425
N36120G1Y142.721Z-13.005
N36130G1Y142.272Z-12.969
N36140G1Y142.047Z-12.916
N36150G1Y141.823Z-12.448
N36160G1Y141.599Z-11.872
N36170G1Y141.150Z-11.378
N36180G1Y140.476Z-10.763
N36190G1Y139.579Z-10.106
N36200G1Y139.130Z-9.849
N36210G1Y138.681Z-9.649
N36220G1Y138.008Z-9.459
N36230G1Y137.783Z-9.425
N36240G1Y137.559Z-9.159
N36250G1Y137.334Z-8.846
N36260G1Y137.110Z-8.653
N36270G1Y136.437Z-8.252
N36280G1Y135.090Z-7.634
N36290G1Y134.192Z-7.335
N36300G1Y133.519Z-7.216
N36310G1Y132.846Z-7.214
N36320G1Y132.397Z-7.260
N36330G1Y132.172Z-7.256
N36340G1Y131.948Z-7.186
N36350G1Y131.723Z-6.880
N36360G1Y131.499Z-6.651
N36370G1Y131.275Z-6.495
N36380G1Y130.826Z-6.294
N36390G1Y130.377Z-6.157
N36400G1Y129.928Z-6.057
N36410G1Y129.704Z-6.024
N36420G1Y129.479Z-6.023
N36430G1Y129.255Z-5.991
N36440G1Y128.581Z-6.006
N36450G1Y127.908Z-6.108
N36460G1Y127.010Z-5.875
N36470G1Y126.113Z-5.691
N36480G1Y125.664Z-5.641
N36490G1Y124.990Z-5.664
N36500G1Y124.766Z-5.590
N36510G1Y124.542Z-5.442
N36520G1Y124.317Z-5.335
N36530G1Y123.644Z-5.160
N36540G1Y122.522Z-4.971
N36550G1Y122.297Z-4.942
N36560G1Y121.624Z-4.906
N36570G1Y120.951Z-4.920
N36580G1Y120.726Z-4.954
N36590G1Y120.277Z-5.085
N36600G1Y119.828Z-5.249
N36610G1Y119.604Z-5.273
N36620G1Y118.706Z-5.125
N36630G1Y117.808Z-5.038
N36640G1Y117.360Z-5.047
N36650G1Y116.686Z-5.146
N36660G1Y116.237Z-4.913
N36670G1Y116.013Z-4.812
N36680G1Y115.564Z-4.683
N36690G1Y114.891Z-4.589
N36700G1Y113.993Z-4.575
N36710G1Y113.095Z-4.621
N36720G1Y112.198Z-4.758
N36730G1Y111.973Z-4.833
N36740G1Y111.749Z-4.935
N36750G1Y111.300Z-5.183
N36760G1Y111.075Z-5.239
N36770G1Y110.178Z-5.179
N36780G1Y109.504Z-5.174
N36790G1Y109.055Z-5.210
N36800G1Y108.607Z-5.274
N36810G1Y108.158Z-5.415
N36820G1Y107.933Z-5.519
N36830G1Y107.709Z-5.514
N36840G1Y107.484Z-5.373
N36850G1Y107.260Z-5.271
N36860G1Y106.811Z-5.163
N36870G1Y106.362Z-5.116
N36880G1Y105.689Z-5.126
N36890G1Y105.240Z-5.181
N36900G1Y104.342Z-5.370
N36910G1Y103.669Z-5.577
N36920G1Y103.445Z-5.660
N36930G1Y102.996Z-5.874
N36940G1Y102.771Z-6.037
N36950G1Y102.547Z-6.275
N36960G1Y101.425Z-6.421
N36970G1Y100.527Z-6.588
N36980G1Y99.854Z-6.790
N36990G1Y99.629Z-6.912
N37000G1Y99.405Z-6.933
N37010G1Y98.956Z-6.927
N37020G1Y98.058Z-7.075
N37030G1Y97.385Z-7.286
N37040G1Y96.712Z-7.548
N37050G1Y95.814Z-7.953
N37060G1Y95.365Z-8.230
N37070G1Y95.140Z-8.416
N37080G1Y94.692Z-8.941
N37090G1Y94.243Z-10.064
N37100G1Y93.794Z-10.612
N37110G1Y93.569Z-10.912
N37120G1Y93.345Z-10.936
N37130G1X93.571Z-10.790
N37140G1X94.022Z-10.042
N37150G1X94.473Z-9.023
N37160G1X94.699Z-8.716
N37170G1X94.924Z-8.502
N37180G1X95.375Z-8.236
N37190G1X95.827Z-8.026
N37200G1X96.729Z-7.722
N37210G1X96.954Z-7.625
N37220G1X97.180Z-7.165
N37230G1X97.406Z-6.885
N37240G1X97.631Z-6.706
N37250G1X97.857Z-6.586
N37260G1X98.082Z-6.492
N37270G1X98.534Z-6.367
N37280G1X98.985Z-6.297
N37290G1X99.662Z-6.297
N37300G1X100.338Z-6.328
N37310G1X100.564Z-6.321
N37320G1X100.790Z-6.054
N37330G1X101.015Z-5.881
N37340G1X101.241Z-5.737
N37350G1X101.466Z-5.629
N37360G1X101.692Z-5.562
N37370G1X102.143Z-5.488
N37380G1X102.594Z-5.482
N37390G1X103.046Z-5.518
N37400G1X103.948Z-5.692
N37410G1X104.173Z-5.744
N37420G1X104.399Z-5.692
N37430G1X104.625Z-5.541
N37440G1X104.850Z-5.437
N37450G1X105.076Z-5.373
N37460G1X105.527Z-5.327
N37470G1X105.978Z-5.354
N37480G1X106.429Z-5.397
N37490G1X106.655Z-5.435
N37500G1X106.973Y93.027Z-5.533
N37510G1Y93.476Z-5.507
N37520G1Y94.598Z-5.543
N37530G1Y95.046Z-5.623
N37540G1Y95.271Z-5.613
N37550G1Y95.495Z-5.567
N37560G1Y96.616Z-5.490
N37570G1Y97.738Z-5.404
N37580G1Y98.186Z-5.122
N37590G1Y98.411Z-5.031
N37600G1Y98.635Z-4.973
N37610G1Y98.859Z-4.885
N37620G1Y99.532Z-4.737
N37630G1Y100.430Z-4.653
N37640G1Y101.327Z-4.671
N37650G1Y102.673Z-4.781
N37660G1Y103.345Z-4.873
N37670G1Y104.243Z-4.898
N37680G1Y104.467Z-4.920
N37690G1Y104.691Z-4.972
N37700G1Y104.916Z-5.064
N37710G1Y107.159Z-5.156
N37720G1Y107.383Z-5.069
N37730G1Y107.832Z-4.963
N37740G1Y108.504Z-4.893
N37750G1Y109.177Z-4.916
N37760G1Y110.075Z-5.016
N37770G1Y111.645Z-5.264
N37780G1Y112.318Z-5.133
N37790G1Y112.991Z-5.089
N37800G1Y113.888Z-5.168
N37810G1Y114.561Z-5.292
N37820G1Y114.785Z-5.377
N37830G1Y115.234Z-5.629
N37840G1Y115.458Z-5.726
N37850G1Y116.131Z-5.858
N37860G1Y116.804Z-5.816
N37870G1Y117.477Z-5.879
N37880G1Y118.598Z-6.146
N37890G1Y119.495Z-6.430
N37900G1Y121.065Z-6.974
N37910G1Y121.290Z-7.033
N37920G1Y121.738Z-7.066
N37930G1Y122.187Z-7.150
N37940G1Y122.636Z-7.323
N37950G1Y123.084Z-7.545
N37960G1Y123.309Z-7.672
N37970G1Y123.533Z-7.858
N37980G1Y123.757Z-7.980
N37990G1Y124.654Z-8.352
N38000G1Y125.103Z-8.580
N38010G1Y125.327Z-8.677
N38020G1Y126.000Z-8.829
N38030G1Y126.673Z-9.120
N38040G1Y127.346Z-9.507
N38050G1Y127.795Z-9.805
N38060G1Y128.243Z-10.173
N38070G1Y128.692Z-10.536
N38080G1Y128.916Z-10.709
N38090G1Y129.140Z-10.975
N38100G1Y129.365Z-11.381
N38110G1Y130.038Z-12.247
N38120G1Y130.262Z-12.308
N38130G1Y132.505Z-12.579
N38140G1Y139.234Z-13.301
N38150G1Y140.131Z-13.410
N38160G1Y141.701Z-13.621
N38170G1Y143.944Z-13.841
N38180G1Y153.814Z-15.120
N38190G1Y154.038Z-14.864
N38200G1Y154.262Z-13.358
N38210G1Y154.487Z-12.769
N38220G1Y155.160Z-11.231
N38230G1Y155.608Z-10.649
N38240G1Y156.730Z-9.419
N38250G1Y156.954Z-9.235
N38260G1Y157.851Z-8.673
N38270G1Y158.300Z-8.401
N38280G1X103.149Z-8.775
N38290G1X95.277Z-10.091
N38300G1X94.827Z-10.201
N38310G1X93.477Z-10.641
N38320G1X93.027Z-10.812
N38330G1Y157.627Z-11.589
N38340G1Y157.403Z-11.887
N38350G1Y157.178Z-12.296
N38360G1Y156.730Z-13.497
N38370G1Y156.505Z-14.461
N38380G1Y151.571Z-13.890
N38390G1Y147.533Z-13.453
N38400G1Y143.047Z-13.036
N38410G1Y142.374Z-12.982
N38420G1Y142.150Z-12.761
N38430G1Y141.926Z-12.084
N38440G1Y141.701Z-11.606
N38450G1Y141.477Z-11.356
N38460G1Y140.804Z-10.744
N38470G1Y140.131Z-10.233
N38480G1Y139.907Z-10.082
N38490G1Y139.458Z-9.830
N38500G1Y138.785Z-9.571
N38510G1Y137.888Z-9.372
N38520G1Y137.664Z-8.983
N38530G1Y137.215Z-8.554
N38540G1Y136.767Z-8.281
N38550G1Y136.094Z-7.957
N38560G1Y135.197Z-7.571
N38570G1Y134.524Z-7.369
N38580G1Y133.851Z-7.245
N38590G1Y133.402Z-7.229
N38600G1Y132.729Z-7.290
N38610G1Y132.505Z-7.289
N38620G1Y132.056Z-7.169
N38630G1Y131.832Z-7.068
N38640G1Y131.608Z-6.776
N38650G1Y131.383Z-6.585
N38660G1Y131.159Z-6.454
N38670G1Y130.711Z-6.273
N38680G1Y130.262Z-6.154
N38690G1Y130.038Z-6.108
N38700G1Y129.589Z-6.084
N38710G1Y128.916Z-6.119
N38720G1Y128.692Z-6.173
N38730G1Y128.467Z-6.163
N38740G1Y127.570Z-5.915
N38750G1Y126.897Z-5.768
N38760G1Y126.224Z-5.658
N38770G1Y125.776Z-5.627
N38780G1Y125.103Z-5.679
N38790G1Y124.879Z-5.575
N38800G1Y124.430Z-5.334
N38810G1Y124.206Z-5.249
N38820G1Y123.309Z-5.076
N38830G1Y122.860Z-5.001
N38840G1Y122.187Z-4.956
N38850G1Y121.738Z-4.944
N38860G1Y121.290Z-4.983
N38870G1Y120.841Z-5.048
N38880G1Y120.617Z-5.103
N38890G1Y120.168Z-5.303
N38900G1Y119.047Z-5.112
N38910G1Y118.374Z-5.048
N38920G1Y117.701Z-5.053
N38930G1Y117.477Z-5.069
N38940G1Y116.804Z-5.225
N38950G1Y116.579Z-5.038
N38960G1Y116.355Z-4.909
N38970G1Y115.906Z-4.748
N38980G1Y115.234Z-4.615
N38990G1Y114.561Z-4.594
N39000G1Y113.888Z-4.622
N39010G1Y113.215Z-4.697
N39020G1Y112.542Z-4.837
N39030G1Y112.093Z-4.973
N39040G1Y111.869Z-5.083
N39050G1Y111.645Z-5.244
N39060G1Y110.523Z-5.178
N39070G1Y109.850Z-5.173
N39080G1Y109.402Z-5.203
N39090G1Y108.729Z-5.339
N39100G1Y108.280Z-5.520
N39110G1Y108.056Z-5.659
N39120G1Y107.832Z-5.558
N39130G1Y107.607Z-5.431
N39140G1Y107.159Z-5.254
N39150G1Y106.710Z-5.168
N39160G1Y106.486Z-5.153
N39170G1Y105.589Z-5.213
N39180G1Y104.691Z-5.414
N39190G1Y104.467Z-5.477
N39200G1Y104.243Z-5.575
N39210G1Y104.018Z-5.646
N39220G1Y103.570Z-5.882
N39230G1Y103.345Z-6.020
N39240G1Y103.121Z-6.244
N39250G1Y101.775Z-6.405
N39260G1Y100.654Z-6.643
N39270G1Y99.981Z-6.914
N39280G1Y99.757Z-6.978
N39290G1Y99.308Z-6.948
N39300G1Y98.859Z-6.992
N39310G1Y97.962Z-7.199
N39320G1Y97.289Z-7.460
N39330G1Y96.392Z-7.863
N39340G1Y95.943Z-8.111
N39350G1Y95.495Z-8.451
N39360G1Y95.271Z-8.693
N39370G1Y95.046Z-9.315
N39380G1Y94.822Z-9.654
N39390G1Y94.598Z-10.154
N39400G1Y94.373Z-10.396
N39410G1Y94.149Z-10.675
N39420G1Y93.925Z-10.870
N39430G1Y93.027Z-10.969
N39440G1X93.702Z-10.991
N39450G1X93.927Z-10.551
N39460G1X94.377Z-9.896
N39470G1X94.827Z-8.962
N39480G1X95.052Z-8.669
N39490G1X95.277Z-8.491
N39500G1X95.502Z-8.346
N39510G1X95.951Z-8.131
N39520G1X96.626Z-7.882
N39530G1X97.076Z-7.722
N39540G1X97.301Z-7.299
N39550G1X97.526Z-7.009
N39560G1X97.751Z-6.817
N39570G1X97.976Z-6.666
N39580G1X98.426Z-6.479
N39590G1X98.875Z-6.384
N39600G1X99.325Z-6.344
N39610G1X100.675Z-6.394
N39620G1X100.900Z-6.106
N39630G1X101.125Z-5.905
N39640G1X101.350Z-5.769
N39650G1X101.574Z-5.681
N39660G1X102.024Z-5.569
N39670G1X102.474Z-5.526
N39680G1X103.149Z-5.563
N39690G1X103.824Z-5.678
N39700G1X104.273Z-5.777
N39710G1X104.498Z-5.695
N39720G1X104.723Z-5.562
N39730G1X104.948Z-5.475
N39740G1X105.398Z-5.371
N39750G1X105.623Z-5.358
N39760G1X106.298Z-5.409
N39770G1X106.523Z-5.433
N39780G1X106.973Z-5.533
N39790G1X107.290Y92.710Z-5.642
N39800G1Y94.055Z-5.620
N39810G1Y94.728Z-5.643
N39820G1Y94.952Z-5.676
N39830G1Y97.418Z-5.442
N39840G1Y97.642Z-5.340
N39850G1Y97.866Z-5.202
N39860G1Y98.314Z-5.006
N39870G1Y98.763Z-4.889
N39880G1Y99.211Z-4.811
N39890G1Y99.884Z-4.740
N39900G1Y100.556Z-4.742
N39910G1Y101.677Z-4.809
N39920G1Y102.798Z-4.944
N39930G1Y103.246Z-4.810
N39940G1Y103.470Z-4.778
N39950G1Y104.143Z-4.782
N39960G1Y104.591Z-4.837
N39970G1Y104.815Z-4.905
N39980G1Y105.264Z-5.135
N39990G1Y106.833Z-5.200
N40000G1Y107.281Z-5.075
N40010G1Y107.730Z-4.996
N40020G1Y108.178Z-4.963
N40030G1Y108.851Z-4.992
N40040G1Y109.971Z-5.124
N40050G1Y111.092Z-5.300
N40060G1Y111.317Z-5.280
N40070G1Y111.541Z-5.216
N40080G1Y112.213Z-5.125
N40090G1Y112.886Z-5.110
N40100G1Y113.558Z-5.184
N40110G1Y114.231Z-5.308
N40120G1Y114.455Z-5.351
N40130G1Y114.903Z-5.497
N40140G1Y115.127Z-5.605
N40150G1Y115.352Z-5.766
N40160G1Y115.576Z-5.839
N40170G1Y115.800Z-5.879
N40180G1Y116.024Z-5.893
N40190G1Y116.697Z-5.874
N40200G1Y117.369Z-5.974
N40210G1Y118.490Z-6.274
N40220G1Y119.387Z-6.563
N40230G1Y120.508Z-6.944
N40240G1Y120.956Z-7.012
N40250G1Y121.180Z-7.019
N40260G1Y121.853Z-7.124
N40270G1Y122.525Z-7.345
N40280G1Y123.198Z-7.645
N40290G1Y123.422Z-7.805
N40300G1Y123.646Z-8.043
N40310G1Y123.870Z-8.159
N40320G1Y124.543Z-8.447
N40330G1Y124.767Z-8.562
N40340G1Y124.991Z-8.640
N40350G1Y125.215Z-8.686
N40360G1Y125.888Z-8.900
N40370G1Y126.560Z-9.249
N40380G1Y127.457Z-9.785
N40390G1Y128.130Z-10.371
N40400G1Y128.578Z-10.719
N40410G1Y128.802Z-10.913
N40420G1Y129.026Z-11.165
N40430G1Y129.251Z-11.602
N40440G1Y129.699Z-12.176
N40450G1Y129.923Z-12.294
N40460G1Y132.389Z-12.592
N40470G1Y139.563Z-13.362
N40480G1Y141.580Z-13.636
N40490G1Y143.598Z-13.828
N40500G1Y144.943Z-14.017
N40510G1Y149.202Z-14.554
N40520G1Y153.910Z-15.152
N40530G1Y154.134Z-13.804
N40540G1Y154.358Z-12.934
N40550G1Y155.031Z-11.405
N40560G1Y155.255Z-11.027
N40570G1Y155.703Z-10.498
N40580G1Y156.824Z-9.292
N40590G1Y157.497Z-8.855
N40600G1Y158.617Z-8.175
N40610G1X103.252Z-8.568
N40620G1X95.177Z-9.914
N40630G1X94.504Z-10.069
N40640G1X92.710Z-10.589
N40650G1Y157.721Z-11.601
N40660G1Y157.497Z-11.878
N40670G1Y157.272Z-12.293
N40680G1Y156.824Z-13.418
N40690G1Y156.600Z-14.452
N40700G1Y151.444Z-13.864
N40710G1Y147.633Z-13.459
N40720G1Y144.719Z-13.187
N40730G1Y142.701Z-13.012
N40740G1Y142.477Z-12.890
N40750G1Y142.253Z-12.560
N40760G1Y142.028Z-11.682
N40770G1Y141.804Z-11.363
N40780G1Y140.908Z-10.563
N40790G1Y140.459Z-10.230
N40800G1Y140.011Z-9.956
N40810G1Y139.563Z-9.715
N40820G1Y138.890Z-9.515
N40830G1Y138.217Z-9.414
N40840G1Y137.993Z-9.355
N40850G1Y137.769Z-8.901
N40860G1Y137.545Z-8.641
N40870G1Y137.321Z-8.470
N40880G1Y136.872Z-8.207
N40890G1Y136.200Z-7.874
N40900G1Y135.527Z-7.594
N40910G1Y135.079Z-7.459
N40920G1Y134.631Z-7.357
N40930G1Y133.958Z-7.280
N40940G1Y133.510Z-7.269
N40950G1Y133.061Z-7.352
N40960G1Y132.837Z-7.318
N40970G1Y131.716Z-7.021
N40980G1Y131.492Z-6.781
N40990G1Y131.268Z-6.609
N41000G1Y130.820Z-6.401
N41010G1Y130.371Z-6.260
N41020G1Y129.923Z-6.180
N41030G1Y129.699Z-6.181
N41040G1Y129.251Z-6.230
N41050G1Y129.026Z-6.211
N41060G1Y127.681Z-5.848
N41070G1Y127.009Z-5.718
N41080G1Y126.336Z-5.638
N41090G1Y125.888Z-5.637
N41100G1Y125.215Z-5.709
N41110G1Y124.991Z-5.624
N41120G1Y124.767Z-5.469
N41130G1Y124.319Z-5.253
N41140G1Y124.094Z-5.186
N41150G1Y122.749Z-5.005
N41160G1Y122.077Z-4.999
N41170G1Y121.853Z-5.032
N41180G1Y121.629Z-5.033
N41190G1Y121.404Z-5.067
N41200G1Y121.180Z-5.138
N41210G1Y120.956Z-5.181
N41220G1Y120.732Z-5.259
N41230G1Y120.508Z-5.289
N41240G1Y119.611Z-5.134
N41250G1Y118.714Z-5.037
N41260G1Y118.042Z-5.060
N41270G1Y117.593Z-5.115
N41280G1Y116.921Z-5.310
N41290G1Y116.697Z-5.082
N41300G1Y116.473Z-4.927
N41310G1Y116.248Z-4.821
N41320G1Y116.024Z-4.755
N41330G1Y115.352Z-4.651
N41340G1Y114.679Z-4.634
N41350G1Y114.231Z-4.660
N41360G1Y113.558Z-4.755
N41370G1Y113.110Z-4.859
N41380G1Y112.437Z-5.102
N41390G1Y112.213Z-5.247
N41400G1Y111.092Z-5.175
N41410G1Y110.196Z-5.176
N41420G1Y109.523Z-5.246
N41430G1Y109.075Z-5.356
N41440G1Y108.851Z-5.427
N41450G1Y108.626Z-5.525
N41460G1Y108.402Z-5.650
N41470G1Y108.178Z-5.729
N41480G1Y107.954Z-5.697
N41490G1Y107.730Z-5.536
N41500G1Y107.281Z-5.334
N41510G1Y107.057Z-5.265
N41520G1Y106.833Z-5.232
N41530G1Y106.385Z-5.234
N41540G1Y105.712Z-5.313
N41550G1Y105.040Z-5.471
N41560G1Y104.815Z-5.548
N41570G1Y104.367Z-5.740
N41580G1Y103.919Z-6.032
N41590G1Y103.695Z-6.210
N41600G1Y102.574Z-6.337
N41610G1Y101.677Z-6.486
N41620G1Y101.004Z-6.646
N41630G1Y100.780Z-6.717
N41640G1Y100.332Z-6.909
N41650G1Y100.108Z-7.035
N41660G1Y99.435Z-7.004
N41670G1Y99.211Z-7.016
N41680G1Y98.763Z-7.096
N41690G1Y98.090Z-7.291
N41700G1Y97.193Z-7.676
N41710G1Y96.745Z-7.880
N41720G1Y96.521Z-8.006
N41730G1Y96.073Z-8.309
N41740G1Y95.848Z-8.554
N41750G1Y95.624Z-9.036
N41760G1Y95.400Z-9.378
N41770G1Y95.176Z-10.002
N41780G1Y94.728Z-10.493
N41790G1Y94.503Z-10.789
N41800G1Y94.279Z-10.836
N41810G1Y92.710Z-11.008
N41820G1X93.832Z-11.026
N41830G1X94.056Z-10.758
N41840G1X94.280Z-10.383
N41850G1X94.729Z-9.752
N41860G1X95.177Z-8.903
N41870G1X95.402Z-8.657
N41880G1X95.626Z-8.476
N41890G1X96.075Z-8.238
N41900G1X96.523Z-8.048
N41910G1X97.196Z-7.793
N41920G1X97.420Z-7.646
N41930G1X97.645Z-7.199
N41940G1X97.869Z-6.937
N41950G1X98.093Z-6.766
N41960G1X98.318Z-6.652
N41970G1X98.766Z-6.493
N41980G1X99.215Z-6.413
N41990G1X99.888Z-6.413
N42000G1X100.785Z-6.452
